( AxiDraw CamBam Postprocessor )
( 2-correction 8/1/2017 4:21:35 PM )
G21 G90
G0 Z100.0
( Engrave1 )
G64 G17
G0 X246.0782 Y202.9594
G1 F100.0 Z0.0
G1 F1000.0 X217.1512
G0 Z100.0
G0 X217.1089 Y202.9619
G1 F100.0 Z0.0
G1 F1000.0 X196.2867 Y202.9594
G0 Z100.0
G0 X196.8617 Y202.0036
G1 F100.0 Z0.0
G1 F1000.0 X173.4806 Y202.3247
G0 Z100.0
G0 X175.0912 Y201.563
G1 F100.0 Z0.0
G1 F1000.0 X160.955 Y202.9594
G0 Z100.0
G0 X158.7595 Y201.1697
G1 F100.0 Z0.0
G1 F1000.0 X132.608 Y201.9264
G0 Z100.0
G0 X132.2471 Y199.9201
G1 F100.0 Z0.0
G1 F1000.0 X99.5788 Y200.3732
G0 Z100.0
G0 X100.9952 Y199.7957
G1 F100.0 Z0.0
G1 F1000.0 X69.3027 Y198.342
G0 Z100.0
G0 X67.5204 Y197.3712
G1 F100.0 Z0.0
G1 F1000.0 X78.7243 Y196.1365
G0 Z100.0
G0 X79.1026 Y196.0743
G1 F100.0 Z0.0
G1 F1000.0 X88.1409 Y195.0537
G0 Z100.0
G0 X88.2903 Y194.984
G1 F100.0 Z0.0
G1 F1000.0 X104.0345 Y195.5466
G0 Z100.0
G0 X103.8353 Y194.9442
G1 F100.0 Z0.0
G1 F1000.0 X133.5116 Y196.6767
G0 Z100.0
G0 X134.8831 Y197.8093
G1 F100.0 Z0.0
G1 F1000.0 X101.2565 Y196.5473
G0 Z100.0
G0 X101.0947 Y197.0401
G1 F100.0 Z0.0
G1 F1000.0 X118.5664 Y197.7645
G0 Z100.0
G0 X119.5223 Y195.2753
G1 F100.0 Z0.0
G1 F1000.0 X136.4887 Y196.2685
G0 Z100.0
G0 X138.3307 Y194.2199
G1 F100.0 Z0.0
G1 F1000.0 X122.2106 Y193.4059
G0 Z100.0
G0 X122.1857 Y194.8521
G1 F100.0 Z0.0
G1 F1000.0 X133.7655 Y194.5833
G0 Z100.0
G0 X133.8103 Y194.7501
G1 F100.0 Z0.0
G1 F1000.0 X147.6278 Y194.9392
G0 Z100.0
G0 X147.705 Y194.9218
G1 F100.0 Z0.0
G1 F1000.0 X156.798 Y193.6
G0 Z100.0
G0 X156.8354
G1 F100.0 Z0.0
G1 F1000.0 X180.0646 Y190.2297
G0 Z100.0
G0 X182.2451 Y191.0411
G1 F100.0 Z0.0
G1 F1000.0 X143.0825 Y196.8061
G0 Z100.0
G0 X141.0115 Y198.098
G1 F100.0 Z0.0
G1 F1000.0 X158.7595 Y196.0469
G0 Z100.0
G0 X158.8068 Y196.0544
G1 F100.0 Z0.0
G1 F1000.0 X189.1975 Y192.5795
G0 Z100.0
G0 X189.1576 Y191.9945
G1 F100.0 Z0.0
G1 F1000.0 X178.7802 Y193.2391
G0 Z100.0
G0 X180.8661 Y194.0929
G1 F100.0 Z0.0
G1 F1000.0 X147.0752 Y197.9985
G0 Z100.0
G0 X147.6701 Y196.7215
G1 F100.0 Z0.0
G1 F1000.0 X182.509 Y191.5689
G0 Z100.0
G0 X182.7704 Y190.9914
G1 F100.0 Z0.0
G1 F1000.0 X198.8531 Y192.0717
G0 Z100.0
G0 X198.8904 Y192.0791
G1 F100.0 Z0.0
G1 F1000.0 X235.0336 Y194.4663
G0 Z100.0
G0 X236.3454 Y196.4352
G1 F100.0 Z0.0
G1 F1000.0 X253.1102 Y199.9002
G0 Z100.0
G0 X251.99 Y201.207
G1 F100.0 Z0.0
G1 F1000.0 X243.1758 Y200.3159
G0 Z100.0
G0 X241.4084 Y199.3202
G1 F100.0 Z0.0
G1 F1000.0 X217.4997 Y199.5194
G0 Z100.0
G0 X220.5489 Y198.8
G1 F100.0 Z0.0
G1 F1000.0 X180.9707 Y200.5922
G0 Z100.0
G0 X180.8562 Y200.2039
G1 F100.0 Z0.0
G1 F1000.0 X141.8952 Y202.9594
G0 Z100.0
G0 X140.6506
G1 F100.0 Z0.0
G1 F1000.0 X119.8359 Y201.8269
G0 Z100.0
G0 X119.4227 Y202.9794
G1 F100.0 Z0.0
G1 F1000.0 X97.3385 Y202.9694
G0 Z100.0
G0 X97.3012 Y202.9594
G1 F100.0 Z0.0
G1 F1000.0 X79.3789
G0 Z100.0
G0 X81.0467 Y199.4073
G1 F100.0 Z0.0
G1 F1000.0 X65.4444 Y198.7826
G0 Z100.0
G0 X65.7058 Y199.38
G1 F100.0 Z0.0
G1 F1000.0 X95.9471 Y200.4951
G0 Z100.0
G0 X95.9794 Y200.7067
G1 F100.0 Z0.0
G1 F1000.0 X127.4529 Y202.9644
G0 Z100.0
G0 X127.7665 Y199.3028
G1 F100.0 Z0.0
G1 F1000.0 X90.655 Y197.6251
G0 Z100.0
G0 X88.6462 Y195.5989
G1 F100.0 Z0.0
G1 F1000.0 X57.6905 Y199.0514
G0 Z100.0
G0 X56.67 Y197.9935
G1 F100.0 Z0.0
G1 F1000.0 X83.6927 Y194.1875
G0 Z100.0
G0 X83.7201 Y193.62
G1 F100.0 Z0.0
G1 F1000.0 X98.6777 Y193.8315
G0 Z100.0
G0 X99.9746 Y192.7612
G1 F100.0 Z0.0
G1 F1000.0 X110.0558 Y192.1837
G0 Z100.0
G0 X108.2263 Y192.9031
G1 F100.0 Z0.0
G1 F1000.0 X122.9723 Y191.4917
G0 Z100.0
G0 X120.396 Y192.2982
G1 F100.0 Z0.0
G1 F1000.0 X139.5927 Y190.6653
G0 Z100.0
G0 X139.6425 Y190.6553
G1 F100.0 Z0.0
G1 F1000.0 X178.3346 Y185.2388
G0 Z100.0
G0 X178.3719 Y185.2264
G1 F100.0 Z0.0
G1 F1000.0 X192.7645 Y183.0956
G0 Z100.0
G0 X193.6083 Y181.8809
G1 F100.0 Z0.0
G1 F1000.0 X163.596 Y184.5394
G0 Z100.0
G0 X163.2177 Y182.7969
G1 F100.0 Z0.0
G1 F1000.0 X150.7792 Y182.5206
G0 Z100.0
G0 X148.1854 Y181.3009
G1 F100.0 Z0.0
G1 F1000.0 X184.0423 Y178.3686
G0 Z100.0
G0 X185.3616 Y179.3071
G1 F100.0 Z0.0
G1 F1000.0 X202.3155 Y177.1166
G0 Z100.0
G0 X203.3336 Y175.282
G1 F100.0 Z0.0
G1 F1000.0 X170.5036 Y173.5968
G0 Z100.0
G0 X168.9901 Y171.2072
G1 F100.0 Z0.0
G1 F1000.0 X201.1257 Y173.0965
G0 Z100.0
G0 X200.7797 Y172.4817
G1 F100.0 Z0.0
G1 F1000.0 X213.1734 Y173.3653
G0 Z100.0
G0 X215.5506 Y174.5751
G1 F100.0 Z0.0
G1 F1000.0 X207.05 Y174.4432
G0 Z100.0
G0 X207.0127
G1 F100.0 Z0.0
G1 F1000.0 X202.7088 Y174.3909
G0 Z100.0
G0 X202.6591 Y174.6697
G1 F100.0 Z0.0
G1 F1000.0 X163.0111 Y172.646
G0 Z100.0
G0 X161.3358 Y171.364
G1 F100.0 Z0.0
G1 F1000.0 X185.847 Y172.7754
G0 Z100.0
G0 X186.1258 Y174.9783
G1 F100.0 Z0.0
G1 F1000.0 X177.3937 Y174.5054
G0 Z100.0
G0 X178.1579 Y172.8675
G1 F100.0 Z0.0
G1 F1000.0 X159.4291 Y171.8569
G0 Z100.0
G0 X159.3768 Y171.5656
G1 F100.0 Z0.0
G1 F1000.0 X153.2858 Y171.9365
G0 Z100.0
G0 X153.5596 Y171.3317
G1 F100.0 Z0.0
G1 F1000.0 X133.0137 Y169.9103
G0 Z100.0
G0 X133.7854 Y169.3851
G1 F100.0 Z0.0
G1 F1000.0 X157.9804 Y171.0603
G0 Z100.0
G0 X156.0762 Y172.3547
G1 F100.0 Z0.0
G1 F1000.0 X183.2358 Y175.8072
G0 Z100.0
G0 X183.3329 Y175.8147
G1 F100.0 Z0.0
G1 F1000.0 X190.0562 Y175.1825
G0 Z100.0
G0 X190.9026 Y176.2653
G1 F100.0 Z0.0
G1 F1000.0 X211.543 Y175.6803
G0 Z100.0
G0 X211.1049 Y177.816
G1 F100.0 Z0.0
G1 F1000.0 X220.8028 Y176.6187
G0 Z100.0
G0 X221.8707 Y174.1594
G1 F100.0 Z0.0
G1 F1000.0 X189.5957 Y173.4151
G0 Z100.0
G0 X188.0798 Y170.5998
G1 F100.0 Z0.0
G1 F1000.0 X217.7735 Y172.3846
G0 Z100.0
G0 X216.1829 Y171.5706
G1 F100.0 Z0.0
G1 F1000.0 X177.6077 Y166.6893
G0 Z100.0
G0 X177.1473 Y164.3519
G1 F100.0 Z0.0
G1 F1000.0 X165.3559 Y163.2069
G0 Z100.0
G0 X165.2787
G1 F100.0 Z0.0
G1 F1000.0 X132.4761 Y164.6208
G0 Z100.0
G0 X132.0853 Y166.7266
G1 F100.0 Z0.0
G1 F1000.0 X102.2323 Y171.7274
G0 Z100.0
G0 X101.8116 Y171.7225
G1 F100.0 Z0.0
G1 F1000.0 X97.453 Y171.7374
G0 Z100.0
G0 X96.2632 Y173.5072
G1 F100.0 Z0.0
G1 F1000.0 X79.9017 Y177.587
G0 Z100.0
G0 X81.1189 Y175.0431
G1 F100.0 Z0.0
G1 F1000.0 X85.6194 Y173.8184
G0 Z100.0
G0 X85.6542 Y173.5346
G1 F100.0 Z0.0
G1 F1000.0 X91.1703 Y173.5122
G0 Z100.0
G0 X91.6731 Y171.7623
G1 F100.0 Z0.0
G1 F1000.0 X128.8792 Y164.8971
G0 Z100.0
G0 X129.1181 Y165.2854
G1 F100.0 Z0.0
G1 F1000.0 X168.5545 Y164.3619
G0 Z100.0
G0 X168.6143 Y164.6058
G1 F100.0 Z0.0
G1 F1000.0 X184.5676 Y165.2057
G0 Z100.0
G0 X184.5203 Y166.3757
G1 F100.0 Z0.0
G1 F1000.0 X197.3421 Y168.0385
G0 Z100.0
G0 X196.344 Y165.96
G1 F100.0 Z0.0
G1 F1000.0 X226.9686 Y170.4853
G0 Z100.0
G0 X227.5287 Y171.7498
G1 F100.0 Z0.0
G1 F1000.0 X208.4813 Y168.9371
G0 Z100.0
G0 X207.4483 Y166.4105
G1 F100.0 Z0.0
G1 F1000.0 X233.9408 Y168.1231
G0 Z100.0
G0 X234.2445 Y169.1138
G1 F100.0 Z0.0
G1 F1000.0 X229.6295 Y168.4541
G0 Z100.0
G0 X228.1584 Y167.1573
G1 F100.0 Z0.0
G1 F1000.0 X199.1219 Y165.2854
G0 Z100.0
G0 X199.0622 Y165.4945
G1 F100.0 Z0.0
G1 F1000.0 X192.2293 Y164.8149
G0 Z100.0
G0 X193.7552 Y166.1367
G1 F100.0 Z0.0
G1 F1000.0 X164.5295 Y165.0415
G0 Z100.0
G0 X165.8861 Y163.8417
G1 F100.0 Z0.0
G1 F1000.0 X157.505 Y164.0732
G0 Z100.0
G0 X157.8261 Y165.1983
G1 F100.0 Z0.0
G1 F1000.0 X138.7638 Y168.5662
G0 Z100.0
G0 X138.602 Y166.2213
G1 F100.0 Z0.0
G1 F1000.0 X105.7719 Y171.7274
G0 Z100.0
G0 X105.1397 Y172.8974
G1 F100.0 Z0.0
G1 F1000.0 X71.8815 Y181.3432
G0 Z100.0
G0 X71.187 Y181.3831
G1 F100.0 Z0.0
G1 F1000.0 X61.9894 Y183.6781
G0 Z100.0
G0 X63.7219 Y184.0813
G1 F100.0 Z0.0
G1 F1000.0 X44.1369 Y187.0634
G0 Z100.0
G0 X45.252 Y187.494
G1 F100.0 Z0.0
G1 F1000.0 X82.7742 Y181.7863
G0 Z100.0
G0 X80.7903 Y181.3905
G1 F100.0 Z0.0
G1 F1000.0 X111.5767 Y177.7936
G0 Z100.0
G0 X111.7012 Y178.0102
G1 F100.0 Z0.0
G1 F1000.0 X139.7371 Y178.7047
G0 Z100.0
G0 X140.322 Y179.0034
G1 F100.0 Z0.0
G1 F1000.0 X148.5737 Y179.6456
G0 Z100.0
G0 X148.0983 Y180.1609
G1 F100.0 Z0.0
G1 F1000.0 X134.0268 Y179.1328
G0 Z100.0
G0 X132.9764 Y180.7259
G1 F100.0 Z0.0
G1 F1000.0 X144.5213 Y181.846
G0 Z100.0
G0 X144.5835 Y181.8834
G1 F100.0 Z0.0
G1 F1000.0 X164.2457 Y181.9083
G0 Z100.0
G0 X164.2781 Y181.5946
G1 F100.0 Z0.0
G1 F1000.0 X196.5904 Y177.2609
G0 Z100.0
G0 X197.1903 Y178.3711
G1 F100.0 Z0.0
G1 F1000.0 X163.2874 Y182.6227
G0 Z100.0
G0 X161.2263 Y181.3084
G1 F100.0 Z0.0
G1 F1000.0 X170.3243 Y180.1833
G0 Z100.0
G0 X171.3549 Y182.655
G1 F100.0 Z0.0
G1 F1000.0 X138.7339 Y188.0541
G0 Z100.0
G0 X138.6368 Y187.8127
G1 F100.0 Z0.0
G1 F1000.0 X117.4313 Y187.9545
G0 Z100.0
G0 X115.4499 Y187.972
G1 F100.0 Z0.0
G1 F1000.0 X99.5315 Y188.069
G0 Z100.0
G0 X99.4867 Y188.1064
G1 F100.0 Z0.0
G1 F1000.0 X61.4492 Y189.1817
G0 Z100.0
G0 X61.4094 Y189.1767
G1 F100.0 Z0.0
G1 F1000.0 X57.3918 Y189.239
G0 Z100.0
G0 X58.7758 Y187.4044
G1 F100.0 Z0.0
G1 F1000.0 X86.5254 Y183.1927
G0 Z100.0
G0 X86.401 Y182.6077
G1 F100.0 Z0.0
G1 F1000.0 X115.664 Y181.5872
G0 Z100.0
G0 X116.1892 Y181.0943
G1 F100.0 Z0.0
G1 F1000.0 X140.683 Y183.9345
G0 Z100.0
G0 X142.1093 Y188.0865
G1 F100.0 Z0.0
G1 F1000.0 X160.3128 Y185.082
G0 Z100.0
G0 X160.4024 Y185.4205
G1 F100.0 Z0.0
G1 F1000.0 X175.126 Y184.0863
G0 Z100.0
G0 X173.3512 Y185.3683
G1 F100.0 Z0.0
G1 F1000.0 X155.0556 Y187.9023
G0 Z100.0
G0 X155.0158
G1 F100.0 Z0.0
G1 F1000.0 X145.8431 Y189.2066
G0 Z100.0
G0 X145.7933 Y189.1718
G1 F100.0 Z0.0
G1 F1000.0 X130.2009 Y190.8644
G0 Z100.0
G0 X130.1312 Y190.5383
G1 F100.0 Z0.0
G1 F1000.0 X92.9526 Y192.5695
G0 Z100.0
G0 X92.9003 Y192.348
G1 F100.0 Z0.0
G1 F1000.0 X61.1431 Y192.8259
G0 Z100.0
G0 X60.0379 Y194.5783
G1 F100.0 Z0.0
G1 F1000.0 X46.5713 Y194.531
G0 Z100.0
G0 X46.2601 Y194.8994
G1 F100.0 Z0.0
G1 F1000.0 X26.9639 Y196.6219
G0 Z100.0
G0 X25.1641 Y193.8539
G1 F100.0 Z0.0
G1 F1000.0 X63.2713 Y194.0033
G0 Z100.0
G0 X62.2906 Y195.4122
G1 F100.0 Z0.0
G1 F1000.0 X78.3957 Y193.157
G0 Z100.0
G0 X79.2943 Y194.2174
G1 F100.0 Z0.0
G1 F1000.0 X71.7919 Y195.2703
G0 Z100.0
G0 X71.7545 Y195.2803
G1 F100.0 Z0.0
G1 F1000.0 X47.445 Y198.6855
G0 Z100.0
G0 X45.8942 Y200.1018
G1 F100.0 Z0.0
G1 F1000.0 X67.4432 Y197.0874
G0 Z100.0
G0 X66.4899 Y193.4333
G1 F100.0 Z0.0
G1 F1000.0 X48.6547 Y193.3536
G0 Z100.0
G0 X49.5932 Y192.119
G1 F100.0 Z0.0
G1 F1000.0 X42.5562 Y192.3978
G0 Z100.0
G0 X40.2935 Y193.0873
G1 F100.0 Z0.0
G1 F1000.0 X67.5926 Y191.9846
G0 Z100.0
G0 X67.839 Y192.1364
G1 F100.0 Z0.0
G1 F1000.0 X98.0031 Y191.7008
G0 Z100.0
G0 X99.6336 Y189.926
G1 F100.0 Z0.0
G1 F1000.0 X108.4403 Y189.819
G0 Z100.0
G0 X105.9785 Y187.4443
G1 F100.0 Z0.0
G1 F1000.0 X130.8556 Y187.2849
G0 Z100.0
G0 X130.5444 Y188.4499
G1 F100.0 Z0.0
G1 F1000.0 X104.0245 Y188.6341
G0 Z100.0
G0 X102.9591 Y190.4462
G1 F100.0 Z0.0
G1 F1000.0 X94.4585 Y190.5856
G0 Z100.0
G0 X94.4237 Y190.6105
G1 F100.0 Z0.0
G1 F1000.0 X86.2666 Y190.7325
G0 Z100.0
G0 X86.2292 Y190.7549
G1 F100.0 Z0.0
G1 F1000.0 X76.133 Y190.842
G0 Z100.0
G0 X73.1136 Y190.3367
G1 F100.0 Z0.0
G1 F1000.0 X94.4137 Y190.0529
G0 Z100.0
G0 X92.9053 Y187.6658
G1 F100.0 Z0.0
G1 F1000.0 X73.614 Y187.4866
G0 Z100.0
G0 X73.3451 Y187.6932
G1 F100.0 Z0.0
G1 F1000.0 X54.4471 Y188.191
G0 Z100.0
G0 X52.1869 Y187.0286
G1 F100.0 Z0.0
G1 F1000.0 X86.3387 Y182.6227
G0 Z100.0
G0 X86.3263 Y182.0452
G1 F100.0 Z0.0
G1 F1000.0 X99.0337 Y181.5872
G0 Z100.0
G0 X99.071 Y181.5897
G1 F100.0 Z0.0
G1 F1000.0 X116.1245 Y180.9723
G0 Z100.0
G0 X116.6074 Y180.36
G1 F100.0 Z0.0
G1 F1000.0 X85.6567 Y181.5075
G0 Z100.0
G0 X86.0127 Y182.075
G1 F100.0 Z0.0
G1 F1000.0 X76.5661 Y183.3047
G0 Z100.0
G0 X73.8579 Y186.3042
G1 F100.0 Z0.0
G1 F1000.0 X97.5476 Y182.8143
G0 Z100.0
G0 X97.6397 Y183.3047
G1 F100.0 Z0.0
G1 F1000.0 X118.783 Y181.9854
G0 Z100.0
G0 X118.0835 Y180.2306
G1 F100.0 Z0.0
G1 F1000.0 X153.7064 Y184.0141
G0 Z100.0
G0 X152.9423 Y185.1119
G1 F100.0 Z0.0
G1 F1000.0 X126.1933 Y185.1169
G0 Z100.0
G0 X126.1535 Y185.1069
G1 F100.0 Z0.0
G1 F1000.0 X94.7771 Y185.2189
G0 Z100.0
G0 X95.2899 Y185.8113
G1 F100.0 Z0.0
G1 F1000.0 X64.9042 Y187.3397
G0 Z100.0
G0 X67.3984 Y186.6602
G1 F100.0 Z0.0
G1 F1000.0 X92.7385 Y182.9537
G0 Z100.0
G0 X91.337 Y184.3004
G1 F100.0 Z0.0
G1 F1000.0 X122.0861 Y182.3613
G0 Z100.0
G0 X124.2518 Y181.4577
G1 F100.0 Z0.0
G1 F1000.0 X155.1303 Y184.7485
G0 Z100.0
G0 X156.1658 Y184.5692
G1 F100.0 Z0.0
G1 F1000.0 X166.7424 Y182.8118
G0 Z100.0
G0 X171.4171 Y183.2599
G1 F100.0 Z0.0
G1 F1000.0 X201.0311 Y179.6555
G0 Z100.0
G0 X201.0685 Y179.6456
G1 F100.0 Z0.0
G1 F1000.0 X229.4603 Y176.1532
G0 Z100.0
G0 X230.0477 Y173.9702
G1 F100.0 Z0.0
G1 F1000.0 X206.9604 Y172.3273
G0 Z100.0
G0 X204.2123 Y170.9707
G1 F100.0 Z0.0
G1 F1000.0 X195.7665 Y170.4629
G0 Z100.0
G0 X195.754 Y170.1169
G1 F100.0 Z0.0
G1 F1000.0 X157.9207 Y165.4049
G0 Z100.0
G0 X156.2579 Y166.067
G1 F100.0 Z0.0
G1 F1000.0 X163.5587 Y166.6843
G0 Z100.0
G0 X160.5692 Y165.1385
G1 F100.0 Z0.0
G1 F1000.0 X199.8712 Y170.0846
G0 Z100.0
G0 X200.7772 Y171.954
G1 F100.0 Z0.0
G1 F1000.0 X179.3427 Y170.6471
G0 Z100.0
G0 X179.3253 Y170.3335
G1 F100.0 Z0.0
G1 F1000.0 X147.2096 Y167.6676
G0 Z100.0
G0 X149.4873 Y167.2693
G1 F100.0 Z0.0
G1 F1000.0 X188.045 Y170.4878
G0 Z100.0
G0 X193.444 Y170.3659
G1 F100.0 Z0.0
G1 F1000.0 X168.9802 Y168.2923
G0 Z100.0
G0 X168.9428 Y168.2948
G1 F100.0 Z0.0
G1 F1000.0 X151.6404 Y166.8735
G0 Z100.0
G0 X150.3186 Y165.4049
G1 F100.0 Z0.0
G1 F1000.0 X113.125 Y171.6926
G0 Z100.0
G0 X113.2072 Y172.285
G1 F100.0 Z0.0
G1 F1000.0 X89.0271 Y172.3597
G0 Z100.0
G0 X88.8528 Y174.1096
G1 F100.0 Z0.0
G1 F1000.0 X52.0326 Y183.7403
G0 Z100.0
G0 X53.1751 Y181.6967
G1 F100.0 Z0.0
G1 F1000.0 X37.2442 Y184.9376
G0 Z100.0
G0 X36.1515 Y187.1356
G1 F100.0 Z0.0
G1 F1000.0 X21.4926 Y190.5508
G0 Z100.0
G0 X20.8379 Y191.9298
G1 F100.0 Z0.0
G1 F1000.0 X52.0575 Y187.0634
G0 Z100.0
G0 X51.6741 Y188.8507
G1 F100.0 Z0.0
G1 F1000.0 X79.4213 Y188.1014
G0 Z100.0
G0 X81.6516 Y189.697
G1 F100.0 Z0.0
G1 F1000.0 X91.1429 Y189.5178
G0 Z100.0
G0 X91.1802 Y189.5028
G1 F100.0 Z0.0
G1 F1000.0 X114.8998 Y189.1344
G0 Z100.0
G0 X114.5264 Y186.2594
G1 F100.0 Z0.0
G1 F1000.0 X95.3422 Y186.3515
G0 Z100.0
G0 X96.9029 Y185.779
G1 F100.0 Z0.0
G1 F1000.0 X103.3624 Y185.7566
G0 Z100.0
G0 X104.7986 Y185.7441
G1 F100.0 Z0.0
G1 F1000.0 X117.0754 Y185.7043
G0 Z100.0
G0 X117.3318 Y184.39
G1 F100.0 Z0.0
G1 F1000.0 X127.2587 Y183.7428
G0 Z100.0
G0 X128.4909 Y183.1081
G1 F100.0 Z0.0
G1 F1000.0 X104.49 Y184.6115
G0 Z100.0
G0 X105.9412 Y187.4492
G1 F100.0 Z0.0
G1 F1000.0 X101.7817 Y187.4741
G0 Z100.0
G0 X101.7444 Y187.4716
G1 F100.0 Z0.0
G1 F1000.0 X92.9476 Y187.5314
G0 Z100.0
G0 X90.7571 Y184.8978
G1 F100.0 Z0.0
G1 F1000.0 X115.7636 Y183.3246
G0 Z100.0
G0 X118.6361 Y185.8711
G1 F100.0 Z0.0
G1 F1000.0 X136.7849 Y187.0883
G0 Z100.0
G0 X136.302 Y188.883
G1 F100.0 Z0.0
G1 F1000.0 X130.1885 Y189.3286
G0 Z100.0
G0 X130.1337 Y189.2489
G1 F100.0 Z0.0
G1 F1000.0 X117.5608 Y190.623
G0 Z100.0
G0 X117.5209 Y193.6598
G1 F100.0 Z0.0
G1 F1000.0 X84.7556 Y193.0474
G0 Z100.0
G0 X83.6404 Y193.605
G1 F100.0 Z0.0
G1 F1000.0 X79.3316 Y194.2099
G0 Z100.0
G0 X80.0436 Y191.3921
G1 F100.0 Z0.0
G1 F1000.0 X64.9789 Y191.3971
G0 Z100.0
G0 X64.9341 Y191.5116
G1 F100.0 Z0.0
G1 F1000.0 X49.6305 Y192.119
G0 Z100.0
G0 X49.1053 Y190.9565
G1 F100.0 Z0.0
G1 F1000.0 X29.936 Y191.6933
G0 Z100.0
G0 X28.7387 Y192.3405
G1 F100.0 Z0.0
G1 F1000.0 X64.8146 Y190.9341
G0 Z100.0
G0 X62.2259 Y189.7517
G1 F100.0 Z0.0
G1 F1000.0 X69.7482 Y189.7368
G0 Z100.0
G0 X71.3164 Y189.4754
G1 F100.0 Z0.0
G1 F1000.0 X101.727 Y188.6291
G0 Z100.0
G0 X101.0748 Y191.0735
G1 F100.0 Z0.0
G1 F1000.0 X86.9586 Y191.2851
G0 Z100.0
G0 X89.154 Y194.2846
G1 F100.0 Z0.0
G1 F1000.0 X74.5499 Y196.032
G0 Z100.0
G0 X76.5089 Y197.5429
G1 F100.0 Z0.0
G1 F1000.0 X113.0379 Y199.2256
G0 Z100.0
G0 X113.0703 Y199.5791
G1 F100.0 Z0.0
G1 F1000.0 X121.6928 Y199.5517
G0 Z100.0
G0 X119.4849 Y195.2603
G1 F100.0 Z0.0
G1 F1000.0 X112.7741 Y194.8745
G0 Z100.0
G0 X113.3142 Y193.0076
G1 F100.0 Z0.0
G1 F1000.0 X141.4198 Y192.4202
G0 Z100.0
G0 X141.477 Y192.3778
G1 F100.0 Z0.0
G1 F1000.0 X160.1112 Y190.257
G0 Z100.0
G0 X159.9792 Y191.417
G1 F100.0 Z0.0
G1 F1000.0 X194.838 Y186.3764
G0 Z100.0
G0 X195.5599 Y186.3415
G1 F100.0 Z0.0
G1 F1000.0 X213.8356 Y185.4579
G0 Z100.0
G0 X212.8847 Y184.2531
G1 F100.0 Z0.0
G1 F1000.0 X230.8567 Y182.3812
G0 Z100.0
G0 X231.6234 Y184.5792
G1 F100.0 Z0.0
G1 F1000.0 X243.1135 Y183.8573
G0 Z100.0
G0 X242.1403 Y185.1069
G1 F100.0 Z0.0
G1 F1000.0 X253.0255 Y184.4099
G0 Z100.0
G0 X252.0547 Y181.3532
G1 F100.0 Z0.0
G1 F1000.0 X235.3124 Y183.1006
G0 Z100.0
G0 X235.4468 Y186.2519
G1 F100.0 Z0.0
G1 F1000.0 X202.45 Y187.738
G0 Z100.0
G0 X204.2696 Y188.9029
G1 F100.0 Z0.0
G1 F1000.0 X184.1867 Y190.0579
G0 Z100.0
G0 X184.1444 Y190.1948
G1 F100.0 Z0.0
G1 F1000.0 X155.4589 Y194.3941
G0 Z100.0
G0 X155.4215
G1 F100.0 Z0.0
G1 F1000.0 X147.4834 Y195.5566
G0 Z100.0
G0 X147.4038 Y195.5715
G1 F100.0 Z0.0
G1 F1000.0 X129.1679 Y195.2653
G0 Z100.0
G0 X129.6807 Y197.0277
G1 F100.0 Z0.0
G1 F1000.0 X95.3696 Y195.8005
G0 Z100.0
G0 X95.2999 Y195.8254
G1 F100.0 Z0.0
G1 F1000.0 X80.2551 Y197.1272
G0 Z100.0
G0 X77.5992 Y198.1478
G1 F100.0 Z0.0
G1 F1000.0 X109.3713 Y199.6239
G0 Z100.0
G0 X112.5625 Y201.324
G1 F100.0 Z0.0
G1 F1000.0 X146.6819 Y200.9208
G0 Z100.0
G0 X146.7292 Y200.7316
G1 F100.0 Z0.0
G1 F1000.0 X186.0163 Y194.643
G0 Z100.0
G0 X186.081 Y195.1209
G1 F100.0 Z0.0
G1 F1000.0 X223.9791 Y198.5212
G0 Z100.0
G0 X222.6623 Y197.8367
G1 F100.0 Z0.0
G1 F1000.0 X199.9035 Y195.7781
G0 Z100.0
G0 X201.8077 Y197.9014
G1 F100.0 Z0.0
G1 F1000.0 X183.1288 Y196.8709
G0 Z100.0
G0 X183.079 Y197.177
G1 F100.0 Z0.0
G1 F1000.0 X165.7293 Y198.3843
G0 Z100.0
G0 X167.0934 Y199.3501
G1 F100.0 Z0.0
G1 F1000.0 X189.872 Y197.8541
G0 Z100.0
G0 X188.6399 Y195.9822
G1 F100.0 Z0.0
G1 F1000.0 X183.1711 Y195.681
G0 Z100.0
G0 X182.3173 Y196.724
G1 F100.0 Z0.0
G1 F1000.0 X178.0334 Y196.9331
G0 Z100.0
G0 X177.9886 Y196.9356
G1 F100.0 Z0.0
G1 F1000.0 X170.75 Y197.538
G0 Z100.0
G0 X168.2658 Y198.7402
G1 F100.0 Z0.0
G1 F1000.0 X185.267 Y197.5902
G0 Z100.0
G0 X187.5919 Y194.6629
G1 F100.0 Z0.0
G1 F1000.0 X194.614 Y195.2977
G0 Z100.0
G0 X195.2612 Y198.1354
G1 F100.0 Z0.0
G1 F1000.0 X174.1527 Y199.4123
G0 Z100.0
G0 X174.2747 Y200.0695
G1 F100.0 Z0.0
G1 F1000.0 X150.4406 Y200.8137
G0 Z100.0
G0 X148.8699 Y199.1584
G1 F100.0 Z0.0
G1 F1000.0 X144.8548 Y199.7509
G0 Z100.0
G0 X144.8847 Y200.3483
G1 F100.0 Z0.0
G1 F1000.0 X105.7993 Y200.8411
G0 Z100.0
G0 X103.4147 Y202.3869
G1 F100.0 Z0.0
G1 F1000.0 X92.853 Y201.6252
G0 Z100.0
G0 X92.8132 Y201.5182
G1 F100.0 Z0.0
G1 F1000.0 X62.1437 Y200.4005
G0 Z100.0
G0 X62.7187 Y201.9115
G1 F100.0 Z0.0
G1 F1000.0 X87.1228 Y201.8766
G0 Z100.0
G0 X84.8253 Y197.3289
G1 F100.0 Z0.0
G1 F1000.0 X99.758 Y196.5473
G0 Z100.0
G0 X100.5496 Y194.9293
G1 F100.0 Z0.0
G1 F1000.0 X89.2287 Y194.4489
G0 Z100.0
G0 X83.1775 Y193.0798
G1 F100.0 Z0.0
G1 F1000.0 X60.4809 Y196.2685
G0 Z100.0
G0 X62.2358 Y195.3773
G1 F100.0 Z0.0
G1 F1000.0 X26.6826 Y201.7198
G0 Z100.0
G0 X23.9345 Y200.9905
G1 F100.0 Z0.0
G1 F1000.0 X43.181 Y197.5678
G0 Z100.0
G0 X43.186 Y201.8368
G1 F100.0 Z0.0
G1 F1000.0 X60.7697 Y202.9644
G0 Z100.0
G0 X65.2826 Y202.6657
G1 F100.0 Z0.0
G1 F1000.0 X45.3093 Y201.3788
G0 Z100.0
G0 X48.2391 Y200.9731
G1 F100.0 Z0.0
G1 F1000.0 X72.0034 Y201.3315
G0 Z100.0
G0 X65.3398 Y202.489
G1 F100.0 Z0.0
G1 F1000.0 X95.855 Y202.4193
G0 Z100.0
G0 X92.8754 Y201.0627
G1 F100.0 Z0.0
G1 F1000.0 X111.8331 Y202.4143
G0 Z100.0
G0 X103.8179 Y194.414
G1 F100.0 Z0.0
G1 F1000.0 X96.9203 Y194.3244
G0 Z100.0
G0 X96.2632 Y197.3338
G1 F100.0 Z0.0
G1 F1000.0 X127.2064 Y198.7104
G0 Z100.0
G0 X126.2456 Y194.1875
G1 F100.0 Z0.0
G1 F1000.0 X103.8602 Y194.3493
G0 Z100.0
G0 X105.1297 Y191.3324
G1 F100.0 Z0.0
G1 F1000.0 X126.8131 Y189.0473
G0 Z100.0
G0 X126.4771 Y190.1874
G1 F100.0 Z0.0
G1 F1000.0 X137.1209 Y189.4257
G0 Z100.0
G0 X137.1881 Y189.4929
G1 F100.0 Z0.0
G1 F1000.0 X155.4066 Y186.4934
G0 Z100.0
G0 X155.4613 Y186.4784
G1 F100.0 Z0.0
G1 F1000.0 X178.4342 Y184.3328
G0 Z100.0
G0 X178.4292 Y183.8623
G1 F100.0 Z0.0
G1 F1000.0 X201.875 Y181.6917
G0 Z100.0
G0 X201.8998 Y181.51
G1 F100.0 Z0.0
G1 F1000.0 X232.8456 Y177.5472
G0 Z100.0
G0 X234.3043 Y178.4956
G1 F100.0 Z0.0
G1 F1000.0 X247.6613 Y177.1464
G0 Z100.0
G0 X246.9967 Y176.1084
G1 F100.0 Z0.0
G1 F1000.0 X223.3991 Y171.7324
G0 Z100.0
G0 X224.8528 Y170.7616
G1 F100.0 Z0.0
G1 F1000.0 X193.8174 Y166.1815
G0 Z100.0
G0 X193.459 Y166.7167
G1 F100.0 Z0.0
G1 F1000.0 X228.0887 Y173.2085
G0 Z100.0
G0 X224.4321 Y175.9516
G1 F100.0 Z0.0
G1 F1000.0 X214.8536 Y176.1383
G0 Z100.0
G0 X214.8138 Y176.1632
G1 F100.0 Z0.0
G1 F1000.0 X182.2551 Y177.0892
G0 Z100.0
G0 X180.6794 Y176.0711
G1 F100.0 Z0.0
G1 F1000.0 X174.1751 Y175.175
G0 Z100.0
G0 X172.8608 Y176.8179
G1 F100.0 Z0.0
G1 F1000.0 X145.7186 Y173.333
G0 Z100.0
G0 X145.6813 Y173.338
G1 F100.0 Z0.0
G1 F1000.0 X128.4709 Y171.1101
G0 Z100.0
G0 X128.3788 Y170.9135
G1 F100.0 Z0.0
G1 F1000.0 X108.1391 Y174.3137
G0 Z100.0
G0 X109.3614 Y175.5484
G1 F100.0 Z0.0
G1 F1000.0 X102.8297 Y176.4868
G0 Z100.0
G0 X103.223 Y177.6094
G1 F100.0 Z0.0
G1 F1000.0 X113.5432 Y176.3698
G0 Z100.0
G0 X114.051 Y177.4924
G1 F100.0 Z0.0
G1 F1000.0 X122.6761 Y177.6841
G0 Z100.0
G0 X122.7234 Y177.5298
G1 F100.0 Z0.0
G1 F1000.0 X131.2564 Y177.9604
G0 Z100.0
G0 X129.5413 Y174.5303
G1 F100.0 Z0.0
G1 F1000.0 X160.5493 Y178.7221
G0 Z100.0
G0 X160.6165 Y179.1229
G1 F100.0 Z0.0
G1 F1000.0 X178.9021 Y177.6268
G0 Z100.0
G0 X178.1081 Y176.3076
G1 F100.0 Z0.0
G1 F1000.0 X145.6813 Y171.3665
G0 Z100.0
G0 X143.6526 Y168.2899
G1 F100.0 Z0.0
G1 F1000.0 X170.2024 Y170.1344
G0 Z100.0
G0 X168.9478 Y171.2271
G1 F100.0 Z0.0
G1 F1000.0 X136.1974 Y168.9719
G0 Z100.0
G0 X136.8819 Y172.7903
G1 F100.0 Z0.0
G1 F1000.0 X110.8474 Y174.4531
G0 Z100.0
G0 X112.3583 Y175.7201
G1 F100.0 Z0.0
G1 F1000.0 X91.5138 Y178.7022
G0 Z100.0
G0 X91.4615 Y178.7047
G1 F100.0 Z0.0
G1 F1000.0 X63.7741 Y184.0913
G0 Z100.0
G0 X62.1163 Y186.3191
G1 F100.0 Z0.0
G1 F1000.0 X38.5187 Y189.7791
G0 Z100.0
G0 X38.0532 Y188.0093
G1 F100.0 Z0.0
G1 F1000.0 X71.6699 Y179.2224
G0 Z100.0
G0 X71.6973 Y179.1801
G1 F100.0 Z0.0
G1 F1000.0 X93.423 Y173.5172
G0 Z100.0
G0 X93.2587 Y174.8663
G1 F100.0 Z0.0
G1 F1000.0 X55.4752 Y184.0689
G0 Z100.0
G0 X55.9431 Y184.5593
G1 F100.0 Z0.0
G1 F1000.0 X73.0688 Y180.3749
G0 Z100.0
G0 X73.1161 Y180.4073
G1 F100.0 Z0.0
G1 F1000.0 X87.2 Y176.9
G0 Z100.0
G0 X86.6474 Y174.1096
G1 F100.0 Z0.0
G1 F1000.0 X55.057 Y182.3489
G0 Z100.0
G0 X55.6021 Y179.9891
G1 F100.0 Z0.0
G1 F1000.0 X28.4648 Y184.2407
G0 Z100.0
G0 X29.2415 Y183.5163
G1 F100.0 Z0.0
G1 F1000.0 X35.9374 Y182.4659
G0 Z100.0
G0 X37.2741 Y182.2568
G1 F100.0 Z0.0
G1 F1000.0 X47.9727 Y180.5815
G0 Z100.0
G0 X48.01 Y180.5741
G1 F100.0 Z0.0
G1 F1000.0 X69.4122 Y177.2211
G0 Z100.0
G0 X71.1297 Y176.4594
G1 F100.0 Z0.0
G1 F1000.0 X54.6114 Y178.0625
G0 Z100.0
G0 X54.5317 Y177.8608
G1 F100.0 Z0.0
G1 F1000.0 X31.31 Y182.0377
G0 Z100.0
G0 X33.6897 Y182.2144
G1 F100.0 Z0.0
G1 F1000.0 X59.4205 Y178.1869
G0 Z100.0
G0 X60.8294 Y179.1527
G1 F100.0 Z0.0
G1 F1000.0 X56.6949 Y179.8173
G0 Z100.0
G0 X56.7571 Y180.3625
G1 F100.0 Z0.0
G1 F1000.0 X20.5492 Y187.7255
G0 Z100.0
G0 X22.1174 Y186.7995
G1 F100.0 Z0.0
G1 F1000.0 X42.6906 Y182.6152
G0 Z100.0
G0 X45.2894 Y184.512
G1 F100.0 Z0.0
G1 F1000.0 X17.7837 Y190.5682
G0 Z100.0
G0 X15.0705 Y192.6616
G1 F100.0 Z0.0
G1 F1000.0 X41.1175 Y186.5905
G0 Z100.0
G0 X41.1822 Y186.5755
G1 F100.0 Z0.0
G1 F1000.0 X60.6477 Y179.7676
G0 Z100.0
G0 X60.9688 Y179.5983
G1 F100.0 Z0.0
G1 F1000.0 X64.9714 Y178.5006
G0 Z100.0
G0 X62.5619 Y176.7083
G1 F100.0 Z0.0
G1 F1000.0 X79.4511 Y173.4176
G0 Z100.0
G0 X79.491 Y174.4755
G1 F100.0 Z0.0
G1 F1000.0 X71.2343 Y176.6934
G0 Z100.0
G0 X74.6818 Y172.5912
G1 F100.0 Z0.0
G1 F1000.0 X95.8475 Y168.5238
G0 Z100.0
G0 X93.535 Y166.3358
G1 F100.0 Z0.0
G1 F1000.0 X108.9183 Y161.7234
G0 Z100.0
G0 X109.548 Y161.7308
G1 F100.0 Z0.0
G1 F1000.0 X121.2921 Y160.9442
G0 Z100.0
G0 X122.0762 Y161.3923
G1 F100.0 Z0.0
G1 F1000.0 X109.8318 Y163.3139
G0 Z100.0
G0 X110.4691 Y162.6095
G1 F100.0 Z0.0
G1 F1000.0 X114.7654 Y161.9548
G0 Z100.0
G0 X115.3404 Y163.6799
G1 F100.0 Z0.0
G1 F1000.0 X84.0487 Y169.2183
G0 Z100.0
G0 X85.0195 Y169.644
G1 F100.0 Z0.0
G1 F1000.0 X57.6806 Y175.872
G0 Z100.0
G0 X57.8548 Y173.9578
G1 F100.0 Z0.0
G1 F1000.0 X39.1385 Y180.0239
G0 Z100.0
G0 X40.0471 Y179.1029
G1 F100.0 Z0.0
G1 F1000.0 X57.8698 Y173.3255
G0 Z100.0
G0 X57.8947 Y173.9578
G1 F100.0 Z0.0
G1 F1000.0 X95.026 Y161.6088
G0 Z100.0
G0 X93.6445 Y163.2891
G1 F100.0 Z0.0
G1 F1000.0 X109.1821 Y158.5596
G0 Z100.0
G0 X111.166 Y158.582
G1 F100.0 Z0.0
G1 F1000.0 X74.9034 Y169.5369
G0 Z100.0
G0 X75.0278 Y171.3068
G1 F100.0 Z0.0
G1 F1000.0 X110.1081 Y160.7575
G0 Z100.0
G0 X110.6234 Y161.0687
G1 F100.0 Z0.0
G1 F1000.0 X142.0022 Y152.9639
G0 Z100.0
G0 X141.8504 Y153.6036
G1 F100.0 Z0.0
G1 F1000.0 X174.0532 Y155.9708
G0 Z100.0
G0 X174.0606 Y156.3467
G1 F100.0 Z0.0
G1 F1000.0 X179.9551 Y156.9067
G0 Z100.0
G0 X181.2594 Y157.0412
G1 F100.0 Z0.0
G1 F1000.0 X209.355 Y159.1819
G0 Z100.0
G0 X207.6947 Y158.4725
G1 F100.0 Z0.0
G1 F1000.0 X173.9511 Y148.2767
G0 Z100.0
G0 X175.4023 Y146.5741
G1 F100.0 Z0.0
G1 F1000.0 X168.1911 Y144.3736
G0 Z100.0
G0 X168.0567 Y144.1471
G1 F100.0 Z0.0
G1 F1000.0 X137.0363 Y150.7261
G0 Z100.0
G0 X135.9585 Y153.3223
G1 F100.0 Z0.0
G1 F1000.0 X121.7551 Y157.0013
G0 Z100.0
G0 X122.9549 Y155.468
G1 F100.0 Z0.0
G1 F1000.0 X113.1897 Y157.6983
G0 Z100.0
G0 X113.0802 Y158.012
G1 F100.0 Z0.0
G1 F1000.0 X78.2613 Y157.7506
G0 Z100.0
G0 X78.2239 Y157.7581
G1 F100.0 Z0.0
G1 F1000.0 X69.0961 Y157.666
G0 Z100.0
G0 X70.7563 Y156.5184
G1 F100.0 Z0.0
G1 F1000.0 X88.1235 Y156.6902
G0 Z100.0
G0 X90.7546 Y158.4749
G1 F100.0 Z0.0
G1 F1000.0 X57.7129 Y158.1165
G0 Z100.0
G0 X57.1429 Y155.7617
G1 F100.0 Z0.0
G1 F1000.0 X77.3975 Y155.9957
G0 Z100.0
G0 X77.4349
G1 F100.0 Z0.0
G1 F1000.0 X115.6516 Y156.5334
G0 Z100.0
G0 X115.7188 Y156.379
G1 F100.0 Z0.0
G1 F1000.0 X150.2116 Y149.123
G0 Z100.0
G0 X150.3336 Y149.2375
G1 F100.0 Z0.0
G1 F1000.0 X181.3465 Y154.7635
G0 Z100.0
G0 X182.382 Y156.5558
G1 F100.0 Z0.0
G1 F1000.0 X192.3936 Y157.3025
G0 Z100.0
G0 X190.6063 Y156.5782
G1 F100.0 Z0.0
G1 F1000.0 X151.9192 Y153.7629
G0 Z100.0
G0 X150.1444 Y150.3228
G1 F100.0 Z0.0
G1 F1000.0 X161.3782 Y151.7715
G0 Z100.0
G0 X159.2375 Y152.6278
G1 F100.0 Z0.0
G1 F1000.0 X144.9918 Y151.4106
G0 Z100.0
G0 X147.135 Y152.1822
G1 F100.0 Z0.0
G1 F1000.0 X177.324 Y154.7038
G0 Z100.0
G0 X179.3129 Y155.1867
G1 F100.0 Z0.0
G1 F1000.0 X186.7132 Y155.7144
G0 Z100.0
G0 X187.2609 Y153.9297
G1 F100.0 Z0.0
G1 F1000.0 X161.3782 Y148.5829
G0 Z100.0
G0 X161.1915 Y147.3656
G1 F100.0 Z0.0
G1 F1000.0 X179.1087 Y147.8361
G0 Z100.0
G0 X177.6177 Y147.2163
G1 F100.0 Z0.0
G1 F1000.0 X161.1118 Y146.8006
G0 Z100.0
G0 X159.3096 Y148.7422
G1 F100.0 Z0.0
G1 F1000.0 X190.1085 Y155.1071
G0 Z100.0
G0 X191.612 Y154.2333
G1 F100.0 Z0.0
G1 F1000.0 X158.3737 Y147.3781
G0 Z100.0
G0 X155.7376 Y146.1609
G1 F100.0 Z0.0
G1 F1000.0 X121.9069 Y153.3571
G0 Z100.0
G0 X121.8223 Y153.2402
G1 F100.0 Z0.0
G1 F1000.0 X104.602 Y154.4524
G0 Z100.0
G0 X104.5447 Y154.1487
G1 F100.0 Z0.0
G1 F1000.0 X78.5301 Y153.7305
G0 Z100.0
G0 X80.1755 Y154.303
G1 F100.0 Z0.0
G1 F1000.0 X95.9869 Y154.5818
G0 Z100.0
G0 X98.4612 Y153.4542
G1 F100.0 Z0.0
G1 F1000.0 X104.9779 Y153.5588
G0 Z100.0
G0 X105.0351 Y153.8226
G1 F100.0 Z0.0
G1 F1000.0 X119.9529 Y152.7722
G0 Z100.0
G0 X121.7551 Y154.5022
G1 F100.0 Z0.0
G1 F1000.0 X101.6847 Y155.1419
G0 Z100.0
G0 X98.715 Y155.697
G1 F100.0 Z0.0
G1 F1000.0 X114.5961 Y155.921
G0 Z100.0
G0 X117.0256 Y157.432
G1 F100.0 Z0.0
G1 F1000.0 X92.3352 Y164.8797
G0 Z100.0
G0 X92.2979 Y164.8921
G1 F100.0 Z0.0
G1 F1000.0 X77.0839 Y169.4697
G0 Z100.0
G0 X78.214 Y166.5872
G1 F100.0 Z0.0
G1 F1000.0 X58.5642 Y173.1314
G0 Z100.0
G0 X58.736 Y172.4817
G1 F100.0 Z0.0
G1 F1000.0 X83.506 Y164.2101
G0 Z100.0
G0 X85.0668 Y162.6543
G1 F100.0 Z0.0
G1 F1000.0 X60.8394 Y168.1057
G0 Z100.0
G0 X60.817 Y168.2027
G1 F100.0 Z0.0
G1 F1000.0 X51.4675 Y170.112
G0 Z100.0
G0 X49.1725 Y171.7523
G1 F100.0 Z0.0
G1 F1000.0 X59.9333 Y169.5967
G0 Z100.0
G0 X57.6084 Y170.7218
G1 F100.0 Z0.0
G1 F1000.0 X25.9433 Y176.7979
G0 Z100.0
G0 X24.7858 Y178.2367
G1 F100.0 Z0.0
G1 F1000.0 X32.7015 Y176.7133
G0 Z100.0
G0 X32.7363 Y176.7058
G1 F100.0 Z0.0
G1 F1000.0 X55.5374 Y172.3199
G0 Z100.0
G0 X56.6575 Y171.9415
G1 F100.0 Z0.0
G1 F1000.0 X72.2573 Y166.7341
G0 Z100.0
G0 X69.7507 Y164.8747
G1 F100.0 Z0.0
G1 F1000.0 X44.8139 Y170.3982
G0 Z100.0
G0 X43.2731 Y166.5026
G1 F100.0 Z0.0
G1 F1000.0 X35.0065 Y167.3813
G0 Z100.0
G0 X35.9499 Y168.479
G1 F100.0 Z0.0
G1 F1000.0 X59.204 Y165.9998
G0 Z100.0
G0 X61.6857 Y165.1435
G1 F100.0 Z0.0
G1 F1000.0 X31.3847 Y168.367
G0 Z100.0
G0 X33.8938 Y170.9857
G1 F100.0 Z0.0
G1 F1000.0 X29.5501 Y171.9465
G0 Z100.0
G0 X27.2626 Y173.6765
G1 F100.0 Z0.0
G1 F1000.0 X64.5035 Y165.4323
G0 Z100.0
G0 X63.1419 Y163.7944
G1 F100.0 Z0.0
G1 F1000.0 X69.0687 Y163.2218
G0 Z100.0
G0 X68.0829 Y162.1913
G1 F100.0 Z0.0
G1 F1000.0 X56.6725 Y163.1671
G0 Z100.0
G0 X57.1429 Y163.8292
G1 F100.0 Z0.0
G1 F1000.0 X62.084 Y163.304
G0 Z100.0
G0 X62.9527 Y163.2144
G1 F100.0 Z0.0
G1 F1000.0 X92.2382 Y160.7575
G0 Z100.0
G0 X92.3352 Y161.0015
G1 F100.0 Z0.0
G1 F1000.0 X103.3649 Y158.5247
G0 Z100.0
G0 X106.1378 Y158.5397
G1 F100.0 Z0.0
G1 F1000.0 X80.1182 Y167.1896
G0 Z100.0
G0 X80.0809 Y167.1996
G1 F100.0 Z0.0
G1 F1000.0 X44.2663 Y179.1029
G0 Z100.0
G0 X44.4206 Y176.6685
G1 F100.0 Z0.0
G1 F1000.0 X17.7762 Y186.2992
G0 Z100.0
G0 X16.8054 Y186.0155
G1 F100.0 Z0.0
G1 F1000.0 X46.6036 Y175.2447
G0 Z100.0
G0 X44.4604 Y176.6511
G1 F100.0 Z0.0
G1 F1000.0 X77.8083 Y165.492
G0 Z100.0
G0 X74.9805 Y164.3171
G1 F100.0 Z0.0
G1 F1000.0 X37.6823 Y172.5862
G0 Z100.0
G0 X35.9474 Y169.0789
G1 F100.0 Z0.0
G1 F1000.0 X54.0015 Y167.1498
G0 Z100.0
G0 X51.7438 Y165.604
G1 F100.0 Z0.0
G1 F1000.0 X89.9456 Y161.5391
G0 Z100.0
G0 X91.7055 Y159.03
G1 F100.0 Z0.0
G1 F1000.0 X55.3806 Y160.6057
G0 Z100.0
G0 X54.8927 Y159.4383
G1 F100.0 Z0.0
G1 F1000.0 X49.4886 Y159.6673
G0 Z100.0
G0 X47.1438 Y162.7862
G1 F100.0 Z0.0
G1 F1000.0 X77.746 Y160.2224
G0 Z100.0
G0 X76.4716 Y161.4993
G1 F100.0 Z0.0
G1 F1000.0 X93.0546 Y160.1004
G0 Z100.0
G0 X90.7919 Y158.4326
G1 F100.0 Z0.0
G1 F1000.0 X98.267 Y158.4849
G0 Z100.0
G0 X98.2794 Y159.0649
G1 F100.0 Z0.0
G1 F1000.0 X68.073 Y161.6312
G0 Z100.0
G0 X68.0357 Y161.6213
G1 F100.0 Z0.0
G1 F1000.0 X52.2417 Y162.9505
G0 Z100.0
G0 X48.7668 Y168.3073
G1 F100.0 Z0.0
G1 F1000.0 X20.706 Y174.5153
G0 Z100.0
G0 X23.8897 Y173.2409
G1 F100.0 Z0.0
G1 F1000.0 X43.9502 Y153.7704
G0 Z100.0
G0 X45.1624 Y153.3771
G1 F100.0 Z0.0
G1 F1000.0 X26.5382 Y172.6061
G0 Z100.0
G0 X29.6646 Y175.1053
G1 F100.0 Z0.0
G1 F1000.0 X67.0151 Y167.558
G0 Z100.0
G0 X67.0076 Y167.3216
G1 F100.0 Z0.0
G1 F1000.0 X100.7437 Y159.7121
G0 Z100.0
G0 X104.3232 Y161.8901
G1 F100.0 Z0.0
G1 F1000.0 X66.3554 Y173.2932
G0 Z100.0
G0 X62.9303 Y176.0412
G1 F100.0 Z0.0
G1 F1000.0 X92.1983 Y170.4206
G0 Z100.0
G0 X88.7757 Y167.792
G1 F100.0 Z0.0
G1 F1000.0 X119.5969 Y162.3581
G0 Z100.0
G0 X122.4969 Y163.7421
G1 F100.0 Z0.0
G1 F1000.0 X85.0742 Y169.6365
G0 Z100.0
G0 X85.9853 Y171.0155
G1 F100.0 Z0.0
G1 F1000.0 X53.4888 Y177.2734
G0 Z100.0
G0 X49.7077 Y177.9106
G1 F100.0 Z0.0
G1 F1000.0 X59.6022 Y174.6149
G0 Z100.0
G0 X57.7279 Y170.9583
G1 F100.0 Z0.0
G1 F1000.0 X64.7225 Y168.6234
G0 Z100.0
G0 X61.723 Y165.1336
G1 F100.0 Z0.0
G1 F1000.0 X80.066 Y163.1795
G0 Z100.0
G0 X80.0635 Y158.9504
G1 F100.0 Z0.0
G1 F1000.0 X41.5182 Y160.6082
G0 Z100.0
G0 X40.5175 Y158.9081
G1 F100.0 Z0.0
G1 F1000.0 X65.9348 Y158.801
G0 Z100.0
G0 X65.9721 Y158.8309
G1 F100.0 Z0.0
G1 F1000.0 X71.3961 Y158.7886
G0 Z100.0
G0 X72.1802 Y157.1183
G1 F100.0 Z0.0
G1 F1000.0 X106.2623 Y157.3772
G0 Z100.0
G0 X104.3556 Y161.8702
G1 F100.0 Z0.0
G1 F1000.0 X117.2596 Y157.9771
G0 Z100.0
G0 X117.1725 Y157.5116
G1 F100.0 Z0.0
G1 F1000.0 X125.5511 Y155.458
G0 Z100.0
G0 X123.9381 Y155.239
G1 F100.0 Z0.0
G1 F1000.0 X150.1145 Y149.7428
G0 Z100.0
G0 X151.4861 Y148.8368
G1 F100.0 Z0.0
G1 F1000.0 X167.8128 Y151.7541
G0 Z100.0
G0 X168.8159 Y151.9383
G1 F100.0 Z0.0
G1 F1000.0 X201.7381 Y157.7755
G0 Z100.0
G0 X203.8713 Y156.6952
G1 F100.0 Z0.0
G1 F1000.0 X172.1788 Y143.7488
G0 Z100.0
G0 X173.0401 Y143.4676
G1 F100.0 Z0.0
G1 F1000.0 X183.8407 Y147.8734
G0 Z100.0
G0 X183.878 Y147.8809
G1 F100.0 Z0.0
G1 F1000.0 X188.2789 Y149.6906
G0 Z100.0
G0 X188.3163 Y149.698
G1 F100.0 Z0.0
G1 F1000.0 X199.8313 Y154.4051
G0 Z100.0
G0 X199.8687 Y154.4126
G1 F100.0 Z0.0
G1 F1000.0 X205.1856 Y156.5856
G0 Z100.0
G0 X205.1582 Y156.7524
G1 F100.0 Z0.0
G1 F1000.0 X222.7793 Y164.2648
G0 Z100.0
G0 X223.1601 Y163.7869
G1 F100.0 Z0.0
G1 F1000.0 X206.1215 Y156.5334
G0 Z100.0
G0 X204.9417 Y154.1885
G1 F100.0 Z0.0
G1 F1000.0 X238.7101 Y164.6083
G0 Z100.0
G0 X237.5751 Y165.5418
G1 F100.0 Z0.0
G1 F1000.0 X249.8394 Y170.5924
G0 Z100.0
G0 X249.6776 Y171.9291
G1 F100.0 Z0.0
G1 F1000.0 X221.7114 Y167.9239
G0 Z100.0
G0 X219.6354 Y163.5504
G1 F100.0 Z0.0
G1 F1000.0 X197.5637 Y162.5373
G0 Z100.0
G0 X195.764 Y160.7924
G1 F100.0 Z0.0
G1 F1000.0 X171.9274 Y160.6356
G0 Z100.0
G0 X171.9075 Y160.1153
G1 F100.0 Z0.0
G1 F1000.0 X159.8224 Y159.3487
G0 Z100.0
G0 X159.7851 Y159.3362
G1 F100.0 Z0.0
G1 F1000.0 X127.4454 Y157.4494
G0 Z100.0
G0 X126.9077 Y157.4768
G1 F100.0 Z0.0
G1 F1000.0 X120.3835 Y159.1595
G0 Z100.0
G0 X123.5149 Y158.9504
G1 F100.0 Z0.0
G1 F1000.0 X159.4441 Y161.0836
G0 Z100.0
G0 X159.8573 Y158.7662
G1 F100.0 Z0.0
G1 F1000.0 X180.8835 Y160.0979
G0 Z100.0
G0 X181.3689 Y158.2335
G1 F100.0 Z0.0
G1 F1000.0 X145.6738 Y154.8009
G0 Z100.0
G0 X144.7528 Y157.3125
G1 F100.0 Z0.0
G1 F1000.0 X132.3566 Y156.5732
G0 Z100.0
G0 X132.5632 Y156.0032
G1 F100.0 Z0.0
G1 F1000.0 X140.0432 Y156.5085
G0 Z100.0
G0 X141.0713 Y157.6684
G1 F100.0 Z0.0
G1 F1000.0 X128.8991 Y156.9491
G0 Z100.0
G0 X127.0421 Y158.002
G1 F100.0 Z0.0
G1 F1000.0 X153.3679 Y159.5503
G0 Z100.0
G0 X153.4053 Y159.5553
G1 F100.0 Z0.0
G1 F1000.0 X166.8121 Y160.3717
G0 Z100.0
G0 X166.593 Y160.9318
G1 F100.0 Z0.0
G1 F1000.0 X132.6055 Y158.9081
G0 Z100.0
G0 X133.4419 Y161.3699
G1 F100.0 Z0.0
G1 F1000.0 X111.7286 Y164.8797
G0 Z100.0
G0 X113.4088 Y165.7683
G1 F100.0 Z0.0
G1 F1000.0 X86.0201 Y171.0056
G0 Z100.0
G0 X86.625 Y172.9422
G1 F100.0 Z0.0
G1 F1000.0 X102.6778 Y172.9123
G0 Z100.0
G0 X103.1234 Y174.59
G1 F100.0 Z0.0
G1 F1000.0 X130.7311 Y169.9078
G0 Z100.0
G0 X130.8108 Y170.219
G1 F100.0 Z0.0
G1 F1000.0 X153.821 Y173.1986
G0 Z100.0
G0 X153.8608 Y173.206
G1 F100.0 Z0.0
G1 F1000.0 X161.5798 Y174.2888
G0 Z100.0
G0 X164.5071 Y175.1725
G1 F100.0 Z0.0
G1 F1000.0 X131.0373 Y170.8438
G0 Z100.0
G0 X132.0529 Y173.6914
G1 F100.0 Z0.0
G1 F1000.0 X155.3842 Y176.8751
G0 Z100.0
G0 X155.5559 Y179.5261
G1 F100.0 Z0.0
G1 F1000.0 X146.1617 Y178.8988
G0 Z100.0
G0 X144.1927 Y177.6542
G1 F100.0 Z0.0
G1 F1000.0 X138.017 Y177.2485
G0 Z100.0
G0 X137.9797
G1 F100.0 Z0.0
G1 F1000.0 X121.2498 Y176.2453
G0 Z100.0
G0 X121.2149 Y176.2354
G1 F100.0 Z0.0
G1 F1000.0 X112.4504 Y175.7176
G0 Z100.0
G0 X110.6209 Y178.5006
G1 F100.0 Z0.0
G1 F1000.0 X90.9089 Y180.7682
G0 Z100.0
G0 X87.6257 Y180.0264
G1 F100.0 Z0.0
G1 F1000.0 X116.926 Y176.5689
G0 Z100.0
G0 X117.0132 Y176.5764
G1 F100.0 Z0.0
G1 F1000.0 X151.4537 Y178.6574
G0 Z100.0
G0 X148.1381 Y180.7159
G1 F100.0 Z0.0
G1 F1000.0 X187.8135 Y177.4999
G0 Z100.0
G0 X188.5951 Y181.7415
G1 F100.0 Z0.0
G1 F1000.0 X210.3905 Y179.8223
G0 Z100.0
G0 X210.4204 Y179.6829
G1 F100.0 Z0.0
G1 F1000.0 X235.7107 Y176.5988
G0 Z100.0
G0 X235.8351 Y175.3891
G1 F100.0 Z0.0
G1 F1000.0 X203.3834 Y174.9983
G0 Z100.0
G0 X207.9411 Y177.0145
G1 F100.0 Z0.0
G1 F1000.0 X197.2923 Y178.3562
G0 Z100.0
G0 X197.4765 Y175.5359
G1 F100.0 Z0.0
G1 F1000.0 X192.8168 Y175.3343
G0 Z100.0
G0 X192.757 Y175.5036
G1 F100.0 Z0.0
G1 F1000.0 X162.4983 Y178.3836
G0 Z100.0
G0 X162.3987 Y178.391
G1 F100.0 Z0.0
G1 F1000.0 X129.0086 Y173.8781
G0 Z100.0
G0 X128.7 Y174.9958
G1 F100.0 Z0.0
G1 F1000.0 X159.0931 Y179.1054
G0 Z100.0
G0 X157.2137 Y183.8026
G1 F100.0 Z0.0
G1 F1000.0 X120.6051 Y179.9294
G0 Z100.0
G0 X122.4993 Y178.8565
G1 F100.0 Z0.0
G1 F1000.0 X148.0585 Y180.7259
G0 Z100.0
G0 X148.1057 Y181.2984
G1 F100.0 Z0.0
G1 F1000.0 X110.703 Y178.5678
G0 Z100.0
G0 X112.9234 Y179.317
G1 F100.0 Z0.0
G1 F1000.0 X106.5262 Y179.556
G0 Z100.0
G0 X105.864 Y175.2895
G1 F100.0 Z0.0
G1 F1000.0 X69.1035 Y182.4833
G0 Z100.0
G0 X62.201 Y179.8821
G1 F100.0 Z0.0
G1 F1000.0 X85.5422 Y173.2707
G0 Z100.0
G0 X82.931 Y179.1478
G1 F100.0 Z0.0
G1 F1000.0 X105.6151 Y173.3678
G0 Z100.0
G0 X105.6226 Y174.7518
G1 F100.0 Z0.0
G1 F1000.0 X92.6837 Y177.2684
G0 Z100.0
G0 X99.2204 Y180.4098
G1 F100.0 Z0.0
G1 F1000.0 X118.0487 Y179.7153
G0 Z100.0
G0 X123.9207 Y184.5244
G1 F100.0 Z0.0
G1 F1000.0 X147.6403 Y184.5319
G0 Z100.0
G0 X149.3429 Y185.7018
G1 F100.0 Z0.0
G1 F1000.0 X124.9213 Y185.7043
G0 Z100.0
G0 X123.0793 Y186.7622
G1 F100.0 Z0.0
G1 F1000.0 X83.5857 Y186.9937
G0 Z100.0
G0 X73.0738 Y190.3292
G1 F100.0 Z0.0
G1 F1000.0 X34.5808 Y190.3865
G0 Z100.0
G0 X30.3815 Y186.9439
G1 F100.0 Z0.0
G1 F1000.0 X49.4388 Y183.0608
G0 Z100.0
G0 X49.2173 Y185.6943
G1 F100.0 Z0.0
G1 F1000.0 X55.9058 Y184.6688
G0 Z100.0
G0 X61.3795 Y189.7667
G1 F100.0 Z0.0
G1 F1000.0 X49.7326 Y189.7741
G0 Z100.0
G0 X50.3076 Y195.1384
G1 F100.0 Z0.0
G1 F1000.0 X34.4439 Y196.5547
G0 Z100.0
G0 X32.4252 Y197.9337
G1 F100.0 Z0.0
G1 F1000.0 X50.0014 Y196.3606
G0 Z100.0
G0 X55.2885 Y199.3924
G1 F100.0 Z0.0
G1 F1000.0 X31.6983 Y202.6831
G0 Z100.0
G0 X33.5578 Y199.8878
G1 F100.0 Z0.0
G1 F1000.0 X70.7265 Y193.2764
G0 Z100.0
G0 X56.7546 Y195.1583
G1 F100.0 Z0.0
G1 F1000.0 X18.1421 Y198.6133
G0 Z100.0
G0 X18.7694 Y186.8692
G1 F100.0 Z0.0
G1 F1000.0 X29.6622 Y184.6563
G0 Z100.0
G0 X30.7151 Y179.7203
G1 F100.0 Z0.0
G1 F1000.0 X25.4554 Y181.6195
G0 Z100.0
G0 X26.2943 Y179.6282
G1 F100.0 Z0.0
G1 F1000.0 X33.498 Y177.7712
G0 Z100.0
G0 X36.8883 Y178.1247
G1 F100.0 Z0.0
G1 F1000.0 X18.8864 Y184.629
G0 Z100.0
G0 X17.9778 Y180.1559
G1 F100.0 Z0.0
G1 F1000.0 X51.2983 Y173.7362
G0 Z100.0
G0 X56.5032 Y171.5358
G1 F100.0 Z0.0
G1 F1000.0 X17.5497 Y179.0183
G0 Z100.0
G0 X22.782 Y181.1516
G1 F100.0 Z0.0
G1 F1000.0 X42.8499 Y175.969
G0 Z100.0
G0 X40.9507 Y166.1467
G1 F100.0 Z0.0
G1 F1000.0 X63.1021 Y163.7969
G0 Z100.0
G0 X63.3037 Y160.8472
G1 F100.0 Z0.0
G1 F1000.0 X39.95 Y162.7837
G0 Z100.0
G0 X46.4991 Y154.6864
G1 F100.0 Z0.0
G1 F1000.0 X75.8667 Y153.8251
G0 Z100.0
G0 X76.1803 Y153.2202
G1 F100.0 Z0.0
G1 F1000.0 X57.6432 Y153.7629
G0 Z100.0
G0 X59.1741 Y155.1344
G1 F100.0 Z0.0
G1 F1000.0 X92.5219 Y155.6298
G0 Z100.0
G0 X93.4678 Y155.6248
G1 F100.0 Z0.0
G1 F1000.0 X98.6478 Y155.697
G0 Z100.0
G0 X99.4568 Y150.9825
G1 F100.0 Z0.0
G1 F1000.0 X130.9601 Y148.9438
G0 Z100.0
G0 X129.0783 Y149.6632
G1 F100.0 Z0.0
G1 F1000.0 X122.1758 Y150.0639
G0 Z100.0
G0 X122.5392 Y150.624
G1 F100.0 Z0.0
G1 F1000.0 X90.6351 Y151.9333
G0 Z100.0
G0 X90.5853 Y151.6072
G1 F100.0 Z0.0
G1 F1000.0 X66.9404 Y152.2968
G0 Z100.0
G0 X67.7793 Y151.077
G1 F100.0 Z0.0
G1 F1000.0 X93.7416 Y150.3826
G0 Z100.0
G0 X93.7715 Y152.3814
G1 F100.0 Z0.0
G1 F1000.0 X80.8326 Y153.153
G0 Z100.0
G0 X80.7853 Y153.0759
G1 F100.0 Z0.0
G1 F1000.0 X76.2152 Y153.2078
G0 Z100.0
G0 X76.7603 Y151.4205
G1 F100.0 Z0.0
G1 F1000.0 X98.2819 Y150.8256
G0 Z100.0
G0 X98.3317 Y150.4722
G1 F100.0 Z0.0
G1 F1000.0 X125.0035 Y148.7447
G0 Z100.0
G0 X126.9899 Y150.9376
G1 F100.0 Z0.0
G1 F1000.0 X87.8671 Y153.3148
G0 Z100.0
G0 X89.378 Y152.1325
G1 F100.0 Z0.0
G1 F1000.0 X81.7711 Y152.4984
G0 Z100.0
G0 X81.7287 Y152.461
G1 F100.0 Z0.0
G1 F1000.0 X52.5454 Y153.3148
G0 Z100.0
G0 X48.5701 Y152.8344
G1 F100.0 Z0.0
G1 F1000.0 X63.0 Y152.4113
G0 Z100.0
G0 X63.3112 Y149.3446
G1 F100.0 Z0.0
G1 F1000.0 X99.4543 Y148.6426
G0 Z100.0
G0 X99.6261 Y147.1516
G1 F100.0 Z0.0
G1 F1000.0 X127.8287 Y147.3781
G0 Z100.0
G0 X127.9557 Y150.6489
G1 F100.0 Z0.0
G1 F1000.0 X160.726 Y139.8084
G0 Z100.0
G0 X160.721 Y139.216
G1 F100.0 Z0.0
G1 F1000.0 X177.7297 Y137.8619
G0 Z100.0
G0 X177.2916 Y136.0796
G1 F100.0 Z0.0
G1 F1000.0 X151.4886 Y140.03
G0 Z100.0
G0 X153.2285 Y140.4706
G1 F100.0 Z0.0
G1 F1000.0 X115.791 Y143.6219
G0 Z100.0
G0 X116.8165 Y144.7097
G1 F100.0 Z0.0
G1 F1000.0 X149.547 Y141.8122
G0 Z100.0
G0 X147.6278 Y142.5739
G1 F100.0 Z0.0
G1 F1000.0 X122.8678 Y144.7445
G0 Z100.0
G0 X119.9081 Y146.5342
G1 F100.0 Z0.0
G1 F1000.0 X136.9043 Y147.0819
G0 Z100.0
G0 X139.4234 Y146.2455
G1 F100.0 Z0.0
G1 F1000.0 X131.1269 Y146.3301
G0 Z100.0
G0 X133.987 Y147.5772
G1 F100.0 Z0.0
G1 F1000.0 X103.8129 Y149.5337
G0 Z100.0
G0 X104.7713 Y146.1559
G1 F100.0 Z0.0
G1 F1000.0 X140.0383 Y145.6406
G0 Z100.0
G0 X140.1727 Y145.9816
G1 F100.0 Z0.0
G1 F1000.0 X156.5566 Y139.8508
G0 Z100.0
G0 X157.719 Y137.9067
G1 F100.0 Z0.0
G1 F1000.0 X136.1402 Y141.17
G0 Z100.0
G0 X136.1078 Y141.3119
G1 F100.0 Z0.0
G1 F1000.0 X126.5169 Y142.1508
G0 Z100.0
G0 X125.9743 Y139.9901
G1 F100.0 Z0.0
G1 F1000.0 X145.863 Y135.7784
G0 Z100.0
G0 X145.9028 Y135.7685
G1 F100.0 Z0.0
G1 F1000.0 X150.7841 Y134.7827
G0 Z100.0
G0 X149.7088 Y133.8617
G1 F100.0 Z0.0
G1 F1000.0 X161.9706 Y130.6208
G0 Z100.0
G0 X162.1075 Y130.5561
G1 F100.0 Z0.0
G1 F1000.0 X175.4571 Y132.6171
G0 Z100.0
G0 X176.174 Y132.7839
G1 F100.0 Z0.0
G1 F1000.0 X212.352 Y141.526
G0 Z100.0
G0 X212.0657 Y140.707
G1 F100.0 Z0.0
G1 F1000.0 X247.0166 Y159.391
G0 Z100.0
G0 X245.3414 Y157.1432
G1 F100.0 Z0.0
G1 F1000.0 X213.6962 Y140.2366
G0 Z100.0
G0 X214.5998 Y140.0424
G1 F100.0 Z0.0
G1 F1000.0 X196.7696 Y130.6133
G0 Z100.0
G0 X196.4883 Y131.2082
G1 F100.0 Z0.0
G1 F1000.0 X159.1429 Y128.7514
G0 Z100.0
G0 X159.0408 Y128.8709
G1 F100.0 Z0.0
G1 F1000.0 X150.7567 Y131.1908
G0 Z100.0
G0 X151.1003 Y132.2935
G1 F100.0 Z0.0
G1 F1000.0 X120.6026 Y140.4482
G0 Z100.0
G0 X119.5098 Y141.0008
G1 F100.0 Z0.0
G1 F1000.0 X87.6954 Y140.5403
G0 Z100.0
G0 X88.2106 Y142.4744
G1 F100.0 Z0.0
G1 F1000.0 X101.0972 Y143.5995
G0 Z100.0
G0 X99.3373 Y144.0326
G1 F100.0 Z0.0
G1 F1000.0 X83.974 Y142.6884
G0 Z100.0
G0 X83.9143 Y142.9921
G1 F100.0 Z0.0
G1 F1000.0 X47.6292 Y144.9984
G0 Z100.0
G0 X47.0318 Y142.442
G1 F100.0 Z0.0
G1 F1000.0 X57.347 Y140.6996
G0 Z100.0
G0 X57.3495 Y139.7835
G1 F100.0 Z0.0
G1 F1000.0 X92.1311 Y134.4616
G0 Z100.0
G0 X90.6351 Y136.8811
G1 F100.0 Z0.0
G1 F1000.0 X98.4387 Y136.0423
G0 Z100.0
G0 X98.4736 Y136.0224
G1 F100.0 Z0.0
G1 F1000.0 X121.5236 Y133.5556
G0 Z100.0
G0 X121.6207 Y134.0036
G1 F100.0 Z0.0
G1 F1000.0 X153.0667 Y129.2692
G0 Z100.0
G0 X154.1296 Y127.93
G1 F100.0 Z0.0
G1 F1000.0 X135.6946 Y130.693
G0 Z100.0
G0 X135.6573 Y130.698
G1 F100.0 Z0.0
G1 F1000.0 X130.298 Y131.5045
G0 Z100.0
G0 X130.2632 Y131.5119
G1 F100.0 Z0.0
G1 F1000.0 X117.4537 Y133.4187
G0 Z100.0
G0 X115.6939 Y135.4025
G1 F100.0 Z0.0
G1 F1000.0 X91.3769 Y139.8756
G0 Z100.0
G0 X90.0701 Y138.8949
G1 F100.0 Z0.0
G1 F1000.0 X101.9933 Y136.7915
G0 Z100.0
G0 X101.7942 Y133.222
G1 F100.0 Z0.0
G1 F1000.0 X79.0006 Y133.3738
G0 Z100.0
G0 X78.9135 Y132.9233
G1 F100.0 Z0.0
G1 F1000.0 X69.7507 Y134.5512
G0 Z100.0
G0 X68.2671 Y131.1958
G1 F100.0 Z0.0
G1 F1000.0 X83.7425 Y129.9388
G0 Z100.0
G0 X83.8147 Y130.2922
G1 F100.0 Z0.0
G1 F1000.0 X110.2201 Y127.4296
G0 Z100.0
G0 X111.6166 Y129.0551
G1 F100.0 Z0.0
G1 F1000.0 X134.4276 Y126.5335
G0 Z100.0
G0 X134.4898 Y126.6356
G1 F100.0 Z0.0
G1 F1000.0 X151.3815 Y125.9635
G0 Z100.0
G0 X147.4088 Y124.8981
G1 F100.0 Z0.0
G1 F1000.0 X170.4389 Y124.348
G0 Z100.0
G0 X171.6162 Y122.5707
G1 F100.0 Z0.0
G1 F1000.0 X155.419 Y122.9391
G0 Z100.0
G0 X158.3189 Y119.3597
G1 F100.0 Z0.0
G1 F1000.0 X128.0229 Y117.3608
G0 Z100.0
G0 X127.9183 Y117.4181
G1 F100.0 Z0.0
G1 F1000.0 X104.0021 Y118.2047
G0 Z100.0
G0 X105.1596 Y115.8175
G1 F100.0 Z0.0
G1 F1000.0 X94.5357 Y116.1585
G0 Z100.0
G0 X94.4112 Y115.5811
G1 F100.0 Z0.0
G1 F1000.0 X132.7474 Y114.329
G0 Z100.0
G0 X133.1208 Y114.3091
G1 F100.0 Z0.0
G1 F1000.0 X159.4416 Y114.3613
G0 Z100.0
G0 X159.4789
G1 F100.0 Z0.0
G1 F1000.0 X174.9991 Y114.3937
G0 Z100.0
G0 X176.3333 Y116.0117
G1 F100.0 Z0.0
G1 F1000.0 X205.2926 Y127.9574
G0 Z100.0
G0 X207.8615 Y127.7283
G1 F100.0 Z0.0
G1 F1000.0 X180.1218 Y116.283
G0 Z100.0
G0 X178.3296 Y116.1884
G1 F100.0 Z0.0
G1 F1000.0 X212.9793 Y130.4839
G0 Z100.0
G0 X212.3595 Y132.9333
G1 F100.0 Z0.0
G1 F1000.0 X187.6094 Y121.6074
G0 Z100.0
G0 X185.506 Y121.4456
G1 F100.0 Z0.0
G1 F1000.0 X167.5016 Y123.8228
G0 Z100.0
G0 X165.8239 Y125.05
G1 F100.0 Z0.0
G1 F1000.0 X140.3693 Y125.6598
G0 Z100.0
G0 X139.752 Y123.3075
G1 F100.0 Z0.0
G1 F1000.0 X174.2523 Y121.2017
G0 Z100.0
G0 X175.019 Y121.8563
G1 F100.0 Z0.0
G1 F1000.0 X170.6106 Y122.0082
G0 Z100.0
G0 X170.4189 Y120.079
G1 F100.0 Z0.0
G1 F1000.0 X145.8704 Y119.8251
G0 Z100.0
G0 X145.8281 Y119.9844
G1 F100.0 Z0.0
G1 F1000.0 X127.4777 Y120.3105
G0 Z100.0
G0 X126.2381 Y118.0454
G1 F100.0 Z0.0
G1 F1000.0 X114.4045 Y118.4436
G0 Z100.0
G0 X114.3671
G1 F100.0 Z0.0
G1 F1000.0 X100.2832 Y118.9216
G0 Z100.0
G0 X100.9927 Y117.9259
G1 F100.0 Z0.0
G1 F1000.0 X67.732 Y120.4823
G0 Z100.0
G0 X68.1377 Y119.2252
G1 F100.0 Z0.0
G1 F1000.0 X52.4607 Y121.3211
G0 Z100.0
G0 X51.7463 Y122.3143
G1 F100.0 Z0.0
G1 F1000.0 X87.2722 Y119.5787
G0 Z100.0
G0 X84.0586 Y117.677
G1 F100.0 Z0.0
G1 F1000.0 X121.6953 Y116.4722
G0 Z100.0
G0 X123.6543 Y113.0645
G1 F100.0 Z0.0
G1 F1000.0 X161.8536 Y109.8708
G0 Z100.0
G0 X162.6128 Y110.7072
G1 F100.0 Z0.0
G1 F1000.0 X155.1527 Y111.0208
G0 Z100.0
G0 X152.9398 Y109.1639
G1 F100.0 Z0.0
G1 F1000.0 X158.1497 Y108.9224
G0 Z100.0
G0 X158.9114 Y108.6412
G1 F100.0 Z0.0
G1 F1000.0 X164.6888 Y109.8783
G0 Z100.0
G0 X162.6502 Y110.7047
G1 F100.0 Z0.0
G1 F1000.0 X167.6958 Y110.5006
G0 Z100.0
G0 X167.0063 Y111.1254
G1 F100.0 Z0.0
G1 F1000.0 X141.6961 Y112.1509
G0 Z100.0
G0 X140.8846 Y111.0233
G1 F100.0 Z0.0
G1 F1000.0 X145.1486 Y110.6898
G0 Z100.0
G0 X145.9451 Y113.1591
G1 F100.0 Z0.0
G1 F1000.0 X163.9719 Y113.174
G0 Z100.0
G0 X164.0092
G1 F100.0 Z0.0
G1 F1000.0 X169.5726 Y113.1815
G0 Z100.0
G0 X166.6802 Y113.7739
G1 F100.0 Z0.0
G1 F1000.0 X131.7592 Y113.7291
G0 Z100.0
G0 X131.8413 Y111.7825
G1 F100.0 Z0.0
G1 F1000.0 X113.7274 Y113.3009
G0 Z100.0
G0 X111.8705 Y112.8131
G1 F100.0 Z0.0
G1 F1000.0 X80.3622 Y113.4503
G0 Z100.0
G0 X83.053 Y112.8056
G1 F100.0 Z0.0
G1 F1000.0 X121.8746 Y112.024
G0 Z100.0
G0 X119.4949 Y111.4067
G1 F100.0 Z0.0
G1 F1000.0 X140.8298 Y111.0333
G0 Z100.0
G0 X138.7414 Y107.9417
G1 F100.0 Z0.0
G1 F1000.0 X125.2823 Y107.3592
G0 Z100.0
G0 X123.4378 Y106.6921
G1 F100.0 Z0.0
G1 F1000.0 X143.9637 Y107.5857
G0 Z100.0
G0 X145.8953 Y107.0804
G1 F100.0 Z0.0
G1 F1000.0 X122.6437 Y106.0748
G0 Z100.0
G0 X121.9642 Y105.445
G1 F100.0 Z0.0
G1 F1000.0 X129.2052 Y105.786
G0 Z100.0
G0 X130.6166 Y109.607
G1 F100.0 Z0.0
G1 F1000.0 X151.6529 Y108.6337
G0 Z100.0
G0 X152.992 Y107.0257
G1 F100.0 Z0.0
G1 F1000.0 X116.2863 Y104.2328
G0 Z100.0
G0 X115.4126 Y104.5713
G1 F100.0 Z0.0
G1 F1000.0 X80.8501 Y107.6206
G0 Z100.0
G0 X79.1873 Y108.4968
G1 F100.0 Z0.0
G1 F1000.0 X84.1408 Y108.5117
G0 Z100.0
G0 X84.203 Y108.5167
G1 F100.0 Z0.0
G1 F1000.0 X117.9118 Y105.5396
G0 Z100.0
G0 X115.4325 Y105.1637
G1 F100.0 Z0.0
G1 F1000.0 X87.4315 Y107.6355
G0 Z100.0
G0 X87.6505 Y106.4258
G1 F100.0 Z0.0
G1 F1000.0 X114.2452 Y104.076
G0 Z100.0
G0 X115.4823 Y104.7655
G1 F100.0 Z0.0
G1 F1000.0 X121.9318 Y105.2583
G0 Z100.0
G0 X120.8839 Y106.4606
G1 F100.0 Z0.0
G1 F1000.0 X105.8416 Y107.7923
G0 Z100.0
G0 X110.4691 Y107.9691
G1 F100.0 Z0.0
G1 F1000.0 X133.5663 Y108.2977
G0 Z100.0
G0 X136.4961 Y110.518
G1 F100.0 Z0.0
G1 F1000.0 X159.8448 Y109.4427
G0 Z100.0
G0 X159.7129 Y106.9435
G1 F100.0 Z0.0
G1 F1000.0 X138.7663 Y105.3455
G0 Z100.0
G0 X138.4203 Y105.3206
G1 F100.0 Z0.0
G1 F1000.0 X104.6866 Y102.7567
G0 Z100.0
G0 X103.9797 Y102.7592
G1 F100.0 Z0.0
G1 F1000.0 X76.6782 Y106.8788
G0 Z100.0
G0 X78.331 Y107.989
G1 F100.0 Z0.0
G1 F1000.0 X63.5426 Y113.4005
G0 Z100.0
G0 X64.5657 Y114.3738
G1 F100.0 Z0.0
G1 F1000.0 X104.3232 Y113.5523
G0 Z100.0
G0 X104.5896 Y113.7316
G1 F100.0 Z0.0
G1 F1000.0 X111.634 Y114.4236
G0 Z100.0
G0 X111.7385 Y114.4186
G1 F100.0 Z0.0
G1 F1000.0 X116.2191 Y114.2717
G0 Z100.0
G0 X119.4575 Y111.4863
G1 F100.0 Z0.0
G1 F1000.0 X86.0724 Y112.1534
G0 Z100.0
G0 X82.1793 Y110.4931
G1 F100.0 Z0.0
G1 F1000.0 X119.9156 Y109.6742
G0 Z100.0
G0 X119.9529 Y109.5198
G1 F100.0 Z0.0
G1 F1000.0 X155.9144 Y107.8421
G0 Z100.0
G0 X153.0369 Y107.0282
G1 F100.0 Z0.0
G1 F1000.0 X161.6819 Y107.6903
G0 Z100.0
G0 X159.7303 Y105.8906
G1 F100.0 Z0.0
G1 F1000.0 X137.4321 Y103.7972
G0 Z100.0
G0 X138.2162 Y101.313
G1 F100.0 Z0.0
G1 F1000.0 X105.1695 Y92.0954
G0 Z100.0
G0 X105.6724 Y90.3779
G1 F100.0 Z0.0
G1 F1000.0 X117.7997 Y93.7657
G0 Z100.0
G0 X117.0629 Y92.2075
G1 F100.0 Z0.0
G1 F1000.0 X154.0997 Y98.5375
G0 Z100.0
G0 X153.0468 Y99.5581
G1 F100.0 Z0.0
G1 F1000.0 X132.0678 Y95.9736
G0 Z100.0
G0 X132.491 Y97.2506
G1 F100.0 Z0.0
G1 F1000.0 X170.0729 Y107.4712
G0 Z100.0
G0 X168.6317 Y105.5595
G1 F100.0 Z0.0
G1 F1000.0 X138.5771 Y98.2911
G0 Z100.0
G0 X137.3897 Y99.8543
G1 F100.0 Z0.0
G1 F1000.0 X100.1961 Y89.4693
G0 Z100.0
G0 X100.0368 Y88.3168
G1 F100.0 Z0.0
G1 F1000.0 X83.5782 Y92.8522
G0 Z100.0
G0 X83.3716 Y93.5292
G1 F100.0 Z0.0
G1 F1000.0 X109.446 Y86.3429
G0 Z100.0
G0 X109.3166 Y89.2154
G1 F100.0 Z0.0
G1 F1000.0 X126.716 Y92.653
G0 Z100.0
G0 X126.6862 Y91.4333
G1 F100.0 Z0.0
G1 F1000.0 X117.9715 Y89.5565
G0 Z100.0
G0 X119.7438 Y90.5497
G1 F100.0 Z0.0
G1 F1000.0 X157.5572 Y98.6719
G0 Z100.0
G0 X158.3637 Y99.8642
G1 F100.0 Z0.0
G1 F1000.0 X119.9131 Y93.3002
G0 Z100.0
G0 X120.9038 Y92.2597
G1 F100.0 Z0.0
G1 F1000.0 X140.337 Y95.5828
G0 Z100.0
G0 X140.2897 Y93.3176
G1 F100.0 Z0.0
G1 F1000.0 X163.5687 Y99.7024
G0 Z100.0
G0 X161.9382 Y101.4872
G1 F100.0 Z0.0
G1 F1000.0 X168.9478 Y103.1823
G0 Z100.0
G0 X166.8395 Y105.9727
G1 F100.0 Z0.0
G1 F1000.0 X162.9613 Y104.9198
G0 Z100.0
G0 X162.924 Y104.9098
G1 F100.0 Z0.0
G1 F1000.0 X157.9182 Y103.5632
G0 Z100.0
G0 X156.681 Y100.8325
G1 F100.0 Z0.0
G1 F1000.0 X179.9327 Y106.4507
G0 Z100.0
G0 X181.9315 Y107.5484
G1 F100.0 Z0.0
G1 F1000.0 X155.7202 Y101.2159
G0 Z100.0
G0 X156.3948 Y100.728
G1 F100.0 Z0.0
G1 F1000.0 X123.9232 Y95.1845
G0 Z100.0
G0 X123.7838 Y95.436
G1 F100.0 Z0.0
G1 F1000.0 X107.3152 Y89.0785
G0 Z100.0
G0 X108.0321 Y92.2772
G1 F100.0 Z0.0
G1 F1000.0 X132.2595 Y99.0378
G0 Z100.0
G0 X131.6845 Y100.1082
G1 F100.0 Z0.0
G1 F1000.0 X98.0305 Y91.9959
G0 Z100.0
G0 X98.4885 Y93.2878
G1 F100.0 Z0.0
G1 F1000.0 X113.4038 Y96.3097
G0 Z100.0
G0 X115.5495 Y95.6077
G1 F100.0 Z0.0
G1 F1000.0 X95.5015 Y90.7712
G0 Z100.0
G0 X94.3241 Y93.6587
G1 F100.0 Z0.0
G1 F1000.0 X89.8485 Y92.8621
G0 Z100.0
G0 X89.6817 Y93.4396
G1 F100.0 Z0.0
G1 F1000.0 X117.7748 Y98.4081
G0 Z100.0
G0 X117.9391 Y98.4379
G1 F100.0 Z0.0
G1 F1000.0 X124.3812 Y99.7423
G0 Z100.0
G0 X123.9655 Y102.4605
G1 F100.0 Z0.0
G1 F1000.0 X153.0692 Y104.0735
G0 Z100.0
G0 X153.1489 Y105.8582
G1 F100.0 Z0.0
G1 F1000.0 X148.3572 Y105.4774
G0 Z100.0
G0 X148.3148
G1 F100.0 Z0.0
G1 F1000.0 X116.3983 Y102.2962
G0 Z100.0
G0 X114.0734 Y100.7828
G1 F100.0 Z0.0
G1 F1000.0 X106.1578 Y100.3471
G0 Z100.0
G0 X106.1229 Y100.2177
G1 F100.0 Z0.0
G1 F1000.0 X78.5102 Y99.2494
G0 Z100.0
G0 X77.4847 Y99.8095
G1 F100.0 Z0.0
G1 F1000.0 X100.796 Y100.6284
G0 Z100.0
G0 X100.5745 Y101.8432
G1 F100.0 Z0.0
G1 F1000.0 X123.9755 Y103.6354
G0 Z100.0
G0 X123.6344 Y108.7507
G1 F100.0 Z0.0
G1 F1000.0 X99.0835 Y108.3947
G0 Z100.0
G0 X97.3858 Y111.3419
G1 F100.0 Z0.0
G1 F1000.0 X110.3197 Y111.0731
G0 Z100.0
G0 X112.1966 Y111.0457
G1 F100.0 Z0.0
G1 F1000.0 X148.7729 Y109.3605
G0 Z100.0
G0 X149.3827 Y115.5039
G1 F100.0 Z0.0
G1 F1000.0 X154.2217 Y115.9644
G0 Z100.0
G0 X154.3063 Y115.586
G1 F100.0 Z0.0
G1 F1000.0 X183.6017 Y119.6434
G0 Z100.0
G0 X181.5083 Y119.9521
G1 F100.0 Z0.0
G1 F1000.0 X145.6589 Y116.2855
G0 Z100.0
G0 X145.7759 Y114.9264
G1 F100.0 Z0.0
G1 F1000.0 X178.4068 Y115.0011
G0 Z100.0
G0 X177.7671 Y110.7744
G1 F100.0 Z0.0
G1 F1000.0 X212.1155 Y126.0954
G0 Z100.0
G0 X211.09 Y126.658
G1 F100.0 Z0.0
G1 F1000.0 X215.5631 Y128.388
G0 Z100.0
G0 X217.4723 Y130.4042
G1 F100.0 Z0.0
G1 F1000.0 X222.5602 Y132.4977
G0 Z100.0
G0 X222.5279 Y133.1324
G1 F100.0 Z0.0
G1 F1000.0 X192.5604 Y120.771
G0 Z100.0
G0 X191.9107 Y118.4013
G1 F100.0 Z0.0
G1 F1000.0 X195.9631 Y120.1861
G0 Z100.0
G0 X194.0016 Y117.3633
G1 F100.0 Z0.0
G1 F1000.0 X225.8136 Y127.9574
G0 Z100.0
G0 X223.2771 Y125.854
G1 F100.0 Z0.0
G1 F1000.0 X187.9902 Y114.1025
G0 Z100.0
G0 X186.8228 Y112.4521
G1 F100.0 Z0.0
G1 F1000.0 X212.6532 Y121.0548
G0 Z100.0
G0 X210.729 Y121.0448
G1 F100.0 Z0.0
G1 F1000.0 X196.0701 Y116.1635
G0 Z100.0
G0 X195.9407 Y116.1187
G1 F100.0 Z0.0
G1 F1000.0 X180.3583 Y110.9312
G0 Z100.0
G0 X176.866 Y109.938
G1 F100.0 Z0.0
G1 F1000.0 X148.3547 Y102.1817
G0 Z100.0
G0 X148.1232 Y102.5999
G1 F100.0 Z0.0
G1 F1000.0 X110.5213 Y99.9613
G0 Z100.0
G0 X110.4242 Y99.9837
G1 F100.0 Z0.0
G1 F1000.0 X95.1854 Y98.6918
G0 Z100.0
G0 X95.8848 Y97.8206
G1 F100.0 Z0.0
G1 F1000.0 X114.1307 Y99.003
G0 Z100.0
G0 X108.9233 Y99.2594
G1 F100.0 Z0.0
G1 F1000.0 X131.9334 Y100.8674
G0 Z100.0
G0 X128.9688 Y100.0659
G1 F100.0 Z0.0
G1 F1000.0 X90.2318 Y92.2274
G0 Z100.0
G0 X91.7229 Y96.9494
G1 F100.0 Z0.0
G1 F1000.0 X101.9709 Y97.6165
G0 Z100.0
G0 Y96.2176
G1 F100.0 Z0.0
G1 F1000.0 X119.8384 Y99.4261
G0 Z100.0
G0 X126.7235 Y96.2624
G1 F100.0 Z0.0
G1 F1000.0 X131.0 Y97.4497
G0 Z100.0
G0 X131.0373 Y97.4671
G1 F100.0 Z0.0
G1 F1000.0 X147.5681 Y101.9676
G0 Z100.0
G0 X147.1101 Y99.7448
G1 F100.0 Z0.0
G1 F1000.0 X165.4256 Y104.173
G0 Z100.0
G0 X168.3728 Y98.2786
G1 F100.0 Z0.0
G1 F1000.0 X156.8852 Y95.1099
G0 Z100.0
G0 X156.7607 Y93.2529
G1 F100.0 Z0.0
G1 F1000.0 X120.2865 Y81.9196
G0 Z100.0
G0 X122.3575 Y83.8139
G1 F100.0 Z0.0
G1 F1000.0 X132.7424 Y87.0349
G0 Z100.0
G0 X130.9228 Y87.2191
G1 F100.0 Z0.0
G1 F1000.0 X140.6133 Y89.4818
G0 Z100.0
G0 X138.0668 Y91.1047
G1 F100.0 Z0.0
G1 F1000.0 X120.7395 Y87.2938
G0 Z100.0
G0 X123.7216 Y83.6098
G1 F100.0 Z0.0
G1 F1000.0 X145.7435 Y90.4526
G0 Z100.0
G0 X146.8064 Y89.539
G1 F100.0 Z0.0
G1 F1000.0 X127.2164 Y83.448
G0 Z100.0
G0 X126.5144 Y82.6041
G1 F100.0 Z0.0
G1 F1000.0 X153.1414 Y90.8882
G0 Z100.0
G0 X153.0667 Y91.3288
G1 F100.0 Z0.0
G1 F1000.0 X179.2208 Y97.1684
G0 Z100.0
G0 X179.268 Y97.7907
G1 F100.0 Z0.0
G1 F1000.0 X156.9225 Y92.8024
G0 Z100.0
G0 X157.0495 Y90.0419
G1 F100.0 Z0.0
G1 F1000.0 X151.8022 Y88.5608
G0 Z100.0
G0 X149.9378 Y89.2702
G1 F100.0 Z0.0
G1 F1000.0 X162.461 Y92.8148
G0 Z100.0
G0 X165.6447 Y93.0886
G1 F100.0 Z0.0
G1 F1000.0 X128.7696 Y82.6813
G0 Z100.0
G0 X128.1399 Y82.1859
G1 F100.0 Z0.0
G1 F1000.0 X100.3928 Y79.1491
G0 Z100.0
G0 X103.808 Y77.2922
G1 F100.0 Z0.0
G1 F1000.0 X124.2567 Y79.1914
G0 Z100.0
G0 X125.469 Y79.9033
G1 F100.0 Z0.0
G1 F1000.0 X116.2415 Y79.0471
G0 Z100.0
G0 X113.9489 Y80.0328
G1 F100.0 Z0.0
G1 F1000.0 X125.1503 Y81.2575
G0 Z100.0
G0 X125.3893 Y81.0932
G1 F100.0 Z0.0
G1 F1000.0 X137.6237 Y83.2563
G0 Z100.0
G0 X136.6256 Y79.3781
G1 F100.0 Z0.0
G1 F1000.0 X145.054 Y81.3247
G0 Z100.0
G0 X145.5021 Y85.0435
G1 F100.0 Z0.0
G1 F1000.0 X127.7615 Y79.6171
G0 Z100.0
G0 X127.4628 Y79.0968
G1 F100.0 Z0.0
G1 F1000.0 X112.6869 Y75.6817
G0 Z100.0
G0 X108.6893 Y72.6896
G1 F100.0 Z0.0
G1 F1000.0 X136.8546 Y74.6138
G0 Z100.0
G0 X137.7407 Y75.2734
G1 F100.0 Z0.0
G1 F1000.0 X118.442 Y73.9542
G0 Z100.0
G0 X119.2684 Y75.9779
G1 F100.0 Z0.0
G1 F1000.0 X150.7866 Y83.2613
G0 Z100.0
G0 X150.463 Y82.1312
G1 F100.0 Z0.0
G1 F1000.0 X173.8789 Y92.5111
G0 Z100.0
G0 X173.7918 Y91.7445
G1 F100.0 Z0.0
G1 F1000.0 X178.9644 Y95.1248
G0 Z100.0
G0 X179.7584 Y96.0931
G1 F100.0 Z0.0
G1 F1000.0 X152.783 Y84.9465
G0 Z100.0
G0 X155.2821 Y84.9141
G1 F100.0 Z0.0
G1 F1000.0 X121.5559 Y77.1179
G0 Z100.0
G0 X121.551 Y78.3401
G1 F100.0 Z0.0
G1 F1000.0 X104.1863 Y76.7271
G0 Z100.0
G0 X106.9667 Y78.7832
G1 F100.0 Z0.0
G1 F1000.0 X130.0292 Y80.9289
G0 Z100.0
G0 X130.074 Y79.6992
G1 F100.0 Z0.0
G1 F1000.0 X156.4172 Y87.7593
G0 Z100.0
G0 X157.3083 Y89.1806
G1 F100.0 Z0.0
G1 F1000.0 X141.3526 Y85.6136
G0 Z100.0
G0 X139.8142 Y79.3956
G1 F100.0 Z0.0
G1 F1000.0 X102.175 Y72.0176
G0 Z100.0
G0 X112.0895 Y83.4106
G1 F100.0 Z0.0
G1 F1000.0 X130.9054 Y87.0872
G0 Z100.0
G0 X129.4567 Y88.0978
G1 F100.0 Z0.0
G1 F1000.0 X158.9188 Y96.2898
G0 Z100.0
G0 X153.4152 Y96.2997
G1 F100.0 Z0.0
G1 F1000.0 X179.0241 Y103.3217
G0 Z100.0
G0 X178.3047 Y101.1586
G1 F100.0 Z0.0
G1 F1000.0 X142.2885 Y93.2479
G0 Z100.0
G0 X139.9586 Y92.7377
G1 F100.0 Z0.0
G1 F1000.0 X126.7285 Y89.8303
G0 Z100.0
G0 X127.5002 Y87.0299
G1 F100.0 Z0.0
G1 F1000.0 X164.4772 Y95.665
G0 Z100.0
G0 X167.0187 Y95.6675
G1 F100.0 Z0.0
G1 F1000.0 X172.6144 Y96.917
G0 Z100.0
G0 X171.3499 Y94.4378
G1 F100.0 Z0.0
G1 F1000.0 X157.256 Y89.544
G0 Z100.0
G0 X159.3146 Y89.6262
G1 F100.0 Z0.0
G1 F1000.0 X183.3205 Y97.9625
G0 Z100.0
G0 X177.0875 Y98.6097
G1 F100.0 Z0.0
G1 F1000.0 X168.7039 Y96.6532
G0 Z100.0
G0 X169.0872 Y91.0375
G1 F100.0 Z0.0
G1 F1000.0 X164.3727 Y89.0885
G0 Z100.0
G0 X161.7092 Y89.5515
G1 F100.0 Z0.0
G1 F1000.0 X131.0074 Y82.6913
G0 Z100.0
G0 X125.6108 Y85.4443
G1 F100.0 Z0.0
G1 F1000.0 X115.1786 Y83.4057
G0 Z100.0
G0 X112.9632 Y86.1985
G1 F100.0 Z0.0
G1 F1000.0 X148.387 Y93.9773
G0 Z100.0
G0 X147.4063 Y95.884
G1 F100.0 Z0.0
G1 F1000.0 X130.8456 Y91.3437
G0 Z100.0
G0 X136.989 Y93.6462
G1 F100.0 Z0.0
G1 F1000.0 X113.7896 Y87.2788
G0 Z100.0
G0 X112.0024 Y91.5279
G1 F100.0 Z0.0
G1 F1000.0 X103.7631 Y89.2254
G0 Z100.0
G0 X108.9357 Y98.072
G1 F100.0 Z0.0
G1 F1000.0 X82.9435 Y94.1316
G0 Z100.0
G0 X82.1071 Y96.6581
G1 F100.0 Z0.0
G1 F1000.0 X69.101 Y103.7275
G0 Z100.0
G0 X69.5989 Y104.1133
G1 F100.0 Z0.0
G1 F1000.0 X95.0933 Y101.0217
G0 Z100.0
G0 X93.6221 Y103.1151
G1 F100.0 Z0.0
G1 F1000.0 X68.4837 Y106.9161
G0 Z100.0
G0 X68.872 Y106.254
G1 F100.0 Z0.0
G1 F1000.0 X82.6224 Y104.178
G0 Z100.0
G0 X83.6504 Y105.226
G1 F100.0 Z0.0
G1 F1000.0 X99.422 Y102.8438
G0 Z100.0
G0 X100.0219 Y101.9004
G1 F100.0 Z0.0
G1 F1000.0 X69.7482 Y104.8202
G0 Z100.0
G0 X72.2623 Y103.1873
G1 F100.0 Z0.0
G1 F1000.0 X84.9224 Y101.654
G0 Z100.0
G0 X88.7433 Y102.3908
G1 F100.0 Z0.0
G1 F1000.0 X105.0202 Y100.8176
G0 Z100.0
G0 X108.403 Y101.069
G1 F100.0 Z0.0
G1 F1000.0 X144.2102 Y102.9185
G0 Z100.0
G0 X146.8885 Y92.1676
G1 F100.0 Z0.0
G1 F1000.0 X175.9748 Y98.9632
G0 Z100.0
G0 X174.795 Y91.6847
G1 F100.0 Z0.0
G1 F1000.0 X191.5647 Y102.6497
G0 Z100.0
G0 X193.4117 Y116.5369
G1 F100.0 Z0.0
G1 F1000.0 X208.2 Y121.463
G0 Z100.0
G0 X207.6474 Y122.6628
G1 F100.0 Z0.0
G1 F1000.0 X232.1685 Y137.6777
G0 Z100.0
G0 X230.1523 Y139.2882
G1 F100.0 Z0.0
G1 F1000.0 X235.1431 Y142.4793
G0 Z100.0
G0 X235.2875 Y143.1962
G1 F100.0 Z0.0
G1 F1000.0 X214.1218 Y133.5232
G0 Z100.0
G0 X215.7199 Y134.9072
G1 F100.0 Z0.0
G1 F1000.0 X228.6687 Y141.8695
G0 Z100.0
G0 X228.7633 Y141.8471
G1 F100.0 Z0.0
G1 F1000.0 X233.0945 Y144.9486
G0 Z100.0
G0 X232.6962 Y145.3967
G1 F100.0 Z0.0
G1 F1000.0 X209.5541 Y132.9407
G0 Z100.0
G0 X210.0022 Y132.5076
G1 F100.0 Z0.0
G1 F1000.0 X222.381 Y139.1662
G0 Z100.0
G0 X222.4133 Y139.1836
G1 F100.0 Z0.0
G1 F1000.0 X228.9127 Y142.6835
G0 Z100.0
G0 X227.8124 Y140.4332
G1 F100.0 Z0.0
G1 F1000.0 X258.5366 Y162.4303
G0 Z100.0
G0 X256.3685 Y166.7092
G1 F100.0 Z0.0
G1 F1000.0 X263.2313 Y168.9943
G0 Z100.0
G0 X266.049 Y170.56
G1 F100.0 Z0.0
G1 F1000.0 X230.2618 Y158.6542
G0 Z100.0
G0 X229.759 Y158.0319
G1 F100.0 Z0.0
G1 F1000.0 X205.5241 Y151.2737
G0 Z100.0
G0 X207.4956 Y152.4561
G1 F100.0 Z0.0
G1 F1000.0 X196.2618 Y149.2375
G0 Z100.0
G0 X196.2319 Y149.1628
G1 F100.0 Z0.0
G1 F1000.0 X183.2383 Y146.0513
G0 Z100.0
G0 X184.926 Y145.8696
G1 F100.0 Z0.0
G1 F1000.0 X169.5602 Y141.979
G0 Z100.0
G0 X169.6 Y141.3965
G1 F100.0 Z0.0
G1 F1000.0 X151.0082 Y145.4042
G0 Z100.0
G0 X150.8688 Y143.6642
G1 F100.0 Z0.0
G1 F1000.0 X166.1649 Y139.3678
G0 Z100.0
G0 X166.598 Y139.3255
G1 F100.0 Z0.0
G1 F1000.0 X185.3741 Y144.7719
G0 Z100.0
G0 X185.4537 Y144.6873
G1 F100.0 Z0.0
G1 F1000.0 X200.6727 Y147.6395
G0 Z100.0
G0 X200.7175 Y147.6519
G1 F100.0 Z0.0
G1 F1000.0 X236.674 Y155.7418
G0 Z100.0
G0 X237.5178 Y157.3025
G1 F100.0 Z0.0
G1 F1000.0 X227.113 Y154.3205
G0 Z100.0
G0 X227.8771 Y150.1162
G1 F100.0 Z0.0
G1 F1000.0 X193.4341 Y142.3748
G0 Z100.0
G0 X195.6619 Y140.4706
G1 F100.0 Z0.0
G1 F1000.0 X186.9149 Y138.4941
G0 Z100.0
G0 X188.3113 Y139.4151
G1 F100.0 Z0.0
G1 F1000.0 X222.9261 Y147.179
G0 Z100.0
G0 X220.9522 Y146.1235
G1 F100.0 Z0.0
G1 F1000.0 X195.7042 Y140.4606
G0 Z100.0
G0 X193.3943 Y139.3703
G1 F100.0 Z0.0
G1 F1000.0 X172.6991 Y134.3795
G0 Z100.0
G0 X172.5597 Y134.3297
G1 F100.0 Z0.0
G1 F1000.0 X163.5238 Y135.9153
G0 Z100.0
G0 X164.6166 Y136.3236
G1 F100.0 Z0.0
G1 F1000.0 X135.7568 Y140.5328
G0 Z100.0
G0 X135.6896 Y140.3361
G1 F100.0 Z0.0
G1 F1000.0 X99.1183 Y145.2921
G0 Z100.0
G0 X97.575 Y144.4607
G1 F100.0 Z0.0
G1 F1000.0 X87.2573 Y143.5621
G0 Z100.0
G0 X87.2025 Y144.0077
G1 F100.0 Z0.0
G1 F1000.0 X69.0239 Y144.9735
G0 Z100.0
G0 X67.9983 Y146.7782
G1 F100.0 Z0.0
G1 F1000.0 X94.7398 Y145.3892
G0 Z100.0
G0 X94.5133 Y146.2206
G1 F100.0 Z0.0
G1 F1000.0 X116.7717 Y144.7918
G0 Z100.0
G0 X116.1619 Y145.4191
G1 F100.0 Z0.0
G1 F1000.0 X141.0588 Y145.0333
G0 Z100.0
G0 X144.4541 Y146.0464
G1 F100.0 Z0.0
G1 F1000.0 X162.7099 Y140.9485
G0 Z100.0
G0 X162.9015 Y141.4936
G1 F100.0 Z0.0
G1 F1000.0 X124.9363 Y152.1076
G0 Z100.0
G0 X124.6674 Y151.8362
G1 F100.0 Z0.0
G1 F1000.0 X110.2998 Y152.8543
G0 Z100.0
G0 X111.9128 Y147.8286
G1 F100.0 Z0.0
G1 F1000.0 X81.5844 Y148.4036
G0 Z100.0
G0 X76.6582 Y150.2506
G1 F100.0 Z0.0
G1 F1000.0 X91.1354 Y149.9071
G0 Z100.0
G0 X91.1778 Y149.7752
G1 F100.0 Z0.0
G1 F1000.0 X119.7637 Y147.9058
G0 Z100.0
G0 X119.8633 Y146.716
G1 F100.0 Z0.0
G1 F1000.0 X108.2885 Y146.6637
G0 Z100.0
G0 X110.0135 Y143.2236
G1 F100.0 Z0.0
G1 F1000.0 X124.4185 Y141.287
G0 Z100.0
G0 X119.5745 Y141.1252
G1 F100.0 Z0.0
G1 F1000.0 X136.1451 Y139.7114
G0 Z100.0
G0 X136.1999 Y139.6566
G1 F100.0 Z0.0
G1 F1000.0 X171.6237 Y133.2867
G0 Z100.0
G0 X171.5167 Y132.6968
G1 F100.0 Z0.0
G1 F1000.0 X158.5504 Y135.0366
G0 Z100.0
G0 X158.5156 Y135.0491
G1 F100.0 Z0.0
G1 F1000.0 X135.5876 Y139.1637
G0 Z100.0
G0 X133.3 Y135.8606
G1 F100.0 Z0.0
G1 F1000.0 X159.0134 Y128.0843
G0 Z100.0
G0 X159.1429 Y128.1615
G1 F100.0 Z0.0
G1 F1000.0 X181.7821 Y129.6475
G0 Z100.0
G0 X180.4927 Y131.3452
G1 F100.0 Z0.0
G1 F1000.0 X209.6114 Y138.071
G0 Z100.0
G0 X209.7657 Y138.7182
G1 F100.0 Z0.0
G1 F1000.0 X176.7888 Y131.1012
G0 Z100.0
G0 X176.0769 Y133.0901
G1 F100.0 Z0.0
G1 F1000.0 X147.364 Y138.2427
G0 Z100.0
G0 X143.4186 Y140.6722
G1 F100.0 Z0.0
G1 F1000.0 X163.7852 Y137.5532
G0 Z100.0
G0 X166.2346 Y139.8308
G1 F100.0 Z0.0
G1 F1000.0 X203.1345 Y150.5518
G0 Z100.0
G0 X204.516 Y149.1006
G1 F100.0 Z0.0
G1 F1000.0 X216.9147 Y151.9035
G0 Z100.0
G0 X216.9346 Y152.0254
G1 F100.0 Z0.0
G1 F1000.0 X243.6014 Y159.6698
G0 Z100.0
G0 X243.4172 Y162.4004
G1 F100.0 Z0.0
G1 F1000.0 X235.8052 Y159.8689
G0 Z100.0
G0 X234.8021 Y158.3903
G1 F100.0 Z0.0
G1 F1000.0 X196.8045 Y147.4926
G0 Z100.0
G0 X195.7266 Y145.3121
G1 F100.0 Z0.0
G1 F1000.0 X222.2067 Y151.2787
G0 Z100.0
G0 X222.9062 Y152.0329
G1 F100.0 Z0.0
G1 F1000.0 X234.1201 Y154.5545
G0 Z100.0
G0 X235.8028 Y158.0543
G1 F100.0 Z0.0
G1 F1000.0 X214.7068 Y152.0105
G0 Z100.0
G0 X215.4137 Y150.3502
G1 F100.0 Z0.0
G1 F1000.0 X186.7332 Y143.8957
G0 Z100.0
G0 X186.5888 Y144.3064
G1 F100.0 Z0.0
G1 F1000.0 X168.2633 Y139.1961
G0 Z100.0
G0 X168.6616 Y137.9938
G1 F100.0 Z0.0
G1 F1000.0 X181.0702 Y136.9981
G0 Z100.0
G0 X183.0467 Y135.6589
G1 F100.0 Z0.0
G1 F1000.0 X216.5339 Y143.7613
G0 Z100.0
G0 X214.4429 Y142.6436
G1 F100.0 Z0.0
G1 F1000.0 X176.4876 Y133.4659
G0 Z100.0
G0 X177.1124 Y134.83
G1 F100.0 Z0.0
G1 F1000.0 X205.7482 Y141.7625
G0 Z100.0
G0 X204.7351 Y139.0716
G1 F100.0 Z0.0
G1 F1000.0 X209.8877 Y140.3162
G0 Z100.0
G0 X209.8255 Y138.8401
G1 F100.0 Z0.0
G1 F1000.0 X226.6923 Y147.8535
G0 Z100.0
G0 X226.8466 Y149.2749
G1 F100.0 Z0.0
G1 F1000.0 X201.417 Y142.9623
G0 Z100.0
G0 X201.3945 Y143.5621
G1 F100.0 Z0.0
G1 F1000.0 X188.5453 Y140.6747
G0 Z100.0
G0 X186.7929 Y140.3834
G1 F100.0 Z0.0
G1 F1000.0 X181.0553 Y140.7942
G0 Z100.0
G0 X180.1592 Y140.259
G1 F100.0 Z0.0
G1 F1000.0 X184.2589 Y139.9653
G0 Z100.0
G0 X185.0679 Y141.0929
G1 F100.0 Z0.0
G1 F1000.0 X209.4322 Y146.5815
G0 Z100.0
G0 X209.4695 Y146.5865
G1 F100.0 Z0.0
G1 F1000.0 X230.6003 Y151.3409
G0 Z100.0
G0 X233.5326 Y147.4453
G1 F100.0 Z0.0
G1 F1000.0 X218.575 Y139.4699
G0 Z100.0
G0 X216.7654 Y138.7679
G1 F100.0 Z0.0
G1 F1000.0 X183.8756 Y122.4313
G0 Z100.0
G0 X184.5949 Y122.1202
G1 F100.0 Z0.0
G1 F1000.0 X201.3448 Y130.449
G0 Z100.0
G0 X196.6601 Y129.426
G1 F100.0 Z0.0
G1 F1000.0 X180.0447 Y128.3457
G0 Z100.0
G0 X181.5805 Y126.6082
G1 F100.0 Z0.0
G1 F1000.0 X187.2833 Y126.7825
G0 Z100.0
G0 X185.969 Y129.9213
G1 F100.0 Z0.0
G1 F1000.0 X194.8753 Y130.5063
G0 Z100.0
G0 X195.6793 Y129.9612
G1 F100.0 Z0.0
G1 F1000.0 X158.996 Y127.5616
G0 Z100.0
G0 X158.6326 Y130.2723
G1 F100.0 Z0.0
G1 F1000.0 X152.2851 Y131.9675
G0 Z100.0
G0 X152.1034 Y131.4273
G1 F100.0 Z0.0
G1 F1000.0 X119.0842 Y140.2565
G0 Z100.0
G0 X116.6721 Y140.376
G1 F100.0 Z0.0
G1 F1000.0 X139.3886 Y133.3913
G0 Z100.0
G0 X138.9853 Y131.9799
G1 F100.0 Z0.0
G1 F1000.0 X108.5997 Y137.2844
G0 Z100.0
G0 X108.5748 Y136.1294
G1 F100.0 Z0.0
G1 F1000.0 X74.6271 Y142.3225
G0 Z100.0
G0 X74.4329 Y141.7475
G1 F100.0 Z0.0
G1 F1000.0 X90.0352 Y138.9148
G0 Z100.0
G0 X89.9381 Y138.3323
G1 F100.0 Z0.0
G1 F1000.0 X54.3177 Y144.0376
G0 Z100.0
G0 X53.439 Y146.37
G1 F100.0 Z0.0
G1 F1000.0 X90.4559 Y144.4334
G0 Z100.0
G0 X92.0515 Y144.5703
G1 F100.0 Z0.0
G1 F1000.0 X96.5694 Y144.9586
G0 Z100.0
G0 X96.6689 Y145.2797
G1 F100.0 Z0.0
G1 F1000.0 X109.6177 Y142.1159
G0 Z100.0
G0 X107.0339 Y142.1533
G1 F100.0 Z0.0
G1 F1000.0 X93.413 Y142.3549
G0 Z100.0
G0 X93.8437 Y141.2024
G1 F100.0 Z0.0
G1 F1000.0 X83.2721 Y141.3443
G0 Z100.0
G0 X81.0119 Y142.564
G1 F100.0 Z0.0
G1 F1000.0 X66.7338 Y143.3456
G0 Z100.0
G0 X66.3604 Y144.5454
G1 F100.0 Z0.0
G1 F1000.0 X86.1023 Y143.47
G0 Z100.0
G0 X91.2051 Y146.7433
G1 F100.0 Z0.0
G1 F1000.0 X75.4734 Y147.5498
G0 Z100.0
G0 X75.4361 Y147.5548
G1 F100.0 Z0.0
G1 F1000.0 X71.2144 Y147.7689
G0 Z100.0
G0 X69.7856 Y149.8076
G1 F100.0 Z0.0
G1 F1000.0 X91.118 Y149.3719
G0 Z100.0
G0 X93.7964 Y146.0215
G1 F100.0 Z0.0
G1 F1000.0 X63.7219 Y147.5822
G0 Z100.0
G0 X62.42 Y148.7969
G1 F100.0 Z0.0
G1 F1000.0 X94.9862 Y147.1391
G0 Z100.0
G0 X91.9942 Y144.9387
G1 F100.0 Z0.0
G1 F1000.0 X60.7921 Y146.5741
G0 Z100.0
G0 X58.5269 Y141.7102
G1 F100.0 Z0.0
G1 F1000.0 X95.387 Y135.4847
G0 Z100.0
G0 X95.382 Y135.2233
G1 F100.0 Z0.0
G1 F1000.0 X114.504 Y131.0539
G0 Z100.0
G0 X111.0241 Y131.2207
G1 F100.0 Z0.0
G1 F1000.0 X105.1297 Y131.4746
G0 Z100.0
G0 X104.5896 Y132.6122
G1 F100.0 Z0.0
G1 F1000.0 X86.3586 Y132.7466
G0 Z100.0
G0 X86.284 Y130.6183
G1 F100.0 Z0.0
G1 F1000.0 X122.6811 Y126.658
G0 Z100.0
G0 X122.7184 Y126.6431
G1 F100.0 Z0.0
G1 F1000.0 X129.6931 Y125.8938
G0 Z100.0
G0 X128.4137 Y124.7562
G1 F100.0 Z0.0
G1 F1000.0 X135.6324 Y124.587
G0 Z100.0
G0 X136.7301 Y124.5571
G1 F100.0 Z0.0
G1 F1000.0 X160.3601 Y123.997
G0 Z100.0
G0 X160.9973 Y123.4021
G1 F100.0 Z0.0
G1 F1000.0 X126.8704 Y124.1987
G0 Z100.0
G0 X128.3714 Y124.7587
G1 F100.0 Z0.0
G1 F1000.0 X116.7742 Y125.045
G0 Z100.0
G0 X116.4008 Y125.6399
G1 F100.0 Z0.0
G1 F1000.0 X147.3714 Y124.8981
G0 Z100.0
G0 X149.206 Y122.17
G1 F100.0 Z0.0
G1 F1000.0 X138.9903 Y122.7524
G0 Z100.0
G0 X138.9754 Y123.3175
G1 F100.0 Z0.0
G1 F1000.0 X128.451 Y123.5639
G0 Z100.0
G0 X128.3938 Y123.4643
G1 F100.0 Z0.0
G1 F1000.0 X117.3791 Y124.4501
G0 Z100.0
G0 X116.809 Y123.9199
G1 F100.0 Z0.0
G1 F1000.0 X121.8322 Y123.4569
G0 Z100.0
G0 X121.8721 Y123.4519
G1 F100.0 Z0.0
G1 F1000.0 X133.1307 Y122.4388
G0 Z100.0
G0 X134.2434 Y122.2795
G1 F100.0 Z0.0
G1 F1000.0 X172.5372 Y120.5843
G0 Z100.0
G0 X170.6455 Y126.8671
G1 F100.0 Z0.0
G1 F1000.0 X174.7203 Y126.994
G0 Z100.0
G0 X174.7875 Y126.9965
G1 F100.0 Z0.0
G1 F1000.0 X190.6736 Y127.4844
G0 Z100.0
G0 X190.2454 Y124.2634
G1 F100.0 Z0.0
G1 F1000.0 X194.5144 Y126.3842
G0 Z100.0
G0 X194.7185 Y126.1228
G1 F100.0 Z0.0
G1 F1000.0 X213.4199 Y136.4281
G0 Z100.0
G0 X213.166 Y138.6062
G1 F100.0 Z0.0
G1 F1000.0 X219.3093 Y141.8869
G0 Z100.0
G0 X219.3417 Y141.9043
G1 F100.0 Z0.0
G1 F1000.0 X243.6736 Y154.883
G0 Z100.0
G0 X242.2124 Y152.7473
G1 F100.0 Z0.0
G1 F1000.0 X216.6334 Y139.1115
G0 Z100.0
G0 X214.7267 Y140.1146
G1 F100.0 Z0.0
G1 F1000.0 X222.849 Y144.4533
G0 Z100.0
G0 X222.961 Y144.513
G1 F100.0 Z0.0
G1 F1000.0 X245.66 Y156.6354
G0 Z100.0
G0 X247.6513 Y155.3684
G1 F100.0 Z0.0
G1 F1000.0 X230.436 Y144.859
G0 Z100.0
G0 X230.2792 Y145.0358
G1 F100.0 Z0.0
G1 F1000.0 X195.4653 Y125.8565
G0 Z100.0
G0 X195.5947 Y124.6044
G1 F100.0 Z0.0
G1 F1000.0 X222.7743 Y135.7983
G0 Z100.0
G0 X225.9381 Y135.186
G1 F100.0 Z0.0
G1 F1000.0 X207.9387 Y127.7582
G0 Z100.0
G0 X210.4602 Y126.4165
G1 F100.0 Z0.0
G1 F1000.0 X185.0729 Y116.5991
G0 Z100.0
G0 X187.0119 Y117.9881
G1 F100.0 Z0.0
G1 F1000.0 X217.888 Y129.9263
G0 Z100.0
G0 X221.2932 Y130.3196
G1 F100.0 Z0.0
G1 F1000.0 X209.6662 Y123.2005
G0 Z100.0
G0 X207.2168 Y123.2577
G1 F100.0 Z0.0
G1 F1000.0 X199.565 Y119.845
G0 Z100.0
G0 X206.5148 Y124.2509
G1 F100.0 Z0.0
G1 F1000.0 X174.1478 Y109.8136
G0 Z100.0
G0 X165.8587 Y111.7676
G1 F100.0 Z0.0
G1 F1000.0 X128.0328 Y113.291
G0 Z100.0
G0 X127.993 Y116.8431
G1 F100.0 Z0.0
G1 F1000.0 X101.2391 Y117.7193
G0 Z100.0
G0 X101.1993 Y120.0591
G1 F100.0 Z0.0
G1 F1000.0 X134.1961 Y118.9216
G0 Z100.0
G0 X134.2434 Y118.4386
G1 F100.0 Z0.0
G1 F1000.0 X147.7996 Y119.2576
G0 Z100.0
G0 X147.4162 Y120.43
G1 F100.0 Z0.0
G1 F1000.0 X116.2639 Y123.3897
G0 Z100.0
G0 X116.2365 Y123.5465
G1 F100.0 Z0.0
G1 F1000.0 X111.5817 Y123.9024
G0 Z100.0
G0 X113.1947 Y123.1905
G1 F100.0 Z0.0
G1 F1000.0 X98.0131 Y124.6791
G0 Z100.0
G0 X97.9459 Y124.3107
G1 F100.0 Z0.0
G1 F1000.0 X69.7233 Y125.2516
G0 Z100.0
G0 X69.0438 Y123.4942
G1 F100.0 Z0.0
G1 F1000.0 X97.1394 Y122.5633
G0 Z100.0
G0 X97.1767 Y122.5608
G1 F100.0 Z0.0
G1 F1000.0 X130.4523 Y121.4556
G0 Z100.0
G0 X131.0547 Y120.8756
G1 F100.0 Z0.0
G1 F1000.0 X110.8897 Y120.898
G0 Z100.0
G0 X110.606 Y120.9353
G1 F100.0 Z0.0
G1 F1000.0 X100.6765 Y121.2589
G0 Z100.0
G0 X100.6193 Y121.2614
G1 F100.0 Z0.0
G1 F1000.0 X67.1545 Y122.3666
G0 Z100.0
G0 X69.8777 Y119.5936
G1 F100.0 Z0.0
G1 F1000.0 X57.128 Y121.2987
G0 Z100.0
G0 X55.1516 Y119.8874
G1 F100.0 Z0.0
G1 F1000.0 X90.324 Y116.4672
G0 Z100.0
G0 X92.0365 Y118.018
G1 F100.0 Z0.0
G1 F1000.0 X80.2427 Y118.9216
G0 Z100.0
G0 X79.6104 Y120.7661
G1 F100.0 Z0.0
G1 F1000.0 X100.7637 Y120.0641
G0 Z100.0
G0 X98.2969 Y116.6265
G1 F100.0 Z0.0
G1 F1000.0 X137.915 Y115.3844
G0 Z100.0
G0 X137.9623 Y116.1038
G1 F100.0 Z0.0
G1 F1000.0 X158.8068 Y118.2221
G0 Z100.0
G0 X160.6887 Y117.2264
G1 F100.0 Z0.0
G1 F1000.0 X141.5119 Y115.2674
G0 Z100.0
G0 X141.4621 Y117.6521
G1 F100.0 Z0.0
G1 F1000.0 X129.2525 Y116.8431
G0 Z100.0
G0 X129.4243 Y118.5083
G1 F100.0 Z0.0
G1 F1000.0 X106.6755 Y119.2949
G0 Z100.0
G0 X108.9382 Y120.3927
G1 F100.0 Z0.0
G1 F1000.0 X76.1256 Y121.4755
G0 Z100.0
G0 X81.6491 Y122.4811
G1 F100.0 Z0.0
G1 F1000.0 X96.3528 Y121.9957
G0 Z100.0
G0 X96.3901 Y121.9932
G1 F100.0 Z0.0
G1 F1000.0 X112.4455 Y121.4705
G0 Z100.0
G0 X113.0827 Y124.918
G1 F100.0 Z0.0
G1 F1000.0 X83.6927 Y126.7874
G0 Z100.0
G0 X83.1575 Y126.6082
G1 F100.0 Z0.0
G1 F1000.0 X70.6294 Y127.7906
G0 Z100.0
G0 X71.5579 Y126.429
G1 F100.0 Z0.0
G1 F1000.0 X86.4557 Y125.8938
G0 Z100.0
G0 X86.5055 Y126.0083
G1 F100.0 Z0.0
G1 F1000.0 X90.8019 Y125.737
G0 Z100.0
G0 X90.8392 Y125.7469
G1 F100.0 Z0.0
G1 F1000.0 X116.6273 Y124.1115
G0 Z100.0
G0 X116.3684 Y125.8764
G1 F100.0 Z0.0
G1 F1000.0 X103.3823 Y126.6928
G0 Z100.0
G0 X105.1347 Y129.1795
G1 F100.0 Z0.0
G1 F1000.0 X135.61 Y125.8216
G0 Z100.0
G0 X134.7263 Y128.4154
G1 F100.0 Z0.0
G1 F1000.0 X118.1806 Y128.9281
G0 Z100.0
G0 X120.3537 Y130.7677
G1 F100.0 Z0.0
G1 F1000.0 X109.7049 Y132.6819
G0 Z100.0
G0 X107.4098 Y131.9998
G1 F100.0 Z0.0
G1 F1000.0 X76.6458 Y132.2438
G0 Z100.0
G0 X78.0895 Y130.9917
G1 F100.0 Z0.0
G1 F1000.0 X83.8072 Y130.7253
G0 Z100.0
G0 X83.6305 Y134.5089
G1 F100.0 Z0.0
G1 F1000.0 X74.2163 Y136.1792
G0 Z100.0
G0 X74.2437 Y136.5949
G1 F100.0 Z0.0
G1 F1000.0 X49.3617 Y140.4034
G0 Z100.0
G0 X51.3356 Y139.0442
G1 F100.0 Z0.0
G1 F1000.0 X78.901 Y134.138
G0 Z100.0
G0 X78.9533 Y133.9563
G1 F100.0 Z0.0
G1 F1000.0 X99.0561 Y133.8244
G0 Z100.0
G0 X99.9771 Y131.1709
G1 F100.0 Z0.0
G1 F1000.0 X137.5665 Y129.3389
G0 Z100.0
G0 X136.3144 Y130.001
G1 F100.0 Z0.0
G1 F1000.0 X105.1646 Y134.6931
G0 Z100.0
G0 X104.373 Y130.3744
G1 F100.0 Z0.0
G1 F1000.0 X66.1488 Y132.1367
G0 Z100.0
G0 X62.3453 Y131.0763
G1 F100.0 Z0.0
G1 F1000.0 X97.3734 Y128.2337
G0 Z100.0
G0 X96.7635 Y127.681
G1 F100.0 Z0.0
G1 F1000.0 X122.467 Y126.0855
G0 Z100.0
G0 X125.3321 Y128.1316
G1 F100.0 Z0.0
G1 F1000.0 X145.1959 Y127.462
G0 Z100.0
G0 X147.9539 Y130.6581
G1 F100.0 Z0.0
G1 F1000.0 X112.5898 Y139.4226
G0 Z100.0
G0 X111.5021 Y140.3038
G1 F100.0 Z0.0
G1 F1000.0 X129.9196 Y135.7112
G0 Z100.0
G0 X127.5126 Y134.5687
G1 F100.0 Z0.0
G1 F1000.0 X95.9844 Y140.0822
G0 Z100.0
G0 X99.422 Y140.1171
G1 F100.0 Z0.0
G1 F1000.0 X123.2162 Y136.1742
G0 Z100.0
G0 X123.4876 Y136.1443
G1 F100.0 Z0.0
G1 F1000.0 X134.2086 Y133.4784
G0 Z100.0
G0 X134.7935 Y128.8784
G1 F100.0 Z0.0
G1 F1000.0 X168.9802 Y126.1651
G0 Z100.0
G0 X169.5104 Y130.0259
G1 F100.0 Z0.0
G1 F1000.0 X186.7705 Y131.1659
G0 Z100.0
G0 X186.88 Y132.2064
G1 F100.0 Z0.0
G1 F1000.0 X195.4553 Y134.1878
G0 Z100.0
G0 X194.1883 Y128.1888
G1 F100.0 Z0.0
G1 F1000.0 X162.9862 Y127.2305
G0 Z100.0
G0 X162.6775 Y126.0755
G1 F100.0 Z0.0
G1 F1000.0 X132.8295 Y127.2977
G0 Z100.0
G0 X130.9452 Y129.0999
G1 F100.0 Z0.0
G1 F1000.0 X124.3687 Y129.3812
G0 Z100.0
G0 X124.3239 Y129.3911
G1 F100.0 Z0.0
G1 F1000.0 X98.2296 Y129.9139
G0 Z100.0
G0 X96.7237 Y127.7059
G1 F100.0 Z0.0
G1 F1000.0 X74.7316 Y129.4708
G0 Z100.0
G0 X74.1093 Y128.9232
G1 F100.0 Z0.0
G1 F1000.0 X79.9888 Y128.4502
G0 Z100.0
G0 X80.0261 Y128.4452
G1 F100.0 Z0.0
G1 F1000.0 X96.6864 Y127.1309
G0 Z100.0
G0 X91.7104 Y125.1072
G1 F100.0 Z0.0
G1 F1000.0 X59.8786 Y126.2498
G0 Z100.0
G0 X61.0062 Y131.7882
G1 F100.0 Z0.0
G1 F1000.0 X39.3949 Y143.4875
G0 Z100.0
G0 X38.4142 Y145.1104
G1 F100.0 Z0.0
G1 F1000.0 X58.4921 Y141.7152
G0 Z100.0
G0 X60.934 Y140.6971
G1 F100.0 Z0.0
G1 F1000.0 X41.3439 Y144.0077
G0 Z100.0
G0 X42.3446 Y143.2485
G1 F100.0 Z0.0
G1 F1000.0 X58.8953 Y134.2874
G0 Z100.0
G0 X58.1784 Y133.9986
G1 F100.0 Z0.0
G1 F1000.0 X44.2439 Y141.5409
G0 Z100.0
G0 X40.7615 Y145.317
G1 F100.0 Z0.0
G1 F1000.0 X79.822 Y138.7157
G0 Z100.0
G0 X81.2608 Y139.1189
G1 F100.0 Z0.0
G1 F1000.0 X71.8267 Y140.6473
G0 Z100.0
G0 X67.5752 Y139.5769
G1 F100.0 Z0.0
G1 F1000.0 X80.7306 Y137.379
G0 Z100.0
G0 X81.3081 Y138.4643
G1 F100.0 Z0.0
G1 F1000.0 X120.0873 Y134.2973
G0 Z100.0
G0 X122.1459 Y133.329
G1 F100.0 Z0.0
G1 F1000.0 X154.9013 Y128.4054
G0 Z100.0
G0 X159.1927 Y132.6395
G1 F100.0 Z0.0
G1 F1000.0 X143.1722 Y135.6813
G0 Z100.0
G0 X153.2011 Y135.4175
G1 F100.0 Z0.0
G1 F1000.0 X169.8937 Y132.3458
G0 Z100.0
G0 X167.2427 Y131.95
G1 F100.0 Z0.0
G1 F1000.0 X160.7882 Y131.5318
G0 Z100.0
G0 X163.4118 Y129.6152
G1 F100.0 Z0.0
G1 F1000.0 X129.8475 Y138.5788
G0 Z100.0
G0 X130.7859 Y139.5769
G1 F100.0 Z0.0
G1 F1000.0 X164.7834 Y132.3757
G0 Z100.0
G0 X165.8438 Y129.7869
G1 F100.0 Z0.0
G1 F1000.0 X202.1762 Y138.188
G0 Z100.0
G0 X201.9023 Y137.5134
G1 F100.0 Z0.0
G1 F1000.0 X173.1048 Y130.8573
G0 Z100.0
G0 X170.0182 Y139.0716
G1 F100.0 Z0.0
G1 F1000.0 X175.37 Y139.4674
G0 Z100.0
G0 X172.9231 Y139.8781
G1 F100.0 Z0.0
G1 F1000.0 X182.0535 Y142.4271
G0 Z100.0
G0 X182.3098 Y142.2877
G1 F100.0 Z0.0
G1 F1000.0 X195.6096 Y145.2847
G0 Z100.0
G0 X194.4995 Y149.352
G1 F100.0 Z0.0
G1 F1000.0 X210.8386 Y154.0317
G0 Z100.0
G0 X210.0545 Y153.1481
G1 F100.0 Z0.0
G1 F1000.0 X223.1178 Y157.539
G0 Z100.0
G0 X221.0717 Y156.2247
G1 F100.0 Z0.0
G1 F1000.0 X253.0131 Y166.8511
G0 Z100.0
G0 X254.2328 Y168.3272
G1 F100.0 Z0.0
G1 F1000.0 X261.0632 Y183.5138
G0 Z100.0
G0 X262.6463 Y184.0141
G1 F100.0 Z0.0
G1 F1000.0 X240.3904 Y183.1653
G0 Z100.0
G0 X239.9672 Y183.4615
G1 F100.0 Z0.0
G1 F1000.0 X224.5665 Y184.2282
G0 Z100.0
G0 X224.4669 Y181.866
G1 F100.0 Z0.0
G1 F1000.0 X201.2178 Y184.273
G0 Z100.0
G0 X203.2366 Y182.6725
G1 F100.0 Z0.0
G1 F1000.0 X185.5433 Y185.311
G0 Z100.0
G0 X183.3055 Y186.7299
G1 F100.0 Z0.0
G1 F1000.0 X194.151 Y185.4703
G0 Z100.0
G0 X194.2232 Y185.8014
G1 F100.0 Z0.0
G1 F1000.0 X203.5626 Y185.4056
G0 Z100.0
G0 X204.6678 Y182.5306
G1 F100.0 Z0.0
G1 F1000.0 X221.2086 Y179.6356
G0 Z100.0
G0 X218.6397 Y180.6886
G1 F100.0 Z0.0
G1 F1000.0 X241.2865 Y176.6436
G0 Z100.0
G0 X240.2186 Y175.4513
G1 F100.0 Z0.0
G1 F1000.0 X205.7905 Y179.6456
G0 Z100.0
G0 X208.3295 Y181.3009
G1 F100.0 Z0.0
G1 F1000.0 X177.314 Y185.9931
G0 Z100.0
G0 X177.3489 Y186.4859
G1 F100.0 Z0.0
G1 F1000.0 X139.5429 Y191.8701
G0 Z100.0
G0 X139.4707 Y191.7655
G1 F100.0 Z0.0
G1 F1000.0 X130.2084 Y192.0592
G0 Z100.0
G0 X130.3528 Y193.2341
G1 F100.0 Z0.0
G1 F1000.0 X147.924 Y194.0979
G0 Z100.0
G0 X148.0062 Y194.2746
G1 F100.0 Z0.0
G1 F1000.0 X183.8009 Y189.1394
G0 Z100.0
G0 X183.8382 Y189.1344
G1 F100.0 Z0.0
G1 F1000.0 X188.8166 Y188.42
G0 Z100.0
G0 X189.3145 Y188.3528
G1 F100.0 Z0.0
G1 F1000.0 X225.6169 Y188.2632
G0 Z100.0
G0 X225.6568 Y188.2732
G1 F100.0 Z0.0
G1 F1000.0 X230.6725 Y188.2831
G0 Z100.0
G0 X230.11 Y187.0883
G1 F100.0 Z0.0
G1 F1000.0 X245.5505 Y187.1381
G0 Z100.0
G0 X245.1696 Y189.4929
G1 F100.0 Z0.0
G1 F1000.0 X211.7919 Y189.4456
G0 Z100.0
G0 X210.5697 Y188.878
G1 F100.0 Z0.0
G1 F1000.0 X222.0574 Y188.8656
G0 Z100.0
G0 X222.0972
G1 F100.0 Z0.0
G1 F1000.0 X256.8838 Y188.9154
G0 Z100.0
G0 X256.0698 Y190.1077
G1 F100.0 Z0.0
G1 F1000.0 X220.4618 Y190.0455
G0 Z100.0
G0 X219.7225 Y191.1631
G1 F100.0 Z0.0
G1 F1000.0 X199.4156 Y189.7741
G0 Z100.0
G0 X197.4989 Y186.817
G1 F100.0 Z0.0
G1 F1000.0 X211.9338 Y186.1399
G0 Z100.0
G0 X212.0533 Y186.1349
G1 F100.0 Z0.0
G1 F1000.0 X222.386 Y185.652
G0 Z100.0
G0 X222.4233 Y185.423
G1 F100.0 Z0.0
G1 F1000.0 X228.6513 Y185.4006
G0 Z100.0
G0 X228.7409 Y185.9557
G1 F100.0 Z0.0
G1 F1000.0 X242.1029 Y185.1069
G0 Z100.0
G0 X242.4813 Y187.7181
G1 F100.0 Z0.0
G1 F1000.0 X217.5594 Y187.6509
G0 Z100.0
G0 X218.7492 Y184.2407
G1 F100.0 Z0.0
G1 F1000.0 X255.4201 Y180.3998
G0 Z100.0
G0 X251.9626 Y177.3132
G1 F100.0 Z0.0
G1 F1000.0 X226.6226 Y179.8646
G0 Z100.0
G0 X230.7572 Y180.0389
G1 F100.0 Z0.0
G1 F1000.0 X213.9575 Y181.7639
G0 Z100.0
G0 X213.8878 Y181.6195
G1 F100.0 Z0.0
G1 F1000.0 X197.4392 Y184.2879
G0 Z100.0
G0 X195.5673 Y186.8543
G1 F100.0 Z0.0
G1 F1000.0 X164.9203 Y191.2677
G0 Z100.0
G0 X165.3285 Y187.626
G1 F100.0 Z0.0
G1 F1000.0 X140.3992 Y191.1507
G0 Z100.0
G0 X138.7588 Y193.0599
G1 F100.0 Z0.0
G1 F1000.0 X142.9705 Y193.2565
G0 Z100.0
G0 X143.0029 Y192.8085
G1 F100.0 Z0.0
G1 F1000.0 X152.7979 Y191.768
G0 Z100.0
G0 X153.1414 Y192.3306
G1 F100.0 Z0.0
G1 F1000.0 X143.9538 Y193.3063
G0 Z100.0
G0 X145.7659 Y188.6615
G1 F100.0 Z0.0
G1 F1000.0 X153.1887 Y187.5588
G0 Z100.0
G0 X153.2285 Y187.5339
G1 F100.0 Z0.0
G1 F1000.0 X160.4945 Y186.5805
G0 Z100.0
G0 X159.5586 Y192.0144
G1 F100.0 Z0.0
G1 F1000.0 X149.0367 Y193.5229
G0 Z100.0
G0 X150.2042 Y198.225
G1 F100.0 Z0.0
G1 F1000.0 X167.1929 Y196.9605
G0 Z100.0
G0 X167.071 Y199.6961
G1 F100.0 Z0.0
G1 F1000.0 X154.8017 Y200.0819
G0 Z100.0
G0 X148.9147 Y198.5511
G1 F100.0 Z0.0
G1 F1000.0 X138.7414 Y199.828
G0 Z100.0
G0 X137.9946 Y199.8355
G1 F100.0 Z0.0
G1 F1000.0 X132.2869 Y199.9077
G0 Z100.0
G0 X144.9594 Y200.3483
G1 F100.0 Z0.0
G1 F1000.0 X160.726 Y197.9935
G0 Z100.0
G0 X163.9794 Y196.6319
G1 F100.0 Z0.0
G1 F1000.0 X191.4079 Y193.4358
G0 Z100.0
G0 X191.4676 Y193.8266
G1 F100.0 Z0.0
G1 F1000.0 X218.0448 Y196.2909
G0 Z100.0
G0 X220.0113 Y194.7177
G1 F100.0 Z0.0
G1 F1000.0 X190.467 Y192.0991
G0 Z100.0
G0 X191.4328 Y192.8433
G1 F100.0 Z0.0
G1 F1000.0 X205.3574 Y194.5186
G0 Z100.0
G0 X205.3997 Y194.5335
G1 F100.0 Z0.0
G1 F1000.0 X229.2039 Y196.7638
G0 Z100.0
G0 X231.3944 Y195.4147
G1 F100.0 Z0.0
G1 F1000.0 X244.3432 Y196.5224
G0 Z100.0
G0 X241.3661 Y196.8634
G1 F100.0 Z0.0
G1 F1000.0 X261.9145 Y201.11
G0 Z100.0
G0 X259.8907 Y201.9115
G1 F100.0 Z0.0
G1 F1000.0 X227.0781 Y195.1259
G0 Z100.0
G0 X224.2056 Y192.1812
G1 F100.0 Z0.0
G1 F1000.0 X257.4862 Y197.3637
G0 Z100.0
G0 X257.3742 Y196.7414
G1 F100.0 Z0.0
G1 F1000.0 X251.7859 Y195.8702
G0 Z100.0
G0 X251.7511 Y195.8652
G1 F100.0 Z0.0
G1 F1000.0 X224.2578 Y191.5863
G0 Z100.0
G0 X224.1657 Y192.0368
G1 F100.0 Z0.0
G1 F1000.0 X194.6862 Y190.043
G0 Z100.0
G0 X194.0265 Y188.9179
G1 F100.0 Z0.0
G1 F1000.0 X186.3797 Y189.3485
G0 Z100.0
G0 X185.3989 Y190.5806
G1 F100.0 Z0.0
G1 F1000.0 X218.3808 Y192.7886
G0 Z100.0
G0 X219.2446 Y192.2783
G1 F100.0 Z0.0
G1 F1000.0 X191.0569 Y190.3765
G0 Z100.0
G0 X189.541 Y194.2447
G1 F100.0 Z0.0
G1 F1000.0 X221.4475 Y197.1621
G0 Z100.0
G0 X222.6473 Y195.5541
G1 F100.0 Z0.0
G1 F1000.0 X205.4868 Y193.9933
G0 Z100.0
G0 X207.8441 Y197.6425
G1 F100.0 Z0.0
G1 F1000.0 X180.2612 Y196.1141
G0 Z100.0
G0 X182.2103 Y200.0197
G1 F100.0 Z0.0
G1 F1000.0 X206.5497 Y198.8572
G0 Z100.0
G0 X203.5129 Y200.7714
G1 F100.0 Z0.0
G1 F1000.0 X235.066 Y200.5598
G0 Z100.0
G0 X233.8935 Y199.9824
G1 F100.0 Z0.0
G1 F1000.0 X202.7711 Y200.1989
G0 Z100.0
G0 X202.7288 Y200.2338
G1 F100.0 Z0.0
G1 F1000.0 X198.1486 Y200.3607
G0 Z100.0
G0 X203.4108 Y200.8237
G1 F100.0 Z0.0
G1 F1000.0 X175.1409 Y201.2046
G0 Z100.0
G0 X176.4478 Y201.7173
G1 F100.0 Z0.0
G1 F1000.0 X213.4821 Y201.2842
G0 Z100.0
G0 X210.6295 Y198.0657
G1 F100.0 Z0.0
G1 F1000.0 X175.9251 Y199.828
G0 Z100.0
G0 X168.2583 Y202.9694
G1 F100.0 Z0.0
G1 F1000.0 X204.1003 Y202.4093
G0 Z100.0
G0 X204.1401 Y202.3695
G1 F100.0 Z0.0
G1 F1000.0 X227.9867 Y202.3396
G0 Z100.0
G0 X229.8884 Y202.362
G1 F100.0 Z0.0
G1 F1000.0 X259.0046
G0 Z100.0
G0 X257.1825 Y199.5219
G1 F100.0 Z0.0
G1 F1000.0 X248.0148 Y197.6276
G0 Z100.0
G0 X246.8921 Y199.8305
G1 F100.0 Z0.0
G1 F1000.0 X221.1414 Y194.5011
G0 Z100.0
G0 X221.1339 Y194.18
G1 F100.0 Z0.0
G1 F1000.0 X216.4094 Y193.8166
G0 Z100.0
G0 X216.3721 Y193.8216
G1 F100.0 Z0.0
G1 F1000.0 X212.3819 Y193.5005
G0 Z100.0
G0 X204.058 Y189.5003
G1 F100.0 Z0.0
G1 F1000.0 X232.97 Y191.5066
G0 Z100.0
G0 X233.0273 Y191.2527
G1 F100.0 Z0.0
G1 F1000.0 X260.6848 Y191.3797
G0 Z100.0
G0 X259.2908 Y194.3393
G1 F100.0 Z0.0
G1 F1000.0 X235.4219 Y191.8576
G0 Z100.0
G0 X234.4735 Y188.2906
G1 F100.0 Z0.0
G1 F1000.0 X242.5684 Y188.3055
G0 Z100.0
G0 X241.5329 Y191.8925
G1 F100.0 Z0.0
G1 F1000.0 X255.4575 Y192.0642
G0 Z100.0
G0 X254.7954 Y193.2715
G1 F100.0 Z0.0
G1 F1000.0 X248.0422 Y192.5695
G0 Z100.0
G0 X247.1087 Y193.6722
G1 F100.0 Z0.0
G1 F1000.0 X230.2245 Y191.9149
G0 Z100.0
G0 X229.179 Y190.6528
G1 F100.0 Z0.0
G1 F1000.0 X246.9295 Y190.6902
G0 Z100.0
G0 X247.3004 Y185.3708
G1 F100.0 Z0.0
G1 F1000.0 X258.0612 Y185.4031
G0 Z100.0
G0 X257.7749 Y186.0005
G1 F100.0 Z0.0
G1 F1000.0 X238.5309 Y185.9283
G0 Z100.0
G0 X235.4966 Y186.5083
G1 F100.0 Z0.0
G1 F1000.0 X259.5597 Y186.6004
G0 Z100.0
G0 X254.0063 Y195.6113
G1 F100.0 Z0.0
G1 F1000.0 X241.8167 Y193.7195
G0 Z100.0
G0 X238.3393 Y194.984
G1 F100.0 Z0.0
G1 F1000.0 X257.75 Y198.0084
G0 Z100.0
G0 X251.5693 Y201.7646
G1 F100.0 Z0.0
G1 F1000.0 X240.923 Y200.6893
G0 Z100.0
G0 X240.8533 Y201.1199
G1 F100.0 Z0.0
G1 F1000.0 X223.5459 Y201.2344
G0 Z100.0
G0 X222.829 Y194.2497
G1 F100.0 Z0.0
G1 F1000.0 X238.2596 Y195.2778
G0 Z100.0
G0 X232.9402 Y201.7671
G1 F100.0 Z0.0
G1 F1000.0 X245.5754 Y201.7646
G0 Z100.0
G0 X247.8878 Y184.1436
G1 F100.0 Z0.0
G1 F1000.0 X231.6408 Y185.1766
G0 Z100.0
G0 X231.5836 Y184.8082
G1 F100.0 Z0.0
G1 F1000.0 X192.3961 Y184.8854
G0 Z100.0
G0 X191.8335 Y184.975
G1 F100.0 Z0.0
G1 F1000.0 X171.9548 Y187.8599
G0 Z100.0
G0 X172.0693 Y189.0697
G1 F100.0 Z0.0
G1 F1000.0 X153.9877 Y191.7182
G0 Z100.0
G0 X155.6356 Y190.1674
G1 F100.0 Z0.0
G1 F1000.0 X188.5577 Y186.7149
G0 Z100.0
G0 X185.2546 Y191.7431
G1 F100.0 Z0.0
G1 F1000.0 X163.6135 Y194.9343
G0 Z100.0
G0 X164.5444 Y177.5447
G1 F100.0 Z0.0
G1 F1000.0 X146.2314 Y175.0381
G0 Z100.0
G0 X140.7004 Y173.7188
G1 F100.0 Z0.0
G1 F1000.0 X166.9415 Y177.2809
G0 Z100.0
G0 X170.1178 Y177.0718
G1 F100.0 Z0.0
G1 F1000.0 X152.0611 Y174.6995
G0 Z100.0
G0 X154.0724 Y169.6091
G1 F100.0 Z0.0
G1 F1000.0 X141.248 Y168.723
G0 Z100.0
G0 X141.7284 Y165.5667
G1 F100.0 Z0.0
G1 F1000.0 X130.5494 Y165.8405
G0 Z100.0
G0 X130.3403 Y165.843
G1 F100.0 Z0.0
G1 F1000.0 X121.1178 Y167.456
G0 Z100.0
G0 X120.732 Y165.8504
G1 F100.0 Z0.0
G1 F1000.0 X127.9258 Y164.4689
G0 Z100.0
G0 X127.9781 Y164.3694
G1 F100.0 Z0.0
G1 F1000.0 X156.1484 Y162.256
G0 Z100.0
G0 X156.2031 Y162.4228
G1 F100.0 Z0.0
G1 F1000.0 X163.5786 Y162.1415
G0 Z100.0
G0 X166.257 Y162.5821
G1 F100.0 Z0.0
G1 F1000.0 X150.0299 Y163.2891
G0 Z100.0
G0 X151.6603 Y162.0146
G1 F100.0 Z0.0
G1 F1000.0 X129.7106 Y163.6624
G0 Z100.0
G0 X130.5644 Y162.4328
G1 F100.0 Z0.0
G1 F1000.0 X144.7329 Y161.3998
G0 Z100.0
G0 X142.9904 Y160.7028
G1 F100.0 Z0.0
G1 F1000.0 X155.7501 Y161.4645
G0 Z100.0
G0 X156.1633 Y161.7358
G1 F100.0 Z0.0
G1 F1000.0 X179.1411 Y161.2703
G0 Z100.0
G0 X178.7876 Y163.3637
G1 F100.0 Z0.0
G1 F1000.0 X210.6992 Y165.4447
G0 Z100.0
G0 X211.2592 Y164.3345
G1 F100.0 Z0.0
G1 F1000.0 X230.1274 Y166.1591
G0 Z100.0
G0 X232.3701 Y166.9731
G1 F100.0 Z0.0
G1 F1000.0 X200.2122 Y163.8342
G0 Z100.0
G0 X200.1524 Y164.0134
G1 F100.0 Z0.0
G1 F1000.0 X167.1407 Y162.1092
G0 Z100.0
G0 X166.3317 Y162.6269
G1 F100.0 Z0.0
G1 F1000.0 X196.3166 Y165.8206
G0 Z100.0
G0 X193.4615 Y168.1156
G1 F100.0 Z0.0
G1 F1000.0 X182.1804 Y166.6694
G0 Z100.0
G0 X182.168 Y166.2811
G1 F100.0 Z0.0
G1 F1000.0 X172.0369 Y165.9027
G0 Z100.0
G0 X173.0575 Y168.031
G1 F100.0 Z0.0
G1 F1000.0 X153.9803 Y166.4752
G0 Z100.0
G0 X148.7106 Y161.6611
G1 F100.0 Z0.0
G1 F1000.0 X126.3203 Y163.3364
G0 Z100.0
G0 X127.0944 Y163.8715
G1 F100.0 Z0.0
G1 F1000.0 X109.09 Y167.9439
G0 Z100.0
G0 X107.9101 Y169.3602
G1 F100.0 Z0.0
G1 F1000.0 X128.9514 Y165.4646
G0 Z100.0
G0 X130.3727 Y166.4429
G1 F100.0 Z0.0
G1 F1000.0 X102.9293 Y171.0155
G0 Z100.0
G0 X104.7887 Y168.3073
G1 F100.0 Z0.0
G1 F1000.0 X122.8279 Y164.2549
G0 Z100.0
G0 X123.6743 Y159.8614
G1 F100.0 Z0.0
G1 F1000.0 X139.1347 Y160.4265
G0 Z100.0
G0 X141.7658 Y161.0587
G1 F100.0 Z0.0
G1 F1000.0 X116.234 Y160.2149
G0 Z100.0
G0 X113.481 Y159.732
G1 F100.0 Z0.0
G1 F1000.0 X133.4668 Y154.5694
G0 Z100.0
G0 X134.6417 Y155.463
G1 F100.0 Z0.0
G1 F1000.0 X167.0461 Y158.6343
G0 Z100.0
G0 X162.563 Y157.6012
G1 F100.0 Z0.0
G1 F1000.0 X189.4314 Y160.185
G0 Z100.0
G0 X193.5984 Y160.0133
G1 F100.0 Z0.0
G1 F1000.0 X173.2093 Y158.0368
G0 Z100.0
G0 X174.7526 Y161.9573
G1 F100.0 Z0.0
G1 F1000.0 X184.2091 Y161.7557
G0 Z100.0
G0 X184.244 Y161.3101
G1 F100.0 Z0.0
G1 F1000.0 X207.2367 Y161.4371
G0 Z100.0
G0 X204.6131 Y159.3711
G1 F100.0 Z0.0
G1 F1000.0 X211.309 Y160.0083
G0 Z100.0
G0 X213.0739 Y160.775
G1 F100.0 Z0.0
G1 F1000.0 X182.0037 Y157.6884
G0 Z100.0
G0 X181.9638 Y157.6983
G1 F100.0 Z0.0
G1 F1000.0 X155.5534 Y155.1842
G0 Z100.0
G0 X158.1771 Y153.6608
G1 F100.0 Z0.0
G1 F1000.0 X140.8273 Y152.2918
G0 Z100.0
G0 X137.8527 Y154.6291
G1 F100.0 Z0.0
G1 F1000.0 X162.5829 Y157.0237
G0 Z100.0
G0 X159.1976 Y157.2801
G1 F100.0 Z0.0
G1 F1000.0 X136.8197 Y155.0996
G0 Z100.0
G0 X141.1086 Y157.6709
G1 F100.0 Z0.0
G1 F1000.0 X145.4473 Y157.9248
G0 Z100.0
G0 X145.4871 Y157.9049
G1 F100.0 Z0.0
G1 F1000.0 X155.0108 Y158.46
G0 Z100.0
G0 X153.2509 Y148.4634
G1 F100.0 Z0.0
G1 F1000.0 X171.8826 Y151.9084
G0 Z100.0
G0 X171.5889 Y153.6285
G1 F100.0 Z0.0
G1 F1000.0 X148.3995 Y150.6962
G0 Z100.0
G0 X143.8791 Y148.0825
G1 F100.0 Z0.0
G1 F1000.0 X168.2957 Y142.8975
G0 Z100.0
G0 X168.4898 Y142.8751
G1 F100.0 Z0.0
G1 F1000.0 X197.9022 Y154.893
G0 Z100.0
G0 X198.8854 Y153.3845
G1 F100.0 Z0.0
G1 F1000.0 X214.6645 Y158.8857
G0 Z100.0
G0 X214.6943 Y158.9155
G1 F100.0 Z0.0
G1 F1000.0 X238.1924 Y167.0876
G0 Z100.0
G0 X239.0288 Y168.6383
G1 F100.0 Z0.0
G1 F1000.0 X223.2472 Y163.1497
G0 Z100.0
G0 X222.6 Y161.0338
G1 F100.0 Z0.0
G1 F1000.0 X188.3561 Y149.0857
G0 Z100.0
G0 X188.6847 Y147.9556
G1 F100.0 Z0.0
G1 F1000.0 X199.6048 Y151.7541
G0 Z100.0
G0 X199.7392 Y151.4728
G1 F100.0 Z0.0
G1 F1000.0 X236.4002 Y161.9548
G0 Z100.0
G0 X232.7112 Y161.5167
G1 F100.0 Z0.0
G1 F1000.0 X202.0915 Y152.7597
G0 Z100.0
G0 X201.9148 Y153.1879
G1 F100.0 Z0.0
G1 F1000.0 X177.7596 Y144.7595
G0 Z100.0
G0 X176.2785 Y148.3563
G1 F100.0 Z0.0
G1 F1000.0 X182.9321 Y150.3651
G0 Z100.0
G0 X185.2172 Y152.3192
G1 F100.0 Z0.0
G1 F1000.0 X164.4822 Y148.0427
G0 Z100.0
G0 X163.7105 Y146.2679
G1 F100.0 Z0.0
G1 F1000.0 X172.4277 Y146.4894
G0 Z100.0
G0 X168.0915 Y144.742
G1 F100.0 Z0.0
G1 F1000.0 X130.42 Y152.695
G0 Z100.0
G0 X130.1835 Y152.7249
G1 F100.0 Z0.0
G1 F1000.0 X125.0284 Y153.8102
G0 Z100.0
G0 X133.3498 Y150.3402
G1 F100.0 Z0.0
G1 F1000.0 X143.8393 Y148.0825
G0 Z100.0
G0 X143.7596 Y147.5225
G1 F100.0 Z0.0
G1 F1000.0 X161.0371 Y143.8484
G0 Z100.0
G0 X160.609 Y139.226
G1 F100.0 Z0.0
G1 F1000.0 X153.2484 Y141.6853
G0 Z100.0
G0 X167.7306 Y148.1149
G1 F100.0 Z0.0
G1 F1000.0 X179.5692 Y150.5742
G0 Z100.0
G0 X181.9439 Y158.2733
G1 F100.0 Z0.0
G1 F1000.0 X214.2289 Y161.4769
G0 Z100.0
G0 X215.6701 Y162.0768
G1 F100.0 Z0.0
G1 F1000.0 X184.9683 Y161.8951
G0 Z100.0
G0 X182.2277 Y162.3905
G1 F100.0 Z0.0
G1 F1000.0 X213.8455 Y163.879
G0 Z100.0
G0 X213.8854 Y163.986
G1 F100.0 Z0.0
G1 F1000.0 X227.3843 Y165.2978
G0 Z100.0
G0 X231.2102 Y163.5654
G1 F100.0 Z0.0
G1 F1000.0 X254.2452 Y173.0542
G0 Z100.0
G0 X254.5166 Y170.1817
G1 F100.0 Z0.0
G1 F1000.0 X221.1737 Y159.8216
G0 Z100.0
G0 X221.109 Y159.8863
G1 F100.0 Z0.0
G1 F1000.0 X216.4915 Y158.3181
G0 Z100.0
G0 X213.6514 Y159.1221
G1 F100.0 Z0.0
G1 F1000.0 X219.5981 Y161.6263
G0 Z100.0
G0 X219.7673 Y161.3101
G1 F100.0 Z0.0
G1 F1000.0 X244.1515 Y169.7884
G0 Z100.0
G0 X240.7164 Y172.6335
G1 F100.0 Z0.0
G1 F1000.0 X235.9919 Y170.5625
G0 Z100.0
G0 X233.896 Y170.2937
G1 F100.0 Z0.0
G1 F1000.0 X244.9033 Y175.1227
G0 Z100.0
G0 X246.2499 Y180.1907
G1 F100.0 Z0.0
G1 F1000.0 X207.055 Y184.2655
G0 Z100.0
G0 X211.3439 Y182.6301
G1 F100.0 Z0.0
G1 F1000.0 X241.6947 Y179.5062
G0 Z100.0
G0 X239.5739 Y169.878
G1 F100.0 Z0.0
G1 F1000.0 X234.2968 Y169.1213
G0 Z100.0
G0 X233.784 Y170.2962
G1 F100.0 Z0.0
G1 F1000.0 X214.4853 Y167.456
G0 Z100.0
G0 X215.0254 Y176.7332
G1 F100.0 Z0.0
G1 F1000.0 X178.7876 Y181.2561
G0 Z100.0
G0 X181.5208 Y181.4627
G1 F100.0 Z0.0
G1 F1000.0 X211.0676 Y177.8185
G0 Z100.0
G0 X201.8102 Y181.1391
G1 F100.0 Z0.0
G1 F1000.0 X193.6457 Y181.8709
G0 Z100.0
G0 X195.2786 Y187.4915
G1 F100.0 Z0.0
G1 F1000.0 X228.0389 Y185.9906
G0 Z100.0
G0 X233.8263 Y170.9035
G1 F100.0 Z0.0
G1 F1000.0 X200.3043 Y165.9525
G0 Z100.0
G0 X196.797 Y172.28
G1 F100.0 Z0.0
G1 F1000.0 X163.4741 Y170.2837
G0 Z100.0
G0 X145.7111 Y165.599
G1 F100.0 Z0.0
G1 F1000.0 X109.5082 Y171.705
G0 Z100.0
G0 X113.8394 Y172.1705
G1 F100.0 Z0.0
G1 F1000.0 X144.2749 Y167.0054
G0 Z100.0
G0 X135.3959 Y176.4943
G1 F100.0 Z0.0
G1 F1000.0 X105.869 Y174.7493
G0 Z100.0
G0 X104.7115 Y168.1455
G1 F100.0 Z0.0
G1 F1000.0 X76.9893 Y174.5328
G0 Z100.0
G0 X67.4158 Y154.669
G1 F100.0 Z0.0
G1 F1000.0 X90.9114 Y155.0523
G0 Z100.0
G0 X97.6746 Y165.6662
G1 F100.0 Z0.0
G1 F1000.0 X109.5729 Y162.149
G0 Z100.0
G0 X110.3819 Y162.5323
G1 F100.0 Z0.0
G1 F1000.0 X103.0936 Y164.6755
G0 Z100.0
G0 X104.5871 Y143.9529
G1 F100.0 Z0.0
G1 F1000.0 X114.5538 Y141.5135
G0 Z100.0
G0 X112.209 Y141.4837
G1 F100.0 Z0.0
G1 F1000.0 X79.7125 Y141.9964
G0 Z100.0
G0 X80.0709 Y135.7261
G1 F100.0 Z0.0
G1 F1000.0 X88.0687 Y134.4865
G0 Z100.0
G0 X95.7529 Y135.7461
G1 F100.0 Z0.0
G1 F1000.0 X124.9437 Y130.5461
G0 Z100.0
G0 X122.5516 Y131.5244
G1 F100.0 Z0.0
G1 F1000.0 X130.7461 Y130.2499
G0 Z100.0
G0 X128.9937 Y143.0693
G1 F100.0 Z0.0
G1 F1000.0 X112.4604 Y144.4881
G0 Z100.0
G0 X96.2034 Y134.4367
G1 F100.0 Z0.0
G1 F1000.0 X62.8631 Y139.5371
G0 Z100.0
G0 X63.3759 Y136.2937
G1 F100.0 Z0.0
G1 F1000.0 X75.5107 Y134.1355
G0 Z100.0
G0 X80.066 Y134.5363
G1 F100.0 Z0.0
G1 F1000.0 X57.3147 Y138.5837
G0 Z100.0
G0 X65.8004 Y127.6462
G1 F100.0 Z0.0
G1 F1000.0 X72.9195 Y126.9741
G0 Z100.0
G0 X76.3994 Y127.8453
G1 F100.0 Z0.0
G1 F1000.0 X114.0659 Y125.4308
G0 Z100.0
G0 X119.2385 Y122.4164
G1 F100.0 Z0.0
G1 F1000.0 X84.2901 Y123.5838
G0 Z100.0
G0 X82.9933 Y124.2161
G1 F100.0 Z0.0
G1 F1000.0 X103.6686 Y123.5291
G0 Z100.0
G0 X108.9755 Y120.3777
G1 F100.0 Z0.0
G1 F1000.0 X139.182 Y119.3323
G0 Z100.0
G0 X134.0343 Y116.3054
G1 F100.0 Z0.0
G1 F1000.0 X164.873 Y119.4269
G0 Z100.0
G0 X164.8406 Y117.6471
G1 F100.0 Z0.0
G1 F1000.0 X160.726 Y117.2289
G0 Z100.0
G0 X159.9494 Y120.557
G1 F100.0 Z0.0
G1 F1000.0 X145.522 Y121.1942
G0 Z100.0
G0 X135.0947 Y114.8915
G1 F100.0 Z0.0
G1 F1000.0 X105.1969 Y115.82
G0 Z100.0
G0 X107.1609 Y114.5804
G1 F100.0 Z0.0
G1 F1000.0 X94.222 Y115.006
G0 Z100.0
G0 X90.6998 Y109.719
G1 F100.0 Z0.0
G1 F1000.0 X81.8756 Y109.9007
G0 Z100.0
G0 X81.4549 Y109.6916
G1 F100.0 Z0.0
G1 F1000.0 X53.8149 Y116.3577
G0 Z100.0
G0 X63.3136 Y109.4974
G1 F100.0 Z0.0
G1 F1000.0 X101.8713 Y103.6802
G0 Z100.0
G0 X93.6197 Y108.2827
G1 F100.0 Z0.0
G1 F1000.0 X113.8568 Y106.488
G0 Z100.0
G0 X114.402 Y109.2062
G1 F100.0 Z0.0
G1 F1000.0 X77.0142 Y109.0867
G0 Z100.0
G0 X77.7784 Y111.1851
G1 F100.0 Z0.0
G1 F1000.0 X113.4212 Y110.401
G0 Z100.0
G0 X101.035 Y114.1995
G1 F100.0 Z0.0
G1 F1000.0 X68.3941 Y115.2176
G0 Z100.0
G0 X75.6576 Y101.3055
G1 F100.0 Z0.0
G1 F1000.0 X91.2275 Y100.8898
G0 Z100.0
G0 X125.1752 Y75.9181
G1 F100.0 Z0.0
G1 F1000.0 X156.0239 Y80.2319
G0 Z100.0
G0 X162.3141 Y84.5656
G1 F100.0 Z0.0
G1 F1000.0 X137.9996 Y78.3127
G0 Z100.0
G0 X138.0519 Y77.1154
G1 F100.0 Z0.0
G1 F1000.0 X126.8156 Y75.5448
G0 Z100.0
G0 X129.3571 Y75.2983
G1 F100.0 Z0.0
G1 F1000.0 X135.2266 Y76.1173
G0 Z100.0
G0 X148.845 Y84.0354
G1 F100.0 Z0.0
G1 F1000.0 X159.9419 Y88.5483
G0 Z100.0
G0 X161.5425 Y86.3877
G1 F100.0 Z0.0
G1 F1000.0 X173.4135 Y91.6499
G0 Z100.0
G0 X165.7691 Y112.5766
G1 F100.0 Z0.0
G1 F1000.0 X160.4696 Y112.5791
G0 Z100.0
G0 X178.4192 Y140.7991
G1 F100.0 Z0.0
G1 F1000.0 X208.907 Y147.6743
G0 Z100.0
G0 X212.8598 Y148.5654
G1 F100.0 Z0.0
G1 F1000.0 X219.2446 Y150.0042
G0 Z100.0
G0 X217.0765 Y148.9089
G1 F100.0 Z0.0
G1 F1000.0 X186.9447 Y142.1184
G0 Z100.0
G0 X183.0964 Y138.8526
G1 F100.0 Z0.0
G1 F1000.0 X199.7168 Y142.5814
G0 Z100.0
G0 X199.5102 Y148.8915
G1 F100.0 Z0.0
G1 F1000.0 X190.4894 Y146.2654
G0 Z100.0
G0 X199.5476 Y148.894
G1 F100.0 Z0.0
G1 F1000.0 X212.1081 Y152.4984
G0 Z100.0
G0 X212.1454 Y152.5058
G1 F100.0 Z0.0
G1 F1000.0 X216.0086 Y153.6011
G0 Z100.0
G0 X225.9854 Y138.29
G1 F100.0 Z0.0
G1 F1000.0 X231.26 Y140.6996
G0 Z100.0
G0 X226.0949 Y137.8121
G1 F100.0 Z0.0
G1 F1000.0 X209.5716 Y131.0041
G0 Z100.0
G0 X205.0163 Y133.5954
G1 F100.0 Z0.0
G1 F1000.0 X236.8706 Y150.5742
G0 Z100.0
G0 X232.5469 Y162.0868
G1 F100.0 Z0.0
G1 F1000.0 X250.728 Y167.6775
G0 Z100.0
G0 X120.6524 Y189.1095
G1 F100.0 Z0.0
G1 F1000.0 X101.1395 Y191.193
G0 Z100.0
G0 X92.838 Y200.9531
G1 F100.0 Z0.0
G1 F1000.0 X55.3681 Y199.5741
G0 Z100.0
G0 X56.6152 Y198.0034
G1 F100.0 Z0.0
G1 F1000.0 X38.2773 Y200.5698
G0 Z100.0
G0 X35.6686 Y202.9495
G1 F100.0 Z0.0
G1 F1000.0 X51.5223 Y202.9619
G0 Z100.0
M30
