( AxiDraw CamBam Postprocessor )
( 20170805-205336-19267-output 8/5/2017 9:10:41 PM )
G21 G90
G0 Z100.0
( Engrave1 )
G64 G17
G0 X204.4546 Y34.693
G1 F100.0 Z0.0
G1 F1000.0 X209.8479 Y38.2786
G0 Z100.0
G0 X211.3325 Y38.2549
G1 F100.0 Z0.0
G1 F1000.0 X217.2829 Y42.2525
G1 X212.7697 Y32.7431
G1 X218.326 Y36.7081
G1 X214.0439 Y27.8507
G1 X204.4546 Y34.693
G1 X195.3779 Y41.1738
G1 X191.8516 Y32.8617
G1 X183.4979 Y39.0995
G0 Z100.0
G0 X186.7724 Y43.017
G1 F100.0 Z0.0
G1 F1000.0 X177.6157 Y49.6756
G1 X174.2405 Y40.67
G1 X167.3063 Y36.9866
G1 X159.8564 Y33.0335
G1 X151.2746 Y40.1218
G1 X158.8193 Y43.7193
G1 X155.8767 Y34.9597
G1 X158.8193 Y43.7193
G1 X165.8542 Y47.0768
G1 X168.9598 Y55.9697
G1 X160.7691 Y61.926
G1 X153.6038 Y59.1049
G1 X156.5405 Y68.5076
G1 X148.4624 Y74.2831
G1 X140.657 Y71.8206
G1 X143.3922 Y81.7774
G1 X135.4564 Y87.3425
G1 X132.9612 Y77.5458
G1 X140.8141 Y79.7505
G1 X148.4624 Y74.2831
G1 X140.657 Y71.8206
G1 X132.2767 Y69.1773
G1 X129.743 Y59.3539
G1 X132.2767 Y69.1773
G1 X140.657 Y71.8206
G1 X148.4624 Y74.2831
G1 X156.5405 Y68.5076
G1 X159.6016 Y78.3192
G1 X168.4323 Y72.3599
G1 X175.5799 Y74.9084
G1 X172.1987 Y65.239
G1 X168.9598 Y55.9697
G1 X160.7691 Y61.926
G0 Z100.0
G0 X157.4384 Y59.3361
G1 F100.0 Z0.0
G1 F1000.0 X165.0867 Y62.3942
G1 X156.5405 Y68.5076
G1 X148.8002 Y65.7606
G1 X151.8051 Y75.8774
G1 X148.8002 Y65.7606
G1 X140.4762 Y62.8091
G1 X131.4914 Y59.6206
G1 X123.2533 Y66.3325
G1 X132.2767 Y69.1773
G1 X129.743 Y59.3539
G1 X137.6818 Y52.8345
G1 X145.9288 Y56.0823
G1 X143.1788 Y46.813
G1 X151.2746 Y40.1218
G1 X159.8564 Y33.0335
G1 X167.3063 Y36.9866
G1 X174.2405 Y40.67
G1 X180.7153 Y44.1045
G1 X172.4299 Y50.2149
G1 X165.8542 Y47.0768
G1 X158.8193 Y43.7193
G1 X155.8767 Y34.9597
G1 X158.8193 Y43.7193
G1 X165.8542 Y47.0768
G1 X158.8193 Y43.7193
G1 X151.2746 Y40.1218
G1 X154.2883 Y49.5156
G1 X161.8863 Y52.8553
G1 X165.0867 Y62.3942
G1 X168.4323 Y72.3599
G1 X175.5799 Y74.9084
G1 X182.2326 Y77.2791
G1 X185.7767 Y87.0729
G1 X176.8956 Y92.3387
G1 X173.6241 Y82.7049
G1 X179.9508 Y84.6844
G1 X188.4378 Y79.4927
G1 X182.2326 Y77.2791
G1 X175.5799 Y74.9084
G1 X172.1987 Y65.239
G1 X181.1361 Y59.0753
G1 X187.6407 Y62.0149
G1 X184.1054 Y52.876
G1 X193.1258 Y46.5404
G1 X199.0465 Y49.8238
G1 X195.3779 Y41.1738
G0 Z100.0
G0 X193.1258 Y46.5404
G0 Z1.0
G1 F100.0 Z0.0
G1 F1000.0 X202.6648 Y39.8403
G1 X208.4166 Y43.4496
G1 X204.4546 Y34.693
G1 X214.0439 Y27.8507
G1 X204.4546 Y34.693
G1 X200.6526 Y26.289
G1 X204.4546 Y34.693
G1 X208.4166 Y43.4496
G1 X213.7861 Y46.813
G1 X217.8874 Y55.703
G1 X213.7861 Y46.813
G1 X208.4166 Y43.4496
G1 X202.6648 Y39.8403
G1 X212.7697 Y32.7431
G1 X218.326 Y36.7081
G1 X214.0439 Y27.8507
G1 X204.4546 Y34.693
G1 X200.6526 Y26.289
G1 X204.4546 Y34.693
G1 X208.4166 Y43.4496
G1 X202.6648 Y39.8403
G1 X193.1258 Y46.5404
G1 X189.4542 Y37.6593
G1 X180.7153 Y44.1045
G1 X184.1054 Y52.876
G0 Z100.0
G0 X190.604 Y52.5471
G1 F100.0 Z0.0
G1 F1000.0 X196.9574 Y55.8038
G1 X193.1258 Y46.5404
G1 X202.6648 Y39.8403
G1 X212.7697 Y32.7431
G1 X218.326 Y36.7081
G1 X214.0439 Y27.8507
G1 X204.4546 Y34.693
G1 X208.4166 Y43.4496
G1 X213.7861 Y46.813
G1 X217.8874 Y55.703
G0 Z100.0
G0 X212.5504 Y52.5797
G1 F100.0 Z0.0
G1 F1000.0 X216.8621 Y62.1127
G1 X206.8519 Y68.235
G1 X197.393 Y74.0194
G1 X188.4378 Y79.4927
G1 X182.2326 Y77.2791
G1 X175.5799 Y74.9084
G1 X172.1987 Y65.239
G1 X168.9598 Y55.9697
G1 X161.8863 Y52.8553
G1 X165.0867 Y62.3942
G1 X156.5405 Y68.5076
G1 X148.4624 Y74.2831
G1 X140.657 Y71.8206
G1 X143.3922 Y81.7774
G1 X146.2518 Y92.1787
G1 X149.2418 Y103.0571
G1 X157.2517 Y104.5388
G1 X160.4461 Y115.5357
G1 X151.7814 Y120.2859
G1 X148.8625 Y109.4994
G1 X156.3893 Y110.6669
G1 X164.6926 Y105.9167
G1 X157.2517 Y104.5388
G1 X149.2418 Y103.0571
G1 X146.2518 Y92.1787
G1 X154.9462 Y86.4624
G1 X162.802 Y88.5664
G1 X159.6016 Y78.3192
G1 X168.4323 Y72.3599
G1 X177.8024 Y66.0362
G1 X184.8136 Y68.8928
G1 X191.327 Y71.548
G1 X195.1764 Y81.4988
G1 X191.327 Y71.548
G1 X197.393 Y74.0194
G1 X193.7066 Y64.756
G1 X187.6407 Y62.0149
G0 Z100.0
G0 X187.7651 Y59.3153
G1 F100.0 Z0.0
G1 F1000.0 X177.8024 Y66.0362
G1 X184.8136 Y68.8928
G1 X181.1361 Y59.0753
G1 X190.604 Y52.5471
G1 X196.9574 Y55.8038
G1 X193.1258 Y46.5404
G1 X189.4542 Y37.6593
G1 X180.7153 Y44.1045
G1 X174.2405 Y40.67
G1 X177.6157 Y49.6756
G1 X168.9598 Y55.9697
G1 X161.8863 Y52.8553
G1 X154.2883 Y49.5156
G1 X151.2746 Y40.1218
G1 X159.8564 Y33.0335
G1 X168.9598 Y25.5096
G1 X159.8564 Y33.0335
G1 X167.3063 Y36.9866
G1 X159.8564 Y33.0335
G1 X151.2746 Y40.1218
G1 X143.1788 Y46.813
G1 X140.5414 Y37.926
G1 X133.1094 Y44.3653
G1 X124.9928 Y40.9367
G1 X133.1094 Y44.3653
G1 X140.5414 Y37.926
G1 X148.3913 Y31.1281
G1 X151.2746 Y40.1218
G1 X159.8564 Y33.0335
G1 X167.3063 Y36.9866
G1 X174.2405 Y40.67
G1 X177.6157 Y49.6756
G1 X181.1361 Y59.0753
G1 X190.604 Y52.5471
G1 X200.6526 Y45.6218
G1 X206.8193 Y49.2281
G1 X202.6648 Y39.8403
G1 X212.7697 Y32.7431
G1 X223.4911 Y25.2103
G1 X228.8191 Y29.5694
G1 X223.4911 Y25.2103
G1 X212.7697 Y32.7431
G1 X218.326 Y36.7081
G1 X223.5 Y40.4004
G1 X218.326 Y36.7081
G1 X214.0439 Y27.8507
G1 X218.326 Y36.7081
G1 X212.7697 Y32.7431
G1 X202.6648 Y39.8403
G1 X198.685 Y30.8525
G1 X189.4542 Y37.6593
G1 X183.1068 Y33.8988
G1 X189.4542 Y37.6593
G1 X180.7153 Y44.1045
G1 X174.2405 Y40.67
G0 Z100.0
G0 X170.6489 Y46.2441
G1 F100.0 Z0.0
G1 F1000.0 X174.1456 Y55.9164
G1 X165.0867 Y62.3942
G1 X168.4323 Y72.3599
G1 X175.5799 Y74.9084
G1 X172.1987 Y65.239
G1 X175.5799 Y74.9084
G1 X182.2326 Y77.2791
G1 X185.7767 Y87.0729
G1 X189.4779 Y97.2905
G1 X193.3421 Y107.9614
G1 X199.5533 Y109.2268
G1 X193.3421 Y107.9614
G1 X186.6539 Y106.6012
G1 X177.0171 Y111.7219
G1 X173.4818 Y100.8879
G1 X164.6926 Y105.9167
G1 X156.3893 Y110.6669
G1 X148.8625 Y109.4994
G1 X151.7814 Y120.2859
G1 X143.6233 Y119.4088
G1 X146.6015 Y131.0932
G1 X138.0878 Y135.5204
G1 X129.1445 Y135.2093
G1 X131.8678 Y147.6493
G1 X123.5467 Y151.7002
G1 X121.096 Y139.5446
G1 X130.072 Y139.6898
G1 X138.0878 Y135.5204
G1 X130.072 Y139.6898
G1 X121.096 Y139.5446
G1 X123.5467 Y151.7002
G1 X121.096 Y139.5446
G1 X111.4148 Y139.3905
G1 X121.096 Y139.5446
G1 X130.072 Y139.6898
G1 X122.5066 Y143.6222
G1 X113.5158 Y143.6281
G1 X122.5066 Y143.6222
G1 X130.072 Y139.6898
G1 X138.0878 Y135.5204
G1 X140.9148 Y147.4893
G1 X149.7189 Y143.3377
G1 X159.0978 Y138.9134
G1 X167.2885 Y139.0912
G1 X163.7888 Y127.0423
G1 X160.4461 Y115.5357
G1 X151.7814 Y120.2859
G1 X143.6026 Y124.7665
G1 X135.3882 Y124.079
G1 X138.0878 Y135.5204
G1 X140.9148 Y147.4893
G1 X149.7189 Y143.3377
G1 X146.6015 Y131.0932
G1 X138.0878 Y135.5204
G1 X135.3882 Y124.079
G1 X126.5456 Y123.3411
G1 X124.0653 Y112.0064
G1 X132.0811 Y106.8946
G1 X140.6007 Y101.4599
G1 X149.2418 Y103.0571
G1 X146.2518 Y92.1787
G1 X143.3922 Y81.7774
G1 X135.4564 Y87.3425
G1 X126.9457 Y85.286
G1 X129.4556 Y95.8473
G1 X121.6917 Y101.1665
G1 X112.4046 Y99.5693
G1 X114.6508 Y110.7884
G1 X107.0973 Y115.8231
G1 X105.0822 Y104.8203
G1 X114.3663 Y106.1864
G1 X121.6917 Y101.1665
G1 X114.3663 Y106.1864
G1 X105.0822 Y104.8203
G1 X107.0973 Y115.8231
G1 X96.9508 Y114.7445
G1 X98.9007 Y126.6897
G1 X91.5961 Y131.3866
G1 X80.5013 Y130.9006
G1 X82.1045 Y143.64
G1 X75.1051 Y147.9486
G1 X73.7153 Y135.5056
G1 X84.733 Y135.8049
G1 X91.5961 Y131.3866
G1 X84.733 Y135.8049
G1 X73.7153 Y135.5056
G1 X75.1051 Y147.9486
G1 X73.7153 Y135.5056
G1 X61.8027 Y135.1796
G1 X73.7153 Y135.5056
G1 X84.733 Y135.8049
G1 X78.267 Y139.9654
G1 X67.3352 Y139.8321
G1 X78.267 Y139.9654
G1 X84.733 Y135.8049
G1 X91.5961 Y131.3866
G1 X93.4037 Y143.637
G1 X100.9454 Y139.2216
G1 X108.9938 Y134.5099
G1 X119.4781 Y134.8744
G1 X117.0066 Y122.544
G1 X114.6508 Y110.7884
G1 X107.0973 Y115.8231
G1 X99.9823 Y120.5615
G1 X89.8744 Y119.6962
G1 X91.5961 Y131.3866
G1 X93.4037 Y143.637
G1 X100.9454 Y139.2216
G1 X98.9007 Y126.6897
G0 Z100.0
G0 X93.2703 Y125.0361
G1 F100.0 Z0.0
G1 F1000.0 X83.2098 Y124.3575
G1 X84.733 Y135.8049
G1 X78.267 Y139.9654
G1 X67.3352 Y139.8321
G0 Z100.0
G0 X72.1655 Y143.8889
G1 F100.0 Z0.0
G1 F1000.0 X78.267 Y139.9654
G0 Z100.0
G0 X82.1045 Y143.64
G0 Z1.0
G1 F100.0 Z0.0
G1 F1000.0 X83.7936 Y157.0313
G1 X85.5657 Y171.1189
G1 X97.2857 Y169.9751
G1 X99.3778 Y184.1576
G1 X91.5753 Y187.278
G1 X89.741 Y173.4718
G1 X100.4831 Y172.3161
G1 X108.0722 Y168.9201
G1 X97.2857 Y169.9751
G0 Z100.0
G0 X100.4831 Y172.3161
G0 Z1.0
G1 F100.0 Z0.0
G1 F1000.0 X89.741 Y173.4718
G1 X91.5753 Y187.278
G1 X89.741 Y173.4718
G1 X78.0951 Y174.7283
G1 X89.741 Y173.4718
G1 X100.4831 Y172.3161
G1 X93.3503 Y175.5106
G1 X82.6616 Y176.7552
G1 X93.3503 Y175.5106
G1 X100.4831 Y172.3161
G1 X108.0722 Y168.9201
G1 X116.1621 Y165.2989
G1 X118.7165 Y179.2444
G1 X127.6717 Y175.7625
G1 X137.7292 Y174.4142
G1 X134.7274 Y160.6999
G1 X131.8678 Y147.6493
G1 X123.5467 Y151.7002
G1 X113.7292 Y152.0291
G1 X116.1621 Y165.2989
G0 Z100.0
G0 X118.032 Y167.9452
G1 F100.0 Z0.0
G1 F1000.0 X126.1159 Y164.4366
G1 X134.7274 Y160.6999
G1 X143.9167 Y156.7112
G1 X152.9904 Y156.1778
G1 X149.7189 Y143.3377
G1 X158.0162 Y143.3436
G1 X149.7189 Y143.3377
G1 X159.0978 Y138.9134
G1 X167.2885 Y139.0912
G1 X174.8628 Y139.2601
G1 X181.8829 Y139.4142
G1 X172.8536 Y143.3555
G1 X181.8829 Y139.4142
G1 X191.4515 Y135.2359
G1 X187.5725 Y123.8004
G1 X180.7124 Y123.0507
G1 X177.0171 Y111.7219
G1 X183.8594 Y112.8598
G1 X177.0171 Y111.7219
G1 X167.9345 Y116.5462
G1 X164.6926 Y105.9167
G1 X161.587 Y95.7288
G1 X168.4857 Y97.326
G1 X176.8956 Y92.3387
G1 X170.0977 Y90.5192
G1 X173.4818 Y100.8879
G1 X164.6926 Y105.9167
G1 X157.2517 Y104.5388
G1 X149.2418 Y103.0571
G1 X140.6007 Y101.4599
G1 X149.6804 Y95.6725
G1 X158.2355 Y97.5483
G1 X166.1446 Y99.2818
G1 X169.6473 Y110.4951
G0 Z100.0
G0 X167.9345 Y116.5462
G0 Z1.0
G1 F100.0 Z0.0
G1 F1000.0 X177.0171 Y111.7219
G1 X186.6539 Y106.6012
G1 X193.3421 Y107.9614
G1 X189.4779 Y97.2905
G1 X193.3421 Y107.9614
G1 X199.5533 Y109.2268
G0 Z100.0
G0 X193.3421 Y107.9614
G0 Z1.0
G1 F100.0 Z0.0
G1 F1000.0 X186.6539 Y106.6012
G1 X196.9011 Y101.1576
G1 X203.4026 Y102.7667
G1 X196.9011 Y101.1576
G1 X186.6539 Y106.6012
G1 X177.0171 Y111.7219
G1 X173.4818 Y100.8879
G1 X170.0977 Y90.5192
G1 X162.802 Y88.5664
G1 X159.6016 Y78.3192
G1 X168.4323 Y72.3599
G1 X177.8024 Y66.0362
G1 X184.8136 Y68.8928
G1 X177.8024 Y66.0362
G1 X168.4323 Y72.3599
G1 X175.5799 Y74.9084
G1 X182.2326 Y77.2791
G1 X175.5799 Y74.9084
G1 X172.1987 Y65.239
G1 X175.5799 Y74.9084
G1 X168.4323 Y72.3599
G1 X177.8024 Y66.0362
G1 X184.8136 Y68.8928
G1 X177.8024 Y66.0362
G1 X168.4323 Y72.3599
G1 X159.6016 Y78.3192
G1 X156.5405 Y68.5076
G1 X148.4624 Y74.2831
G1 X140.8141 Y79.7505
G1 X148.4624 Y74.2831
G1 X140.657 Y71.8206
G1 X132.2767 Y69.1773
G1 X129.743 Y59.3539
G1 X137.6818 Y52.8345
G1 X146.1095 Y45.9181
G1 X154.2883 Y49.5156
G1 X151.2746 Y40.1218
G1 X159.8564 Y33.0335
G1 X168.9598 Y25.5096
G1 X159.8564 Y33.0335
G1 X163.1546 Y42.5488
G1 X170.6489 Y46.2441
G1 X177.6157 Y49.6756
G1 X168.9598 Y55.9697
G0 Z100.0
G0 X174.1456 Y55.9164
G0 Z1.0
G1 F100.0 Z0.0
G1 F1000.0 X177.8024 Y66.0362
G1 X168.4323 Y72.3599
G1 X159.6016 Y78.3192
G1 X156.5405 Y68.5076
G1 X153.6038 Y59.1049
G1 X145.9288 Y56.0823
G1 X143.1788 Y46.813
G1 X151.2746 Y40.1218
G1 X148.3913 Y31.1281
G1 X140.5414 Y37.926
G1 X143.1788 Y46.813
G1 X145.9288 Y56.0823
G1 X153.6038 Y59.1049
G1 X156.5405 Y68.5076
G1 X148.4624 Y74.2831
G1 X140.657 Y71.8206
G1 X148.4624 Y74.2831
G1 X156.5405 Y68.5076
G1 X159.6016 Y78.3192
G1 X162.802 Y88.5664
G1 X170.0977 Y90.5192
G1 X173.4818 Y100.8879
G1 X164.6926 Y105.9167
G1 X156.3893 Y110.6669
G1 X148.5276 Y115.1653
G1 X140.9385 Y114.1844
G0 Z100.0
G0 X143.647 Y113.2717
G1 F100.0 Z0.0
G1 F1000.0 X140.6007 Y101.4599
G1 X132.0811 Y106.8946
G1 X129.4556 Y95.8473
G1 X120.1804 Y93.9923
G1 X122.6873 Y105.4367
G0 Z100.0
G0 X121.6917 Y101.1665
G0 Z1.0
G1 F100.0 Z0.0
G1 F1000.0 X124.0653 Y112.0064
G1 X132.0811 Y106.8946
G1 X140.7815 Y108.2459
G1 X148.8625 Y109.4994
G1 X151.7814 Y120.2859
G1 X143.6026 Y124.7665
G1 X135.3882 Y124.079
G1 X138.0878 Y135.5204
G1 X129.1445 Y135.2093
G1 X119.4781 Y134.8744
G1 X117.0066 Y122.544
G1 X125.3158 Y117.4411
G1 X134.8281 Y118.4635
G1 X132.0811 Y106.8946
G1 X140.7815 Y108.2459
G1 X132.0811 Y106.8946
G1 X140.6007 Y101.4599
G1 X149.6804 Y95.6725
G1 X158.2355 Y97.5483
G1 X149.6804 Y95.6725
G1 X140.6007 Y101.4599
G1 X137.6966 Y90.1992
G1 X129.4556 Y95.8473
G1 X121.6917 Y101.1665
G1 X119.4188 Y90.7919
G1 X127.9562 Y92.6025
G1 X135.4564 Y87.3425
G1 X126.9457 Y85.286
G1 X117.789 Y83.0753
G1 X115.5042 Y72.6474
G1 X123.2533 Y66.3325
G1 X131.4914 Y59.6206
G1 X140.4762 Y62.8091
G1 X148.8002 Y65.7606
G1 X156.5405 Y68.5076
G1 X148.4624 Y74.2831
G1 X140.657 Y71.8206
G1 X132.2767 Y69.1773
G1 X123.2533 Y66.3325
G1 X125.7929 Y76.9383
G1 X134.9259 Y79.4482
G1 X137.6966 Y90.1992
G1 X129.4556 Y95.8473
G1 X121.6917 Y101.1665
G1 X112.4046 Y99.5693
G1 X102.3855 Y97.8476
G1 X100.3883 Y86.7558
G1 X102.3855 Y97.8476
G1 X112.4046 Y99.5693
G1 X121.6917 Y101.1665
G1 X114.3663 Y106.1864
G1 X107.444 Y110.9307
G1 X98.1776 Y109.772
G0 Z100.0
G0 X96.9508 Y114.7445
G0 Z1.0
G1 F100.0 Z0.0
G1 F1000.0 X85.9835 Y113.5799
G1 X84.3122 Y101.7621
G1 X91.5546 Y95.9836
G1 X102.3855 Y97.8476
G1 X100.3883 Y86.7558
G1 X107.9062 Y80.6869
G1 X117.789 Y83.0753
G1 X115.5042 Y72.6474
G1 X123.2533 Y66.3325
G1 X131.4914 Y59.6206
G1 X140.2688 Y52.473
G1 X131.4914 Y59.6206
G1 X140.4762 Y62.8091
G1 X137.6818 Y52.8345
G1 X146.1095 Y45.9181
G1 X154.2883 Y49.5156
G1 X151.2746 Y40.1218
G1 X158.8193 Y43.7193
G0 Z100.0
G0 X163.1546 Y42.5488
G0 Z1.0
G1 F100.0 Z0.0
G1 F1000.0 X159.8564 Y33.0335
G1 X167.3063 Y36.9866
G1 X159.8564 Y33.0335
G1 X168.9598 Y25.5096
G1 X159.8564 Y33.0335
G1 X156.7005 Y23.9331
G1 X159.8564 Y33.0335
G1 X151.2746 Y40.1218
G1 X159.8564 Y33.0335
G1 X167.3063 Y36.9866
G1 X159.8564 Y33.0335
G1 X168.9598 Y25.5096
G1 X159.8564 Y33.0335
G1 X151.2746 Y40.1218
G1 X148.3913 Y31.1281
G1 X140.5414 Y37.926
G1 X148.3913 Y31.1281
G1 X151.2746 Y40.1218
G1 X154.2883 Y49.5156
G1 X161.8863 Y52.8553
G1 X165.0867 Y62.3942
G1 X156.5405 Y68.5076
G1 X165.0867 Y62.3942
G1 X168.4323 Y72.3599
G1 X171.932 Y82.782
G1 X164.1888 Y80.3846
G1 X154.9462 Y86.4624
G1 X162.802 Y88.5664
G1 X159.6016 Y78.3192
G1 X168.4323 Y72.3599
G1 X177.8024 Y66.0362
G1 X184.8136 Y68.8928
G1 X191.327 Y71.548
G1 X197.393 Y74.0194
G1 X188.4378 Y79.4927
G1 X182.2326 Y77.2791
G1 X175.5799 Y74.9084
G1 X168.4323 Y72.3599
G1 X177.8024 Y66.0362
G1 X184.8136 Y68.8928
G1 X181.1361 Y59.0753
G1 X190.604 Y52.5471
G1 X196.9574 Y55.8038
G1 X202.8692 Y58.8382
G1 X206.8519 Y68.235
G1 X197.393 Y74.0194
G1 X188.4378 Y79.4927
G0 Z100.0
G0 X182.2326 Y77.2791
G0 Z1.0
G1 F100.0 Z0.0
G1 F1000.0 X175.5799 Y74.9084
G1 X172.1987 Y65.239
G0 Z100.0
G0 X177.8024 Y66.0362
G0 Z1.0
G1 F100.0 Z0.0
G1 F1000.0 X187.7651 Y59.3153
G1 X177.8024 Y66.0362
G1 X184.8136 Y68.8928
G1 X191.327 Y71.548
G1 X195.1764 Y81.4988
G1 X185.7767 Y87.0729
G1 X176.8956 Y92.3387
G1 X170.0977 Y90.5192
G1 X162.802 Y88.5664
G1 X170.0977 Y90.5192
G1 X173.4818 Y100.8879
G1 X164.6926 Y105.9167
G1 X157.2517 Y104.5388
G1 X160.4461 Y115.5357
G1 X163.7888 Y127.0423
G1 X173.3129 Y122.2447
G1 X180.7124 Y123.0507
G1 X177.0171 Y111.7219
G1 X186.6539 Y106.6012
G1 X182.7956 Y95.5599
G1 X173.4818 Y100.8879
G1 X164.6926 Y105.9167
G1 X157.2517 Y104.5388
G1 X149.2418 Y103.0571
G1 X146.2518 Y92.1787
G1 X154.9462 Y86.4624
G1 X162.802 Y88.5664
G1 X159.6016 Y78.3192
G1 X156.5405 Y68.5076
G1 X165.0867 Y62.3942
G1 X168.4323 Y72.3599
G1 X171.932 Y82.782
G1 X179.1063 Y85.0045
G1 X182.7956 Y95.5599
G1 X173.4818 Y100.8879
G1 X166.1446 Y99.2818
G0 Z100.0
G0 X164.6926 Y105.9167
G0 Z1.0
G1 F100.0 Z0.0
G1 F1000.0 X156.3893 Y110.6669
G1 X164.6926 Y105.9167
G1 X157.2517 Y104.5388
G1 X164.6926 Y105.9167
G1 X167.9345 Y116.5462
G1 X171.3216 Y127.6498
G1 X178.318 Y128.2128
G1 X181.8829 Y139.4142
G1 X174.8628 Y139.2601
G1 X167.2885 Y139.0912
G1 X163.7888 Y127.0423
G1 X171.3216 Y127.6498
G1 X167.9345 Y116.5462
G1 X177.0171 Y111.7219
G1 X173.4818 Y100.8879
G1 X164.6926 Y105.9167
G1 X156.3893 Y110.6669
G1 X148.8625 Y109.4994
G0 Z100.0
G0 X143.647 Y113.2717
G0 Z1.0
G1 F100.0 Z0.0
G1 F1000.0 X134.1851 Y111.9975
G1 X125.3158 Y117.4411
G1 X134.8281 Y118.4635
G1 X143.6233 Y119.4088
G1 X146.6015 Y131.0932
G1 X138.0878 Y135.5204
G1 X130.072 Y139.6898
G1 X122.5066 Y143.6222
G1 X113.5158 Y143.6281
G1 X115.7235 Y155.5111
G1 X105.909 Y155.9793
G1 X108.0722 Y168.9201
G1 X110.3451 Y182.4981
G1 X118.7165 Y179.2444
G1 X128.8096 Y177.7983
G1 X118.7165 Y179.2444
G1 X110.3451 Y182.4981
G1 X108.0722 Y168.9201
G1 X100.4831 Y172.3161
G1 X93.3503 Y175.5106
G1 X82.6616 Y176.7552
G1 X93.3503 Y175.5106
G1 X86.6295 Y178.5184
G1 X93.3503 Y175.5106
G1 X100.4831 Y172.3161
G1 X102.5041 Y185.5474
G1 X110.3451 Y182.4981
G1 X118.7165 Y179.2444
G1 X128.8096 Y177.7983
G0 Z100.0
G0 X137.7292 Y174.4142
G0 Z1.0
G1 F100.0 Z0.0
G1 F1000.0 X146.9778 Y173.1725
G1 X155.5122 Y172.0257
G1 X146.7289 Y175.2291
G1 X155.5122 Y172.0257
G1 X164.8556 Y168.6208
G1 X161.3559 Y155.6859
G1 X152.9904 Y156.1778
G1 X149.7189 Y143.3377
G1 X146.6015 Y131.0932
G1 X143.6233 Y119.4088
G1 X134.8281 Y118.4635
G1 X132.0811 Y106.8946
G1 X140.6007 Y101.4599
G1 X149.2418 Y103.0571
G1 X146.2518 Y92.1787
G1 X154.9462 Y86.4624
G1 X164.1888 Y80.3846
G1 X171.932 Y82.782
G1 X168.4323 Y72.3599
G1 X177.8024 Y66.0362
G1 X187.7651 Y59.3153
G1 X194.6104 Y62.5157
G1 X190.604 Y52.5471
G1 X200.6526 Y45.6218
G1 X206.8193 Y49.2281
G1 X202.6648 Y39.8403
G1 X208.4166 Y43.4496
G0 Z100.0
G0 X211.3325 Y38.2549
G0 Z1.0
G1 F100.0 Z0.0
G1 F1000.0 X200.6526 Y45.6218
G1 X206.8193 Y49.2281
G1 X202.6648 Y39.8403
G1 X193.1258 Y46.5404
G1 X189.4542 Y37.6593
G1 X198.685 Y30.8525
G1 X202.6648 Y39.8403
G1 X212.7697 Y32.7431
G1 X218.326 Y36.7081
G1 X214.0439 Y27.8507
G0 Z100.0
G0 X212.7697 Y32.7431
G0 Z1.0
G1 F100.0 Z0.0
G1 F1000.0 X223.4911 Y25.2103
G1 X228.8191 Y29.5694
G1 X223.4911 Y25.2103
G1 X234.891 Y17.2034
G0 Z100.0
G0 X223.4911 Y25.2103
G0 Z1.0
G1 F100.0 Z0.0
G1 F1000.0 X212.7697 Y32.7431
G1 X202.6648 Y39.8403
G1 X198.685 Y30.8525
G1 X189.4542 Y37.6593
G1 X183.1068 Y33.8988
G0 Z100.0
G0 X186.7724 Y43.017
G0 Z1.0
G1 F100.0 Z0.0
G1 F1000.0 X190.604 Y52.5471
G1 X200.6526 Y45.6218
G0 Z100.0
G0 X199.0465 Y49.8238
G0 Z1.0
G1 F100.0 Z0.0
G1 F1000.0 X204.5791 Y52.8938
G1 X208.387 Y61.6653
G1 X199.3784 Y67.3193
G0 Z100.0
G0 X200.9549 Y65.4791
G1 F100.0 Z0.0
G1 F1000.0 X206.8519 Y68.235
G1 X202.8692 Y58.8382
G1 X196.9574 Y55.8038
G1 X193.1258 Y46.5404
G0 Z100.0
G0 X187.7651 Y59.3153
G0 Z1.0
G1 F100.0 Z0.0
G1 F1000.0 X177.8024 Y66.0362
G1 X184.8136 Y68.8928
G1 X177.8024 Y66.0362
G1 X168.4323 Y72.3599
G1 X165.0867 Y62.3942
G1 X156.5405 Y68.5076
G1 X148.8002 Y65.7606
G1 X151.8051 Y75.8774
G1 X143.3922 Y81.7774
G1 X134.9259 Y79.4482
G1 X137.6966 Y90.1992
G1 X140.6007 Y101.4599
G1 X132.0811 Y106.8946
G1 X129.4556 Y95.8473
G1 X126.9457 Y85.286
G1 X129.4556 Y95.8473
G1 X121.6917 Y101.1665
G1 X112.4046 Y99.5693
G1 X114.6508 Y110.7884
G1 X117.0066 Y122.544
G1 X126.5456 Y123.3411
G1 X124.0653 Y112.0064
G1 X132.0811 Y106.8946
G1 X129.4556 Y95.8473
G1 X121.6917 Y101.1665
G1 X112.4046 Y99.5693
G1 X102.3855 Y97.8476
G0 Z100.0
G0 X105.0822 Y104.8203
G0 Z1.0
G1 F100.0 Z0.0
G1 F1000.0 X95.0928 Y103.3505
G1 X84.3122 Y101.7621
G1 X91.5546 Y95.9836
G1 X99.2829 Y89.8169
G1 X110.1525 Y91.989
G1 X120.1804 Y93.9923
G0 Z100.0
G0 X119.4188 Y90.7919
G0 Z1.0
G1 F100.0 Z0.0
G1 F1000.0 X121.6917 Y101.1665
G1 X114.3663 Y106.1864
G1 X121.6917 Y101.1665
G1 X112.4046 Y99.5693
G1 X121.6917 Y101.1665
G1 X124.0653 Y112.0064
G1 X121.6917 Y101.1665
G1 X114.3663 Y106.1864
G1 X105.0822 Y104.8203
G1 X107.0973 Y115.8231
G1 X99.9823 Y120.5615
G1 X89.8744 Y119.6962
G1 X91.5961 Y131.3866
G0 Z100.0
G0 X93.2703 Y125.0361
G0 Z1.0
G1 F100.0 Z0.0
G1 F1000.0 X99.9823 Y120.5615
G0 Z100.0
G0 X107.0973 Y115.8231
G0 Z1.0
G1 F100.0 Z0.0
G1 F1000.0 X109.2071 Y127.3327
G1 X117.0066 Y122.544
G1 X119.4781 Y134.8744
G1 X129.1445 Y135.2093
G1 X138.0878 Y135.5204
G1 X130.072 Y139.6898
G1 X132.6323 Y151.398
G1 X140.9148 Y147.4893
G1 X138.0878 Y135.5204
G1 X130.072 Y139.6898
G1 X127.6183 Y128.4855
G1 X135.8771 Y129.0011
G1 X143.6026 Y124.7665
G1 X135.3882 Y124.079
G1 X126.5456 Y123.3411
G1 X124.0653 Y112.0064
G1 X132.0811 Y106.8946
G1 X140.6007 Y101.4599
G1 X132.0811 Y106.8946
G1 X129.4556 Y95.8473
G1 X121.6917 Y101.1665
G1 X114.3663 Y106.1864
G1 X121.6917 Y101.1665
G1 X129.4556 Y95.8473
G1 X126.9457 Y85.286
G1 X117.789 Y83.0753
G1 X115.5042 Y72.6474
G1 X113.3203 Y62.6758
G1 X106.232 Y68.7802
G1 X96.6545 Y66.0451
G1 X106.232 Y68.7802
G1 X99.5378 Y74.5469
G0 Z100.0
G0 X106.232 Y68.7802
G0 Z1.0
G1 F100.0 Z0.0
G1 F1000.0 X113.3203 Y62.6758
G1 X120.8293 Y56.2068
G1 X123.2533 Y66.3325
G1 X131.4914 Y59.6206
G1 X140.4762 Y62.8091
G1 X148.8002 Y65.7606
G0 Z100.0
G0 X153.6038 Y59.1049
G0 Z1.0
G1 F100.0 Z0.0
G1 F1000.0 X145.9288 Y56.0823
G1 X137.6818 Y52.8345
G1 X146.1095 Y45.9181
G1 X155.0707 Y38.5631
G1 X163.1546 Y42.5488
G1 X159.8564 Y33.0335
G1 X168.9598 Y25.5096
G0 Z100.0
G0 X163.1546 Y42.5488
G0 Z1.0
G1 F100.0 Z0.0
G1 F1000.0 X155.0707 Y38.5631
G1 X146.1095 Y45.9181
G1 X154.2883 Y49.5156
G1 X151.2746 Y40.1218
G0 Z100.0
G0 X146.1095 Y45.9181
G0 Z1.0
G1 F100.0 Z0.0
G1 F1000.0 X154.2883 Y49.5156
G1 X161.8863 Y52.8553
G1 X165.0867 Y62.3942
G1 X156.5405 Y68.5076
G1 X148.4624 Y74.2831
G1 X140.657 Y71.8206
G1 X143.3922 Y81.7774
G1 X135.4564 Y87.3425
G1 X126.9457 Y85.286
G1 X117.789 Y83.0753
G1 X115.5042 Y72.6474
G1 X123.2533 Y66.3325
G1 X125.7929 Y76.9383
G1 X115.9161 Y74.2239
G1 X107.9062 Y80.6869
G0 Z100.0
G0 X117.789 Y83.0753
G0 Z1.0
G1 F100.0 Z0.0
G1 F1000.0 X126.9457 Y85.286
G1 X129.4556 Y95.8473
G1 X132.0811 Y106.8946
G1 X140.6007 Y101.4599
G1 X149.2418 Y103.0571
G1 X157.2517 Y104.5388
G1 X164.6926 Y105.9167
G1 X156.3893 Y110.6669
G1 X164.6926 Y105.9167
G1 X173.4818 Y100.8879
G1 X170.0977 Y90.5192
G1 X173.4818 Y100.8879
G1 X164.6926 Y105.9167
G1 X157.2517 Y104.5388
G1 X160.4461 Y115.5357
G1 X151.7814 Y120.2859
G1 X154.8277 Y131.5555
G1 X163.7888 Y127.0423
G1 X173.3129 Y122.2447
G1 X180.7124 Y123.0507
G1 X187.5725 Y123.8004
G1 X191.4515 Y135.2359
G1 X181.8829 Y139.4142
G1 X172.8536 Y143.3555
G1 X181.8829 Y139.4142
G1 X178.318 Y128.2128
G1 X171.3216 Y127.6498
G1 X163.7888 Y127.0423
G1 X160.4461 Y115.5357
G1 X151.7814 Y120.2859
G1 X143.6233 Y119.4088
G1 X134.8281 Y118.4635
G1 X132.0811 Y106.8946
G1 X140.6007 Y101.4599
G1 X132.0811 Y106.8946
G1 X129.4556 Y95.8473
G1 X121.6917 Y101.1665
G1 X112.4046 Y99.5693
G1 X121.6917 Y101.1665
G1 X114.3663 Y106.1864
G1 X121.6917 Y101.1665
G1 X129.4556 Y95.8473
G1 X126.9457 Y85.286
G1 X135.4564 Y87.3425
G1 X143.3922 Y81.7774
G1 X146.2518 Y92.1787
G1 X154.9462 Y86.4624
G1 X151.8051 Y75.8774
G1 X143.3922 Y81.7774
G1 X135.4564 Y87.3425
G1 X127.9562 Y92.6025
G1 X119.4188 Y90.7919
G0 Z100.0
G0 X117.789 Y83.0753
G0 Z1.0
G1 F100.0 Z0.0
G1 F1000.0 X115.5042 Y72.6474
G1 X123.2533 Y66.3325
G1 X115.5042 Y72.6474
G1 X113.3203 Y62.6758
G1 X111.2281 Y53.1309
G1 X101.7662 Y49.8001
G1 X99.8964 Y40.4004
G1 X106.9491 Y33.321
G1 X109.0353 Y42.8451
G1 X118.512 Y46.5285
G1 X120.8293 Y56.2068
G1 X113.3203 Y62.6758
G0 Z100.0
G0 X120.0411 Y56.2335
G1 F100.0 Z0.0
G1 F1000.0 X111.2281 Y53.1309
G0 Z100.0
G0 X120.0411 Y56.2335
G0 Z1.0
G1 F100.0 Z0.0
G1 F1000.0 X127.3161 Y49.9512
G1 X129.743 Y59.3539
G1 X132.2767 Y69.1773
G1 X140.657 Y71.8206
G1 X148.4624 Y74.2831
G1 X156.5405 Y68.5076
G1 X165.0867 Y62.3942
G1 X168.4323 Y72.3599
G1 X171.932 Y82.782
G1 X179.1063 Y85.0045
G1 X185.7767 Y87.0729
G1 X176.8956 Y92.3387
G0 Z100.0
G0 X182.7956 Y95.5599
G0 Z1.0
G1 F100.0 Z0.0
G1 F1000.0 X179.1063 Y85.0045
G1 X182.7956 Y95.5599
G1 X173.4818 Y100.8879
G1 X164.6926 Y105.9167
G1 X157.2517 Y104.5388
G1 X149.2418 Y103.0571
G1 X146.2518 Y92.1787
G1 X143.3922 Y81.7774
G1 X135.4564 Y87.3425
G1 X126.9457 Y85.286
G1 X117.789 Y83.0753
G1 X115.5042 Y72.6474
G1 X123.2533 Y66.3325
G1 X132.2767 Y69.1773
G0 Z100.0
G0 X123.2533 Y66.3325
G0 Z1.0
G1 F100.0 Z0.0
G1 F1000.0 X120.8293 Y56.2068
G0 Z100.0
G0 X127.3161 Y49.9512
G0 Z1.0
G1 F100.0 Z0.0
G1 F1000.0 X118.512 Y46.5285
G0 Z100.0
G0 X127.3161 Y49.9512
G0 Z1.0
G1 F100.0 Z0.0
G1 F1000.0 X135.0119 Y43.3015
G1 X137.6818 Y52.8345
G1 X146.1095 Y45.9181
G0 Z100.0
G0 X137.6818 Y52.8345
G0 Z1.0
G1 F100.0 Z0.0
G1 F1000.0 X140.4762 Y62.8091
G1 X131.4914 Y59.6206
G1 X123.2533 Y66.3325
G1 X115.5042 Y72.6474
G0 Z100.0
G0 X123.2533 Y66.3325
G0 Z1.0
G1 F100.0 Z0.0
G1 F1000.0 X125.7929 Y76.9383
G1 X134.9259 Y79.4482
G1 X143.3922 Y81.7774
G1 X135.4564 Y87.3425
G1 X126.9457 Y85.286
G1 X129.4556 Y95.8473
G1 X132.0811 Y106.8946
G1 X140.6007 Y101.4599
G1 X149.2418 Y103.0571
G1 X146.2518 Y92.1787
G1 X149.2418 Y103.0571
G1 X157.2517 Y104.5388
G1 X164.6926 Y105.9167
G1 X156.3893 Y110.6669
G1 X164.6926 Y105.9167
G1 X173.4818 Y100.8879
G1 X177.0171 Y111.7219
G1 X186.6539 Y106.6012
G1 X196.9011 Y101.1576
G1 X203.4026 Y102.7667
G1 X196.9011 Y101.1576
G1 X207.815 Y95.3584
G0 Z100.0
G0 X196.9011 Y101.1576
G0 Z1.0
G1 F100.0 Z0.0
G1 F1000.0 X186.6539 Y106.6012
G1 X182.7956 Y95.5599
G1 X173.4818 Y100.8879
G1 X170.0977 Y90.5192
G1 X162.802 Y88.5664
G1 X154.9462 Y86.4624
G1 X164.1888 Y80.3846
G1 X171.932 Y82.782
G1 X168.4323 Y72.3599
G1 X177.8024 Y66.0362
G1 X184.8136 Y68.8928
G1 X177.8024 Y66.0362
G1 X187.7651 Y59.3153
G1 X177.8024 Y66.0362
G1 X168.4323 Y72.3599
G1 X175.5799 Y74.9084
G0 Z100.0
G0 X174.033 Y73.9098
G1 F100.0 Z0.0
G1 F1000.0 X181.631 Y76.636
G1 X177.8024 Y66.0362
G1 X168.4323 Y72.3599
G1 X159.6016 Y78.3192
G1 X156.5405 Y68.5076
G1 X165.0867 Y62.3942
G1 X156.5405 Y68.5076
G1 X148.4624 Y74.2831
G0 Z100.0
G0 X151.8051 Y75.8774
G0 Z1.0
G1 F100.0 Z0.0
G1 F1000.0 X154.9462 Y86.4624
G1 X164.1888 Y80.3846
G1 X171.932 Y82.782
G1 X168.4323 Y72.3599
G1 X177.8024 Y66.0362
G1 X184.8136 Y68.8928
G1 X177.8024 Y66.0362
G1 X187.7651 Y59.3153
G1 X177.8024 Y66.0362
G1 X168.4323 Y72.3599
G1 X165.0867 Y62.3942
G1 X156.5405 Y68.5076
G0 Z100.0
G0 X159.6016 Y78.3192
G0 Z1.0
G1 F100.0 Z0.0
G1 F1000.0 X162.802 Y88.5664
G1 X170.0977 Y90.5192
G0 Z100.0
G0 X162.802 Y88.5664
G0 Z1.0
G1 F100.0 Z0.0
G1 F1000.0 X154.9462 Y86.4624
G1 X164.1888 Y80.3846
G1 X171.932 Y82.782
G1 X168.4323 Y72.3599
G1 X165.0867 Y62.3942
G0 Z100.0
G0 X174.1456 Y55.9164
G0 Z1.0
G1 F100.0 Z0.0
G1 F1000.0 X177.8024 Y66.0362
G0 Z100.0
G0 X181.1361 Y59.0753
G0 Z1.0
G1 F100.0 Z0.0
G1 F1000.0 X177.6157 Y49.6756
G0 Z100.0
G0 X174.033 Y73.9098
G0 Z1.0
G1 F100.0 Z0.0
G1 F1000.0 X164.1888 Y80.3846
G1 X171.932 Y82.782
G1 X179.1063 Y85.0045
G0 Z100.0
G0 X164.1888 Y80.3846
G0 Z1.0
G1 F100.0 Z0.0
G1 F1000.0 X154.9462 Y86.4624
G1 X146.2518 Y92.1787
G1 X143.3922 Y81.7774
G0 Z100.0
G0 X137.6966 Y90.1992
G0 Z1.0
G1 F100.0 Z0.0
G1 F1000.0 X129.4556 Y95.8473
G1 X121.6917 Y101.1665
G1 X112.4046 Y99.5693
G0 Z100.0
G0 X114.3663 Y106.1864
G0 Z1.0
G1 F100.0 Z0.0
G1 F1000.0 X121.6917 Y101.1665
G1 X124.0653 Y112.0064
G1 X126.5456 Y123.3411
G1 X135.3882 Y124.079
G1 X138.0878 Y135.5204
G1 X130.072 Y139.6898
G1 X138.0878 Y135.5204
G1 X129.1445 Y135.2093
G1 X119.4781 Y134.8744
G1 X108.9938 Y134.5099
G1 X117.6052 Y129.4693
G1 X128.0806 Y130.056
G0 Z100.0
G0 X129.1445 Y135.2093
G0 Z1.0
G1 F100.0 Z0.0
G1 F1000.0 X131.8678 Y147.6493
G1 X134.7274 Y160.6999
G1 X143.8752 Y160.0272
G1 X140.9148 Y147.4893
G1 X149.7189 Y143.3377
G1 X159.0978 Y138.9134
G1 X169.1109 Y134.1899
G1 X177.1593 Y134.5662
G0 Z100.0
G0 X174.8628 Y139.2601
G0 Z1.0
G1 F100.0 Z0.0
G1 F1000.0 X178.5669 Y151.4098
G1 X169.0961 Y155.2295
G1 X161.3559 Y155.6859
G1 X164.8556 Y168.6208
G1 X155.5122 Y172.0257
G1 X152.3325 Y159.4049
G1 X143.8752 Y160.0272
G1 X140.9148 Y147.4893
G1 X138.0878 Y135.5204
G1 X146.6015 Y131.0932
G1 X149.7189 Y143.3377
G1 X158.0162 Y143.3436
G1 X149.7189 Y143.3377
G1 X159.0978 Y138.9134
G1 X149.7189 Y143.3377
G1 X146.6015 Y131.0932
G1 X138.0878 Y135.5204
G1 X129.1445 Y135.2093
G1 X119.4781 Y134.8744
G1 X117.0066 Y122.544
G1 X125.3158 Y117.4411
G1 X134.8281 Y118.4635
G1 X132.0811 Y106.8946
G1 X140.6007 Y101.4599
G1 X149.6804 Y95.6725
G1 X158.2355 Y97.5483
G1 X149.6804 Y95.6725
G1 X159.3675 Y89.4939
G0 Z100.0
G0 X154.9462 Y86.4624
G0 Z1.0
G1 F100.0 Z0.0
G1 F1000.0 X158.2355 Y97.5483
G1 X149.6804 Y95.6725
G1 X140.6007 Y101.4599
G1 X132.0811 Y106.8946
G1 X134.8281 Y118.4635
G1 X143.6233 Y119.4088
G1 X146.6015 Y131.0932
G1 X138.0878 Y135.5204
G1 X129.1445 Y135.2093
G1 X138.0878 Y135.5204
G1 X130.072 Y139.6898
G1 X121.096 Y139.5446
G1 X123.5467 Y151.7002
G1 X115.7235 Y155.5111
G1 X105.909 Y155.9793
G1 X108.0722 Y168.9201
G1 X100.4831 Y172.3161
G1 X98.5569 Y159.6894
G1 X108.3537 Y159.0997
G1 X115.7235 Y155.5111
G1 X123.5467 Y151.7002
G1 X126.1159 Y164.4366
G1 X134.7274 Y160.6999
G1 X143.8752 Y160.0272
G1 X152.3325 Y159.4049
G1 X155.5122 Y172.0257
G1 X146.9778 Y173.1725
G0 Z100.0
G0 X146.7289 Y175.2291
G0 Z1.0
G1 F100.0 Z0.0
G1 F1000.0 X155.5122 Y172.0257
G1 X146.7289 Y175.2291
G1 X155.5122 Y172.0257
G1 X158.8459 Y185.2511
G1 X155.5122 Y172.0257
G1 X152.3325 Y159.4049
G1 X160.1735 Y158.827
G1 X169.0961 Y155.2295
G1 X160.1735 Y158.827
G1 X152.3325 Y159.4049
G1 X155.5122 Y172.0257
G1 X146.7289 Y175.2291
G1 X143.8367 Y162.9046
G1 X135.3141 Y163.6425
G1 X132.6323 Y151.398
G1 X140.9148 Y147.4893
G1 X138.0878 Y135.5204
G1 X130.072 Y139.6898
G1 X138.0878 Y135.5204
G1 X146.6015 Y131.0932
G1 X143.6233 Y119.4088
G1 X134.8281 Y118.4635
G1 X132.0811 Y106.8946
G1 X129.4556 Y95.8473
G1 X132.0811 Y106.8946
G1 X140.6007 Y101.4599
G1 X149.2418 Y103.0571
G1 X146.2518 Y92.1787
G0 Z100.0
G0 X149.6804 Y95.6725
G0 Z1.0
G1 F100.0 Z0.0
G1 F1000.0 X140.6007 Y101.4599
G1 X137.6966 Y90.1992
G0 Z100.0
G0 X140.6007 Y101.4599
G0 Z1.0
G1 F100.0 Z0.0
G1 F1000.0 X132.0811 Y106.8946
G1 X134.8281 Y118.4635
G1 X143.6233 Y119.4088
G1 X151.7814 Y120.2859
G1 X143.6026 Y124.7665
G1 X135.3882 Y124.079
G1 X138.0878 Y135.5204
G1 X129.1445 Y135.2093
G0 Z100.0
G0 X130.072 Y139.6898
G0 Z1.0
G1 F100.0 Z0.0
G1 F1000.0 X138.0878 Y135.5204
G1 X146.6015 Y131.0932
G1 X149.7189 Y143.3377
G1 X159.0978 Y138.9134
G1 X167.2885 Y139.0912
G1 X163.7888 Y127.0423
G1 X173.3129 Y122.2447
G1 X183.4594 Y117.1329
G1 X190.6958 Y118.1671
G1 X186.6539 Y106.6012
G1 X177.0171 Y111.7219
G1 X183.8594 Y112.8598
G0 Z100.0
G0 X186.6539 Y106.6012
G0 Z1.0
G1 F100.0 Z0.0
G1 F1000.0 X177.0171 Y111.7219
G1 X173.4818 Y100.8879
G0 Z100.0
G0 X164.6926 Y105.9167
G0 Z1.0
G1 F100.0 Z0.0
G1 F1000.0 X167.9345 Y116.5462
G0 Z100.0
G0 X160.4461 Y115.5357
G0 Z1.0
G1 F100.0 Z0.0
G1 F1000.0 X151.7814 Y120.2859
G1 X143.6233 Y119.4088
G1 X146.6015 Y131.0932
G1 X149.7189 Y143.3377
G1 X159.0978 Y138.9134
G1 X149.7189 Y143.3377
G1 X159.0978 Y138.9134
G0 Z100.0
G0 X158.0162 Y143.3436
G0 Z1.0
G1 F100.0 Z0.0
G1 F1000.0 X154.8277 Y131.5555
G1 X163.7888 Y127.0423
G0 Z100.0
G0 X154.8277 Y131.5555
G0 Z1.0
G1 F100.0 Z0.0
G1 F1000.0 X151.7814 Y120.2859
G1 X143.6026 Y124.7665
G1 X135.3882 Y124.079
G1 X138.0878 Y135.5204
G1 X130.072 Y139.6898
G1 X138.0878 Y135.5204
G1 X140.9148 Y147.4893
G1 X149.7189 Y143.3377
G1 X158.0162 Y143.3436
G1 X165.709 Y143.3495
G1 X169.0961 Y155.2295
G0 Z100.0
G0 X161.3559 Y155.6859
G0 Z1.0
G1 F100.0 Z0.0
G1 F1000.0 X152.9904 Y156.1778
G0 Z100.0
G0 X152.3325 Y159.4049
G0 Z1.0
G1 F100.0 Z0.0
G1 F1000.0 X143.8752 Y160.0272
G1 X140.9148 Y147.4893
G1 X138.0878 Y135.5204
G1 X130.072 Y139.6898
G1 X121.096 Y139.5446
G1 X123.5467 Y151.7002
G1 X115.7235 Y155.5111
G1 X105.909 Y155.9793
G1 X95.2973 Y156.483
G1 X93.4037 Y143.637
G1 X86.3243 Y147.7797
G1 X84.733 Y135.8049
G0 Z100.0
G0 X80.5013 Y130.9006
G0 Z1.0
G1 F100.0 Z0.0
G1 F1000.0 X68.4761 Y130.3731
G1 X67.1812 Y117.7523
G0 Z100.0
G0 X78.9723 Y118.7628
G1 F100.0 Z0.0
G1 F1000.0 X77.5143 Y107.188
G1 X84.3122 Y101.7621
G0 Z100.0
G0 X78.9723 Y118.7628
G0 Z1.0
G1 F100.0 Z0.0
G1 F1000.0 X89.8744 Y119.6962
G0 Z100.0
G0 X109.2071 Y127.3327
G0 Z1.0
G1 F100.0 Z0.0
G1 F1000.0 X117.0066 Y122.544
G1 X126.5456 Y123.3411
G1 X135.3882 Y124.079
G1 X138.0878 Y135.5204
G1 X130.072 Y139.6898
G1 X132.6323 Y151.398
G0 Z100.0
G0 X123.5467 Y151.7002
G0 Z1.0
G1 F100.0 Z0.0
G1 F1000.0 X126.1159 Y164.4366
G1 X135.3141 Y163.6425
G0 Z100.0
G0 X143.8367 Y162.9046
G0 Z1.0
G1 F100.0 Z0.0
G1 F1000.0 X146.7289 Y175.2291
G0 Z100.0
G0 X143.8367 Y162.9046
G0 Z1.0
G1 F100.0 Z0.0
G1 F1000.0 X151.7577 Y162.2201
G1 X160.1735 Y158.827
G0 Z100.0
G0 X164.8556 Y168.6208
G0 Z1.0
G1 F100.0 Z0.0
G1 F1000.0 X168.5272 Y182.1929
G1 X178.8603 Y178.9273
G0 Z100.0
G0 X174.8628 Y139.2601
G0 Z1.0
G1 F100.0 Z0.0
G1 F1000.0 X167.2885 Y139.0912
G0 Z100.0
G0 X173.3129 Y122.2447
G0 Z1.0
G1 F100.0 Z0.0
G1 F1000.0 X180.7124 Y123.0507
G1 X177.0171 Y111.7219
G0 Z100.0
G0 X160.4461 Y115.5357
G0 Z1.0
G1 F100.0 Z0.0
G1 F1000.0 X157.2517 Y104.5388
G1 X149.2418 Y103.0571
G1 X157.2517 Y104.5388
G1 X160.4461 Y115.5357
G1 X151.7814 Y120.2859
G1 X143.6233 Y119.4088
G1 X146.6015 Y131.0932
G0 Z100.0
G0 X143.6026 Y124.7665
G0 Z1.0
G1 F100.0 Z0.0
G1 F1000.0 X151.7814 Y120.2859
G1 X143.6026 Y124.7665
G1 X135.3882 Y124.079
G1 X138.0878 Y135.5204
G1 X130.072 Y139.6898
G1 X122.5066 Y143.6222
G1 X115.3561 Y147.3412
G0 Z100.0
G0 X113.5158 Y143.6281
G0 Z1.0
G1 F100.0 Z0.0
G1 F1000.0 X122.5066 Y143.6222
G0 Z100.0
G0 X121.096 Y139.5446
G0 Z1.0
G1 F100.0 Z0.0
G1 F1000.0 X111.4148 Y139.3905
G1 X100.9454 Y139.2216
G1 X111.4148 Y139.3905
G1 X100.9454 Y139.2216
G1 X108.9938 Y134.5099
G1 X100.9454 Y139.2216
G1 X103.0938 Y152.3877
G1 X113.7292 Y152.0291
G0 Z100.0
G0 X115.7235 Y155.5111
G0 Z1.0
G1 F100.0 Z0.0
G1 F1000.0 X108.3537 Y159.0997
G1 X98.5569 Y159.6894
G1 X100.4831 Y172.3161
G1 X89.741 Y173.4718
G1 X91.5753 Y187.278
G0 Z100.0
G0 X95.1432 Y188.41
G1 F100.0 Z0.0
G1 F1000.0 X93.3503 Y175.5106
G1 X82.6616 Y176.7552
G1 X93.3503 Y175.5106
G1 X100.4831 Y172.3161
G1 X102.5041 Y185.5474
G1 X110.3451 Y182.4981
G1 X108.0722 Y168.9201
G1 X105.909 Y155.9793
G1 X95.2973 Y156.483
G1 X93.4037 Y143.637
G1 X100.9454 Y139.2216
G1 X111.4148 Y139.3905
G1 X109.2071 Y127.3327
G0 Z100.0
G0 X108.9938 Y134.5099
G0 Z1.0
G1 F100.0 Z0.0
G1 F1000.0 X100.9454 Y139.2216
G1 X93.4037 Y143.637
G1 X86.3243 Y147.7797
G1 X87.9926 Y160.3235
G1 X98.5569 Y159.6894
G1 X100.4831 Y172.3161
G1 X93.3503 Y175.5106
G1 X86.6295 Y178.5184
G1 X93.3503 Y175.5106
G1 X91.6375 Y163.1802
G1 X101.4017 Y162.4867
G1 X108.3537 Y159.0997
G1 X98.5569 Y159.6894
G0 Z100.0
G0 X108.3537 Y159.0997
G0 Z1.0
G1 F100.0 Z0.0
G1 F1000.0 X115.7235 Y155.5111
G1 X118.032 Y167.9452
G0 Z100.0
G0 X110.3451 Y182.4981
G0 Z1.0
G1 F100.0 Z0.0
G1 F1000.0 X102.5041 Y185.5474
G1 X100.4831 Y172.3161
G0 Z100.0
G0 X89.741 Y173.4718
G0 Z1.0
G1 F100.0 Z0.0
G1 F1000.0 X78.0951 Y174.7283
G0 Z100.0
G0 X99.3778 Y184.1576
G0 Z1.0
G1 F100.0 Z0.0
G1 F1000.0 X101.5795 Y199.0898
G0 Z100.0
G0 X140.9148 Y147.4893
G0 Z1.0
G1 F100.0 Z0.0
G1 F1000.0 X149.7189 Y143.3377
G0 Z100.0
G0 X140.9148 Y147.4893
G0 Z1.0
G1 F100.0 Z0.0
G1 F1000.0 X138.0878 Y135.5204
G0 Z100.0
G0 X143.6233 Y119.4088
G0 Z1.0
G1 F100.0 Z0.0
G1 F1000.0 X134.8281 Y118.4635
G1 X132.0811 Y106.8946
G1 X140.7815 Y108.2459
G0 Z100.0
G0 X140.6007 Y101.4599
G0 Z1.0
G1 F100.0 Z0.0
G1 F1000.0 X132.0811 Y106.8946
G1 X140.6007 Y101.4599
G1 X149.2418 Y103.0571
G0 Z100.0
G0 X125.3158 Y117.4411
G0 Z1.0
G1 F100.0 Z0.0
G1 F1000.0 X117.0066 Y122.544
G0 Z100.0
G0 X126.9457 Y85.286
G0 Z1.0
G1 F100.0 Z0.0
G1 F1000.0 X117.789 Y83.0753
G0 Z100.0
G0 X197.393 Y74.0194
G0 Z1.0
G1 F100.0 Z0.0
G1 F1000.0 X206.8519 Y68.235
G0 Z100.0
G0 X212.5504 Y52.5797
G0 Z1.0
G1 F100.0 Z0.0
G1 F1000.0 X206.8193 Y49.2281
G0 Z100.0
G0 X218.326 Y36.7081
G0 Z1.0
G1 F100.0 Z0.0
G1 F1000.0 X223.5 Y40.4004
G0 Z100.0
G0 X212.7697 Y32.7431
G0 Z1.0
G1 F100.0 Z0.0
G1 F1000.0 X208.4521 Y23.6487
G1 X198.685 Y30.8525
G0 Z100.0
M30
