( AxiDraw CamBam Postprocessor )
( drawingpotential 8/6/2017 12:08:26 AM )
G21 G90
G0 Z100.0
( Engrave1 )
G64 G17
G0 X69.9746 Y194.1048
G1 F100.0 Z0.0
G1 F1000.0 X69.9377 Y194.0095
G1 X69.9337 Y193.9942
G1 X69.9111 Y193.8478
G1 X69.9074 Y193.7761
G1 X69.9147 Y193.5162
G1 X69.9255 Y193.3903
G1 X69.9519 Y193.095
G1 X69.9594 Y192.9807
G1 X69.9618 Y192.7779
G1 X69.9469 Y192.6312
G1 X69.9453 Y192.6224
G1 X69.921 Y192.5286
G1 X69.9125 Y192.5074
G1 X69.8766 Y192.4374
G1 X69.8242 Y192.3786
G1 X69.7587 Y192.3349
G1 X69.6843 Y192.3092
G1 X69.637 Y192.3031
G1 X69.4758 Y192.2981
G1 X69.3947 Y192.3032
G1 X69.1577 Y192.338
G1 X68.9506 Y192.3853
G1 X68.8556 Y192.4116
G1 X68.5093 Y192.5249
G1 X68.1697 Y192.657
G1 X68.1376 Y192.6706
G1 X68.0059 Y192.7267
G1 X67.5184 Y192.9507
G1 X67.4279 Y192.9947
G1 X66.8149 Y193.3086
G1 X66.757 Y193.3394
G1 X66.591 Y193.429
G1 X66.467 Y193.4969
G1 X66.2815 Y193.5999
G1 X66.189 Y193.6518
G1 X66.0967 Y193.704
G1 X65.9933 Y193.7635
G1 X65.7914 Y193.8834
G1 X65.2443 Y194.226
G1 X65.0237 Y194.371
G1 X64.6925 Y194.5914
G1 X64.5379 Y194.6956
G1 X64.2391 Y194.899
G1 X63.9599 Y195.0908
G1 X63.6987 Y195.2715
G1 X62.7215 Y195.9524
G1 X61.9882 Y196.4622
G1 X61.9537 Y196.4861
G1 X61.4098 Y196.859
G1 X60.7235 Y197.3175
G1 X60.5858 Y197.4066
G1 X60.0794 Y197.724
G1 X59.7418 Y197.9227
G0 Z100.0
G0 X57.369 Y196.0422
G1 F100.0 Z0.0
G1 F1000.0 X57.288 Y195.9964
G1 X57.2185 Y195.9343
G1 X57.2132 Y195.9284
G1 X57.1495 Y195.8376
G1 X57.1131 Y195.7633
G1 X57.0572 Y195.5897
G1 X57.0205 Y195.4109
G1 X57.0185 Y195.3969
G1 X56.9809 Y195.1497
G1 X56.9572 Y195.0097
G1 X56.9419 Y194.9355
G1 X56.9225 Y194.8573
G1 X56.8727 Y194.7156
G1 X56.859 Y194.6849
G1 X56.8054 Y194.5959
G1 X56.7358 Y194.5188
G1 X56.7316 Y194.515
G0 Z100.0
G0 X58.1673 Y191.082
G1 F100.0 Z0.0
G1 F1000.0 X58.3478 Y191.1731
G1 X58.5349 Y191.2498
G1 X58.6865 Y191.2908
G1 X58.8421 Y191.3121
G1 X58.9336 Y191.3153
G1 X59.1201 Y191.3044
G1 X59.2029 Y191.2932
G1 X59.4158 Y191.2487
G1 X59.552 Y191.2092
G1 X59.8297 Y191.1106
G1 X59.9963 Y191.0411
G1 X60.3418 Y190.8782
G1 X60.5582 Y190.7646
G1 X60.7042 Y190.6844
G1 X61.1246 Y190.4344
G1 X61.483 Y190.2022
G1 X61.534 Y190.1684
G1 X61.8042 Y189.9864
G1 X61.8759 Y189.9373
G1 X62.2564 Y189.6729
G1 X62.7598 Y189.3151
G1 X63.4267 Y188.8319
G1 X63.8063 Y188.5539
G1 X64.8168 Y187.8102
G1 X65.3947 Y187.3858
G1 X65.7035 Y187.1603
G1 X66.0336 Y186.9208
G1 X66.3869 Y186.6669
G1 X66.7656 Y186.3987
G1 X67.4381 Y185.9377
G1 X67.6426 Y185.8023
G1 X67.8732 Y185.6547
G1 X68.2234 Y185.4367
G1 X68.5751 Y185.2211
G1 X68.8106 Y185.079
G1 X69.5155 Y184.6658
G1 X69.7621 Y184.5267
G1 X70.4081 Y184.1791
G1 X70.8428 Y183.9629
G1 X71.2861 Y183.7648
G1 X71.2928 Y183.762
G1 X71.6062 Y183.6404
G1 X71.8184 Y183.57
G1 X71.8867 Y183.5501
G1 X72.1008 Y183.4984
G1 X72.1834 Y183.4839
G1 X72.1541 Y183.4367
G1 X72.1101 Y183.4029
G1 X72.0937 Y183.3956
G1 X72.0136 Y183.3772
G1 X71.9695 Y183.3756
G1 X71.8239 Y183.3902
G1 X71.7321 Y183.4101
G1 X71.4576 Y183.4931
G1 X71.2973 Y183.5516
G1 X71.176 Y183.5983
G1 X70.8578 Y183.7262
G1 X70.6767 Y183.7992
G1 X70.6299 Y183.8178
G1 X70.4157 Y183.9
G1 X70.1728 Y183.983
G1 X70.1681 Y183.9843
G1 X69.9797 Y184.0327
G1 X69.8767 Y184.0507
G1 X69.7753 Y184.0551
G1 X69.716 Y184.0484
G1 X69.6608 Y184.0319
G1 X69.6146 Y183.9974
G1 X69.5829 Y183.9493
G1 X69.5739 Y183.9225
G1 X69.4422 Y183.9374
G1 X69.1895 Y183.9867
G1 X68.9437 Y184.0547
G1 X68.8371 Y184.0886
G1 X68.4448 Y184.2321
G1 X68.0598 Y184.3942
G1 X68.0314 Y184.407
G1 X67.5178 Y184.6495
G1 X67.4448 Y184.6858
G1 X66.8454 Y184.997
G1 X66.5831 Y185.1403
G1 X66.5298 Y185.1698
G1 X66.3305 Y185.2813
G1 X65.737 Y185.6232
G1 X65.315 Y185.8784
G1 X65.2168 Y185.9394
G1 X64.5292 Y186.38
G1 X64.4511 Y186.4315
G1 X64.2849 Y186.5412
G1 X64.2046 Y186.5945
G1 X63.5744 Y187.0183
G1 X63.2998 Y187.2054
G1 X62.7862 Y187.558
G1 X60.9943 Y188.8
G1 X60.0964 Y189.4182
G1 X59.9837 Y189.4951
G1 X59.8852 Y189.5622
G1 X59.7125 Y189.6793
G1 X59.453 Y189.8542
G1 X59.1928 Y190.0281
G1 X58.9997 Y190.1575
G1 X58.9065 Y190.2207
G1 X58.1777 Y190.7257
G1 X57.5447 Y191.1746
G1 X56.9924 Y191.5699
G1 X56.0253 Y192.2612
G1 X55.661 Y192.519
G1 X55.3412 Y192.7429
G1 X55.2709 Y192.7917
G1 X54.9982 Y192.9796
G1 X54.8783 Y193.0612
G1 X54.6527 Y193.213
G1 X54.1826 Y193.5192
G1 X53.8487 Y193.7227
G1 X53.6411 Y193.841
G1 X53.4825 Y193.9249
G1 X53.3612 Y193.9838
G1 X53.2686 Y194.0244
G1 X53.1259 Y194.0763
G1 X53.0219 Y194.1005
G1 X52.9768 Y194.1048
G1 X52.8801 Y194.098
G1 X52.8792 Y194.0978
G1 X52.8191 Y194.0782
G1 X52.7682 Y194.0408
G1 X52.7384 Y194.002
G1 X52.7111 Y193.9282
G1 X52.7032 Y193.864
G1 X52.7122 Y193.7291
G1 X52.7402 Y193.5993
G1 X52.8179 Y193.3652
G1 X52.9143 Y193.1382
G1 X52.916 Y193.1345
G1 X52.9274 Y193.1098
G1 X53.1056 Y192.7549
G1 X53.1215 Y192.7254
G1 X53.2123 Y192.5603
G1 X53.2558 Y192.4835
G1 X53.5886 Y191.9269
G1 X53.9384 Y191.3808
G1 X53.9778 Y191.3215
G1 X54.0724 Y191.1789
G1 X54.1557 Y191.0546
G1 X54.3025 Y190.8378
G1 X54.5251 Y190.5141
G1 X54.6373 Y190.3529
G1 X54.6936 Y190.2725
G1 X54.7501 Y190.1921
G1 F100.0 Y190.1922
G1 F1000.0 X54.7351 Y190.1039
G1 X54.7368 Y190.0383
G1 X54.7632 Y189.8888
G1 X54.7639 Y189.8863
G1 X54.8375 Y189.6561
G1 X54.8603 Y189.5957
G1 X54.9393 Y189.4082
G1 X54.9501 Y189.3842
G1 X55.0003 Y189.2753
G1 X55.2438 Y188.7912
G1 X55.4391 Y188.4323
G1 X55.7488 Y187.8811
G1 X56.1635 Y187.149
G1 X56.4453 Y186.6347
G1 X56.6866 Y186.1583
G1 X56.7474 Y186.0271
G1 X55.8857 Y187.2354
G1 X55.7625 Y187.408
G1 X54.9735 Y188.5265
G1 X54.7873 Y188.7957
G1 X54.3314 Y189.478
G1 X54.1634 Y189.7388
G1 X54.0863 Y189.8628
G1 X53.868 Y190.2345
G1 X53.7557 Y190.4425
G1 X53.6601 Y190.6444
G1 X53.6117 Y190.7687
G1 X53.5772 Y190.8878
G1 X53.5673 Y190.9485
G1 X53.5672 Y191.0182
G1 X53.5724 Y191.0443
G1 X53.5925 Y191.0856
G1 X53.6282 Y191.1144
G1 X53.6535 Y191.1231
G1 X53.7192 Y191.1276
G1 X53.7226 Y191.1273
G1 X53.8003 Y191.1135
G1 X53.6767 Y191.4275
G1 X53.655 Y191.4775
G1 X53.5865 Y191.6355
G1 X53.4539 Y191.9303
G1 X53.2167 Y192.4471
G1 X53.1277 Y192.6444
G1 X53.0509 Y192.8194
G1 X52.9222 Y193.1317
G1 X52.8763 Y193.2538
G1 X52.8382 Y193.3634
G1 X52.7815 Y193.5537
G1 X52.7443 Y193.7487
G1 X52.7421 Y193.765
G1 X52.7385 Y193.8239
G1 X52.7463 Y193.9282
G1 X52.7651 Y193.9901
G1 X52.8019 Y194.0433
G1 X52.825 Y194.0642
G1 X52.8889 Y194.0943
G1 X52.9587 Y194.1052
G1 X52.9768 Y194.1048
G1 X53.1039 Y194.0876
G1 X53.1643 Y194.0721
G1 X53.3696 Y193.9986
G1 X53.5045 Y193.9383
G1 X53.8488 Y193.7642
G1 X54.1086 Y193.6175
G1 X54.7696 Y193.2177
G1 X55.128 Y192.991
G1 X55.5052 Y192.7481
G1 X56.1634 Y192.32
G1 X56.6576 Y191.9996
G1 X57.0297 Y191.7616
G1 X57.5929 Y191.4123
G1 X57.8781 Y191.2437
G1 X57.95 Y191.2025
G1 X58.1673 Y191.082
G1 X59.1969 Y190.5276
G1 X59.3904 Y190.4243
G1 X59.4812 Y190.3761
G1 X59.8336 Y190.1903
G1 X60.5256 Y189.8351
G1 X61.0805 Y189.5661
G1 X61.3977 Y189.4209
G1 X61.8459 Y189.2313
G1 X61.8799 Y189.2177
G1 X62.2338 Y189.0887
G1 X62.3734 Y189.0436
G1 X62.58 Y188.9881
G1 X62.7909 Y188.9522
G1 X62.8791 Y188.9432
G1 X63.0592 Y188.9397
G1 X63.2386 Y188.9562
G1 X63.2644 Y188.9602
G1 X63.4057 Y188.9901
G1 X63.5276 Y189.024
G1 X63.7387 Y189.091
G1 X63.9536 Y189.1504
G1 X64.061 Y189.1725
G1 X64.2354 Y189.1917
G1 X64.3928 Y189.1919
G0 Z100.0
G0 X64.5601 Y191.164
G1 F100.0 Z0.0
G1 F1000.0 X64.3904 Y191.2311
G1 X64.3507 Y191.2438
G1 X64.2349 Y191.2708
G1 X64.1478 Y191.2781
G1 X64.0748 Y191.2689
G1 X64.0621 Y191.2652
G1 X64.0082 Y191.2382
G1 X63.9659 Y191.195
G1 X63.949 Y191.1649
G1 X63.9249 Y191.0868
G1 X63.9199 Y191.0384
G1 X63.9243 Y190.8968
G1 X63.9391 Y190.7995
G1 X63.9856 Y190.5957
G1 X64.0829 Y190.2719
G1 X64.0917 Y190.2459
G1 X64.1784 Y189.9857
G1 X64.2109 Y189.888
G1 X64.2662 Y189.7167
G1 X64.3054 Y189.5874
G1 X64.3571 Y189.3914
G1 X64.3897 Y189.2177
G1 X64.3928 Y189.1919
G1 X64.4039 Y189.1001
G1 X64.4288 Y188.9226
G1 X64.4557 Y188.7569
G1 X64.5407 Y188.3221
G1 X64.5823 Y188.1403
G1 X64.7292 Y187.5699
G1 X64.8271 Y187.2287
G1 X65.0205 Y186.6107
G1 X65.1154 Y186.33
G1 X65.1985 Y186.0992
G1 X65.3645 Y185.6844
G1 X65.3697 Y185.6722
G1 X65.5292 Y185.3028
G1 X66.1068 Y184.0179
G1 X66.1422 Y183.9372
G1 X66.1751 Y183.8614
G1 X66.296 Y183.5762
G1 X66.4475 Y183.1928
G1 X66.4654 Y183.1435
G1 X66.5783 Y182.8028
G1 X66.6079 Y182.7013
G1 X66.7171 Y182.7845
G1 X66.8131 Y182.8826
G1 X66.8938 Y182.9937
G1 X66.9143 Y183.0283
G1 X66.9874 Y183.1753
G1 X67.042 Y183.3302
G1 X67.0435 Y183.3353
G1 X67.0931 Y183.541
G1 X67.0999 Y183.5783
G1 X67.1338 Y183.8427
G1 X67.1419 Y183.9496
G1 X67.1514 Y184.2461
G1 X67.1506 Y184.3232
G1 X67.1339 Y184.4936
G1 X67.133 Y184.4994
G1 X67.0854 Y184.7105
G1 X67.0523 Y184.8205
G1 X66.9211 Y185.2041
G1 X66.8585 Y185.3677
G1 X66.701 Y185.7775
G1 X66.586 Y186.0904
G1 X66.5072 Y186.3318
G1 X66.455 Y186.5283
G1 X66.4244 Y186.7111
G1 X66.4208 Y186.8204
G1 X66.4346 Y186.9177
G1 X66.4606 Y186.9803
G1 X66.4843 Y187.0129
G1 X66.5332 Y187.0511
G1 X66.5763 Y187.0684
G1 X66.6755 Y187.0845
G1 X66.7143 Y187.0854
G1 X66.872 Y187.0706
G1 X66.9771 Y187.0493
G1 X67.2342 Y186.9738
G1 X67.4469 Y186.8951
G1 X67.8663 Y186.7131
G1 X68.2327 Y186.5358
G1 X68.5212 Y186.3885
G1 X68.772 Y186.2565
G1 X69.6429 Y185.7815
G1 X70.5111 Y185.3014
G1 X70.4619 Y185.5137
G1 X70.4325 Y185.7297
G1 X70.4311 Y185.7454
G1 X70.425 Y185.91
G1 X70.4389 Y186.074
G1 X70.4623 Y186.1955
G1 X70.506 Y186.3268
G1 X70.5681 Y186.4505
G1 X70.5824 Y186.4736
G1 X70.673 Y186.5938
G1 X70.7787 Y186.7009
G1 X70.8618 Y186.7678
G1 X71.0393 Y186.8891
G1 X71.0538 Y186.898
G1 X71.0914 Y186.9214
G1 X71.1288 Y186.9452
G1 X71.2034 Y186.9934
G1 X71.2533 Y187.0252
G1 X71.4139 Y187.1191
G1 X71.4592 Y187.1416
G1 X71.5988 Y187.1991
G1 X71.7448 Y187.2376
G1 X71.8947 Y187.2564
G1 X71.9177 Y187.2576
G1 X72.0999 Y187.2537
G1 X72.2342 Y187.238
G1 X72.4657 Y187.1888
G1 X72.6427 Y187.137
G1 X72.9267 Y187.0335
G1 X73.1584 Y186.9327
G1 X73.4838 Y186.7673
G1 X73.7317 Y186.6257
G1 X73.8116 Y186.5782
G1 X74.0232 Y186.4491
G1 X74.3025 Y186.2728
G1 X74.4611 Y186.1704
G1 X75.4727 Y185.494
G1 X75.7142 Y185.329
G1 X76.5447 Y184.7612
G1 X77.0208 Y184.4389
G1 X77.2758 Y184.2687
G1 X77.549 Y184.089
G1 X78.1461 Y183.7119
G1 X78.1813 Y183.6903
G1 X78.5261 Y183.49
G1 X78.7964 Y183.3482
G1 X78.9056 Y183.2971
G1 X78.9548 Y183.2756
G1 X79.2279 Y183.1675
G1 X79.2687 Y183.1531
G1 X79.3755 Y183.1179
G1 X79.5777 Y183.0626
G1 X79.7843 Y183.0268
G1 X79.8147 Y183.0233
G1 X79.9568 Y183.0175
G1 X80.0982 Y183.0317
G1 X80.1152 Y183.0348
G1 X80.2165 Y183.0634
G1 X80.3105 Y183.1107
G1 X80.3939 Y183.1749
G1 X80.4627 Y183.2525
G1 X80.5256 Y183.3594
G1 X80.5696 Y183.472
G1 X80.609 Y183.637
G1 X80.624 Y183.7458
G1 X80.6222 Y183.8446
G1 X80.6194 Y183.8646
G1 X80.5948 Y183.981
G1 X80.5256 Y184.1911
G1 X80.5199 Y184.2058
G1 X80.4602 Y184.3518
G1 X80.2809 Y184.7383
G1 X80.1897 Y184.9184
G1 X79.9974 Y185.2894
G1 X79.8867 Y185.5008
G1 X79.7611 Y185.7428
G1 X79.6208 Y186.0208
G1 X79.5485 Y186.1703
G1 X79.4745 Y186.3312
G1 X79.3692 Y186.591
G1 X79.3284 Y186.7089
G1 X79.2928 Y186.853
G1 X79.283 Y186.921
G1 X79.2838 Y187.0045
G1 X79.289 Y187.0345
G1 X79.3081 Y187.0826
G1 X79.344 Y187.1199
G1 X79.3713 Y187.1346
G1 X79.4009 Y187.3097
G1 X79.407 Y187.3765
G1 X79.4118 Y187.6444
G1 X79.4052 Y187.8045
G1 X79.4033 Y187.845
G1 X79.3953 Y188.0017
G1 X79.389 Y188.1395
G1 X79.3852 Y188.2606
G1 X79.3844 Y188.367
G1 X79.3916 Y188.548
G1 X79.4186 Y188.7272
G1 X79.421 Y188.7386
G1 X79.4549 Y188.8472
G1 X79.4883 Y188.9165
G1 X79.5392 Y188.9888
G1 X79.605 Y189.0478
G1 X79.6174 Y189.0562
G1 X79.7078 Y189.1025
G1 X79.7576 Y189.1192
G1 X79.9 Y189.1472
G1 X80.0388 Y189.1555
G1 X80.2818 Y189.1441
G1 X80.2854 Y189.1438
G1 X80.3391 Y189.1382
G1 X80.4428 Y189.1252
G1 X80.7904 Y189.0674
G1 X80.8291 Y189.0597
G1 X81.4057 Y188.9448
G1 X81.5503 Y188.918
G1 X81.768 Y188.8828
G1 X81.8226 Y188.8753
G1 X81.8637 Y188.8701
G1 X81.9871 Y188.8574
G1 X82.2862 Y188.8397
G1 X82.771 Y188.8343
G1 X82.8109 Y188.8348
G1 X83.1765 Y188.8294
G1 X83.5413 Y188.8041
G1 X83.5975 Y188.7984
G1 X83.9116 Y188.7508
G1 X83.9866 Y188.7364
G1 X84.2709 Y188.6705
G1 X84.3694 Y188.6429
G1 X84.8477 Y188.5022
G1 X85.3581 Y188.3405
G1 X85.8621 Y188.1598
G1 X86.359 Y187.9604
G1 X86.4869 Y187.9056
G1 X87.0271 Y187.6583
G1 X87.5588 Y187.393
G1 X88.0485 Y187.1283
G1 X88.2442 Y187.0182
G1 X88.849 Y186.6592
G1 X88.9906 Y186.5717
G1 X89.0715 Y186.5215
G1 X89.3884 Y186.3219
G1 X89.9788 Y185.9418
G1 X90.4926 Y185.6048
G1 X92.2844 Y184.4155
G1 X92.7335 Y184.1199
G1 X93.0714 Y183.8997
G1 X93.1032 Y183.8791
G1 X93.3495 Y183.7204
G1 X93.7206 Y183.485
G1 X93.8137 Y183.4267
G1 X93.9537 Y183.3398
G1 X94.0941 Y183.2535
G1 X94.7192 Y182.8687
G1 X94.7874 Y182.8264
G1 X95.056 Y182.6596
G1 X95.5594 Y182.3465
G1 X96.0003 Y182.0731
G1 X96.3869 Y181.8352
G1 X96.5565 Y181.7317
G1 X97.3236 Y181.2735
G1 X97.8411 Y180.9773
G1 X98.2878 Y180.7357
G1 X98.5001 Y180.6287
G1 X98.6679 Y180.5476
G1 X98.7313 Y180.5181
G1 X99.0542 Y180.3808
G1 X99.1837 Y180.3317
G1 X99.4226 Y180.2562
G1 X99.651 Y180.2031
G1 X99.8281 Y180.179
G1 X100.0068 Y180.1748
G1 X100.0252 Y180.1755
G1 X100.1563 Y180.1924
G1 X100.2834 Y180.2289
G1 X100.3034 Y180.2366
G1 X100.4072 Y180.2916
G1 X100.5002 Y180.3635
G1 X100.5796 Y180.45
G1 X100.6223 Y180.5121
G1 X100.6885 Y180.6333
G1 X100.7164 Y180.7013
G1 X100.7699 Y180.8618
G1 X100.7803 Y180.9028
G1 X100.5785 Y180.9766
G1 X100.4672 Y181.0268
G1 X100.3253 Y181.0953
G1 X100.1897 Y181.1653
G1 X100.157 Y181.1827
G1 X99.9003 Y181.3246
G1 X99.6623 Y181.4627
G1 X99.6345 Y181.4791
G1 X99.4151 Y181.6107
G1 X99.0064 Y181.862
G1 X98.9619 Y181.8898
G1 X98.2612 Y182.3288
G1 X97.7339 Y182.6562
G1 X97.2296 Y182.9581
G1 X96.9297 Y183.1269
G1 X96.7229 Y183.2359
G1 X96.4812 Y183.3513
G1 X96.4044 Y183.3835
G1 X96.3223 Y183.4151
G1 X96.19 Y183.4567
G1 X96.0662 Y183.4775
G1 X95.9947 Y183.4731
G1 X95.9676 Y183.466
G1 X95.9204 Y183.4364
G1 X95.8867 Y183.3921
G1 X95.8709 Y183.3388
G1 X95.8707 Y183.3369
G1 X95.8649 Y183.2435
G1 X95.8695 Y183.1974
G1 X95.9024 Y183.0256
G1 X95.9255 Y182.9436
G1 X95.9598 Y182.8348
G1 X95.9684 Y182.8093
G1 X96.0034 Y182.7097
G1 X96.0733 Y182.5239
G1 X96.137 Y182.361
G1 X96.2495 Y182.0731
G1 X96.3309 Y181.8493
G1 X96.3915 Y181.6542
G1 X96.4268 Y181.4905
G1 X96.4356 Y181.3825
G1 X96.4259 Y181.2985
G1 X96.4054 Y181.2475
G1 X96.3679 Y181.2072
G1 X96.3517 Y181.1966
G1 X96.288 Y181.1775
G1 X96.2272 Y181.1773
G1 X96.1329 Y181.3424
G1 X95.9456 Y181.6595
G1 X95.8562 Y181.8072
G1 X95.6807 Y182.092
G1 X95.3464 Y182.6227
G1 X95.3095 Y182.6807
G1 X94.7264 Y183.5906
G1 X94.617 Y183.7614
G1 X94.5147 Y183.9217
G1 X94.4669 Y183.997
G1 X94.2824 Y184.289
G1 X94.2022 Y184.4171
G1 X93.8206 Y185.044
G1 X93.6201 Y185.3897
G1 X93.4304 Y185.7408
G1 X93.3555 Y185.892
G1 X93.2397 Y186.1516
G1 X93.1723 Y186.3431
G1 X93.1507 Y186.4215
G1 X93.1081 Y186.399
G1 X93.0831 Y186.3697
G1 X93.0632 Y186.3127
G1 X93.0614 Y186.2989
G1 X93.0644 Y186.2005
G1 X93.0719 Y186.1582
G1 X93.1216 Y185.984
G1 X93.1532 Y185.9003
G1 X93.2909 Y185.5941
G1 X93.3674 Y185.4426
G1 X93.6484 Y184.9298
G1 X93.7989 Y184.6712
G1 X93.8409 Y184.5996
G1 X94.1686 Y184.0472
G1 X94.1995 Y183.9954
G1 X94.4368 Y183.5934
G1 X94.4478 Y183.5744
G1 X94.6198 Y183.2757
G1 X94.6515 Y183.2193
G1 X94.7686 Y183.0071
G1 X94.7901 Y182.967
G1 X94.8102 Y182.9294
G1 X94.9567 Y182.6403
G1 X95.0818 Y182.3511
G1 X95.2063 Y182.0153
G1 X95.3117 Y181.7199
G1 X95.4645 Y181.2617
G1 X95.5982 Y180.7975
G1 X95.6315 Y180.6691
G1 X95.6625 Y180.5345
G1 X95.7147 Y180.2543
G1 X95.7394 Y180.0574
G1 X95.7442 Y179.9969
G1 X95.7487 Y179.891
G1 X95.7442 Y179.7255
G1 X95.7223 Y179.5744
G1 X95.693 Y179.4846
G1 X95.6454 Y179.4029
G1 X95.6284 Y179.3812
G1 X95.5568 Y179.3136
G1 X95.486 Y179.2685
G1 X95.4151 Y179.2345
G1 X95.2501 Y179.1798
G1 X95.1323 Y179.1532
G1 X95.0779 Y179.1422
G1 X94.8733 Y179.1034
G1 X94.7199 Y179.0694
G1 X94.5857 Y179.0286
G1 X94.4974 Y178.9897
G1 X94.4128 Y178.938
G1 X94.3402 Y178.8704
G1 X94.315 Y178.8392
G1 X94.2536 Y178.7707
G1 X94.2138 Y178.7392
G1 X94.079 Y178.6621
G1 X93.9731 Y178.6163
G1 X93.8597 Y178.5676
G1 X93.7513 Y178.5109
G1 X93.6634 Y178.4459
G1 X93.6068 Y178.3816
G1 X93.5667 Y178.3061
G1 X93.5583 Y178.282
G1 X93.539 Y178.1853
G1 X93.5371 Y178.1188
G1 X93.5524 Y177.9768
G1 X93.5874 Y177.8386
G1 X93.6632 Y177.6275
G1 X93.7473 Y177.444
G1 X93.795 Y177.3488
G1 X93.949 Y177.069
G1 X93.5154 Y177.3098
G1 X93.0838 Y177.554
G1 X92.7967 Y177.7181
G1 X91.6501 Y178.377
G1 X91.497 Y178.4645
G1 X91.1465 Y178.6634
G1 X90.9591 Y178.7688
G1 X90.5292 Y179.0068
G1 X90.2988 Y179.1316
G1 X90.052 Y179.2627
G1 X89.7871 Y179.3996
G1 X89.7536 Y179.4166
G1 X89.2527 Y179.659
G1 X89.1339 Y179.7132
G1 X88.7109 Y179.902
G1 X88.2864 Y180.0871
G1 X87.7702 Y180.2994
G1 X87.4255 Y180.4293
G1 X87.1134 Y180.5318
G1 X86.8336 Y180.6063
G1 X86.6287 Y180.644
G1 X86.4835 Y180.6586
G1 X86.3296 Y180.655
G1 X86.2936 Y180.6513
G1 X86.1986 Y180.6292
G1 X86.1102 Y180.5881
G1 X86.0985 Y180.5809
G1 X86.0454 Y180.5318
G1 X86.0161 Y180.4874
G1 X85.9834 Y180.399
G1 X85.9769 Y180.3692
G1 X85.9659 Y180.2328
G1 X85.9714 Y180.1249
G1 X86.0078 Y179.8871
G1 X86.0618 Y179.6602
G1 X86.1482 Y179.3599
G1 X86.1729 Y179.2803
G1 X86.2302 Y179.0999
G1 X86.3827 Y178.6226
G1 X86.4749 Y178.3078
G1 X86.5477 Y177.988
G1 X86.5493 Y177.9795
G1 X86.5529 Y177.9588
G1 X86.6096 Y177.7078
G1 X86.6831 Y177.4611
G1 X86.7371 Y177.2982
G1 X86.8124 Y177.0823
G1 X86.8563 Y176.9591
G1 X86.9066 Y176.8184
G1 X87.0366 Y176.4421
G1 X87.1211 Y176.1653
G1 X87.1769 Y175.9299
G1 X87.1988 Y175.7781
G1 X87.2008 Y175.6261
G1 X87.1852 Y175.5405
G1 X87.1538 Y175.4666
G1 X87.1097 Y175.4156
G1 X87.0526 Y175.3799
G1 X86.9875 Y175.3625
G1 X86.982 Y175.362
G1 X86.8458 Y175.3574
G1 X86.7105 Y175.3728
G1 X86.6806 Y175.379
G1 X86.5821 Y175.4008
G1 X86.5262 Y175.4154
G1 X86.2603 Y175.5013
G1 X86.0929 Y175.5664
G1 X85.8127 Y175.6877
G1 X85.3066 Y175.9351
G1 X84.8096 Y176.2003
G1 X84.7333 Y176.2431
G1 X84.4315 Y176.4136
G1 X84.0892 Y176.6122
G1 X83.7006 Y176.8429
G1 X83.259 Y177.1103
G1 X82.757 Y177.4193
G0 Z100.0
G0 X85.0825 Y177.2899
G1 F100.0 Z0.0
G1 F1000.0 X85.2784 Y177.237
G1 X85.4786 Y177.2035
G1 X85.6193 Y177.192
G1 X85.8008 Y177.1973
G1 X85.9806 Y177.2225
G1 X86.026 Y177.2321
G1 X86.1009 Y177.2495
G1 X86.3801 Y177.3209
G1 X86.559 Y177.3545
G1 X86.7405 Y177.3682
G1 X86.9224 Y177.362
G1 X87.1025 Y177.3358
G1 X87.2376 Y177.3025
G1 X87.6304 Y177.2137
G1 X87.7331 Y177.1938
G1 X88.169 Y177.1066
G1 X88.3582 Y177.0613
G1 X88.6593 Y176.9739
G1 X88.9542 Y176.8676
G1 X89.0485 Y176.829
G1 X89.2984 Y176.719
G1 X89.6919 Y176.5225
G1 X90.0761 Y176.3084
G1 X90.1411 Y176.2698
G1 X90.6488 Y175.9559
G1 X90.9483 Y175.7596
G0 Z100.0
G0 X92.0085 Y176.7819
G1 F100.0 Z0.0
G1 F1000.0 X91.8601 Y176.787
G1 X91.8091 Y176.7934
G1 X91.5739 Y176.8353
G1 X91.4433 Y176.8675
G1 X91.0618 Y176.9805
G1 X90.8211 Y177.0627
G1 X90.5907 Y177.1449
G1 X90.1889 Y177.2922
G1 X90.0381 Y177.3474
G1 X90.0051 Y177.3594
G1 X89.973 Y177.371
G1 X89.7246 Y177.4594
G1 X89.6311 Y177.4915
G1 X89.3016 Y177.5975
G1 X88.9667 Y177.6843
G1 X88.8177 Y177.716
G1 X88.538 Y177.7731
G1 X88.0464 Y177.8629
G1 X87.6211 Y177.9246
G1 X87.3027 Y177.9576
G1 X87.2558 Y177.9612
G1 X87.0802 Y177.9712
G1 X86.8066 Y177.9741
G1 X86.5529 Y177.9588
G1 X86.3906 Y177.9321
G1 X86.2328 Y177.8858
G1 X86.1582 Y177.8564
G1 X85.9932 Y177.7749
G1 X85.89 Y177.7118
G1 X85.7941 Y177.6493
G1 X85.7109 Y177.5935
G1 X85.5131 Y177.4672
G1 X85.4115 Y177.4111
G1 X85.2641 Y177.3443
G1 X85.1095 Y177.2962
G1 X85.0825 Y177.2899
G1 X84.7397 Y177.2188
G1 X84.3935 Y177.1674
G1 X84.0782 Y177.1379
G1 X83.7419 Y177.1283
G1 X83.4056 Y177.1387
G1 X83.0706 Y177.1691
G1 X83.063 Y177.17
G1 X82.92 Y177.1961
G1 X82.8819 Y177.2066
G1 X82.7164 Y177.2576
G1 X82.6971 Y177.2642
G1 X82.3316 Y177.4068
G1 X82.1002 Y177.5085
G1 X81.8769 Y177.6094
G1 X81.4834 Y177.7879
G1 X81.3313 Y177.8549
G1 X81.0244 Y177.9814
G1 X80.7812 Y178.0668
G1 X80.6987 Y178.0906
G1 X80.5469 Y178.1229
G1 X80.4343 Y178.1311
G1 X80.4229 Y178.1309
G1 X80.3471 Y178.1194
G1 X80.3278 Y178.1131
G1 X80.2796 Y178.0853
G1 X80.2442 Y178.0423
G1 X80.2306 Y178.0094
G1 X80.2211 Y177.9261
G1 X80.2264 Y177.8673
G1 X80.6206 Y177.6885
G1 X81.0061 Y177.4916
G1 X81.0214 Y177.4833
G1 X81.191 Y177.3911
G1 X81.5166 Y177.2071
G1 X81.5924 Y177.1631
G1 X82.3205 Y176.7214
G1 X82.7671 Y176.4387
G1 X83.7363 Y175.7973
G1 X84.4857 Y175.2848
G1 X85.6547 Y174.4612
G1 X86.1742 Y174.0872
G0 Z100.0
G0 X86.982 Y175.362
G0 Z1.0
G1 F100.0 Z0.0
G1 F1000.0 X87.6181 Y175.0263
G1 X87.6654 Y175.0022
G1 X87.8962 Y174.8879
G1 X88.2063 Y174.7408
G1 X88.3851 Y174.6599
G1 X88.5907 Y174.5707
G1 X88.9815 Y174.4139
G1 X89.1479 Y174.3536
G1 X89.4516 Y174.2536
G1 X89.4728 Y174.2474
G1 X89.8207 Y174.1559
G1 X89.851 Y174.149
G1 X90.0962 Y174.1032
G1 X90.2932 Y174.081
G1 X90.4087 Y174.0746
G1 X90.4485 Y174.1221
G1 X90.4711 Y174.1798
G1 X90.4731 Y174.1906
G1 X90.4806 Y174.2903
G1 X90.4796 Y174.3121
G1 X90.4565 Y174.4669
G1 X90.4381 Y174.5412
G1 X90.3722 Y174.7484
G1 X90.2517 Y175.0509
G1 X90.2186 Y175.1255
G1 X89.9772 Y175.6342
G1 X89.9103 Y175.7675
G1 X89.789 Y176.0055
G1 X89.3617 Y176.837
G1 X89.2574 Y177.0462
G1 X89.2189 Y177.125
G1 X89.0882 Y177.4026
G1 X88.9667 Y177.6843
G0 Z100.0
G0 X90.3109 Y178.4479
G1 F100.0 Z0.0
G1 F1000.0 X90.2248 Y178.7724
G1 X90.1582 Y179.1015
G1 X90.1506 Y179.1469
G1 X90.1138 Y179.3833
G1 X90.0657 Y179.6984
G1 X90.0516 Y179.7823
G1 X90.0154 Y179.9733
G1 X89.9935 Y180.0746
G1 X89.9679 Y180.1822
G1 X89.9004 Y180.4258
G1 X89.7935 Y180.7418
G1 X89.6678 Y181.0509
G1 X89.6648 Y181.0576
G1 X89.5909 Y181.2216
G1 X89.5513 Y181.3056
G1 X89.5094 Y181.3919
G1 X89.1383 Y181.5485
G1 X88.76 Y181.6865
G1 X88.3752 Y181.8055
G1 X87.985 Y181.9054
G1 X87.894 Y181.9257
G1 X87.4612 Y182.008
G1 X87.3352 Y182.0282
G1 X86.5876 Y182.146
G1 X86.3145 Y182.1845
G1 X86.0394 Y182.2032
G1 X86.0165 Y182.2038
G1 X85.5847 Y182.2057
G1 X85.4427 Y182.2019
G1 X85.2788 Y182.1999
G1 X84.9502 Y182.207
G1 X84.8419 Y182.2138
G1 X84.5663 Y182.2441
G1 X84.2936 Y182.2942
G1 X84.2652 Y182.3006
G1 X83.9704 Y182.3768
G1 X83.9537 Y182.3818
G1 X83.9096 Y182.3949
G1 X83.5649 Y182.5073
G1 X83.5599 Y182.5091
G1 X83.3289 Y182.5915
G1 X83.1975 Y182.64
G1 X82.848 Y182.7724
G1 X82.3831 Y182.9508
G1 X82.3229 Y182.9736
G1 X82.1946 Y183.0218
G1 X81.7247 Y183.1893
G1 X81.5037 Y183.2608
G1 X81.4133 Y183.2879
G1 X81.2189 Y183.3405
G1 X81.0089 Y183.386
G1 X80.7362 Y183.428
G1 X80.4611 Y183.4501
G1 X80.1851 Y183.4522
G1 X79.9928 Y183.4418
G1 X79.7137 Y183.4105
G1 X79.6552 Y183.4014
G1 X79.2248 Y183.3248
G1 X79.2093 Y183.3217
G1 X78.9548 Y183.2756
G1 X78.8715 Y183.2525
G1 X78.7957 Y183.2109
G1 X78.7429 Y183.1653
G1 X78.6699 Y183.0675
G1 X78.6156 Y182.9632
G1 X78.5518 Y182.8187
G1 X78.4944 Y182.7039
G1 X78.4499 Y182.6375
G1 X78.3918 Y182.5743
G1 X78.3206 Y182.5262
G1 X78.2402 Y182.4959
G1 X78.2119 Y182.49
G1 X78.1044 Y182.4822
G1 X78.046 Y182.4863
G1 X77.8888 Y182.5163
G1 X77.8609 Y182.5238
G1 X77.6445 Y182.6001
G1 X77.4355 Y182.6949
G1 X77.41 Y182.708
G1 X77.2951 Y182.7676
G0 Z100.0
G0 X75.7868 Y184.3327
G1 F100.0 Z0.0
G1 F1000.0 X75.7039 Y184.3756
G1 X75.6211 Y184.419
G1 X75.4562 Y184.5069
G1 X75.1284 Y184.6863
G1 X75.1073 Y184.698
G1 X74.4359 Y185.0782
G1 X73.0996 Y185.8491
G1 X72.9208 Y185.9509
G1 X72.7296 Y186.0587
G1 X72.5251 Y186.1726
G1 X72.0544 Y186.4269
G1 X71.932 Y186.4908
G1 X71.6689 Y186.6235
G1 X71.2999 Y186.7953
G1 X71.0538 Y186.898
G0 Z100.0
G0 X72.3064 Y187.6963
G1 F100.0 Z0.0
G1 F1000.0 X72.3001 Y187.9923
G1 X72.2794 Y188.2875
G1 X72.2611 Y188.484
G1 X72.2497 Y188.5962
G1 X72.2185 Y188.8951
G1 X72.2103 Y188.975
G1 X72.1741 Y189.401
G1 X72.1629 Y189.6943
G1 X72.1708 Y189.9713
G0 Z100.0
G0 X71.12 Y188.8543
G1 F100.0 Z0.0
G1 F1000.0 X71.0842 Y189.1172
G1 X71.0605 Y189.363
G1 X71.0565 Y189.6009
G1 X71.0717 Y189.747
G1 X71.0806 Y189.7925
G1 X71.1141 Y189.8977
G1 X71.1401 Y189.9517
G1 X71.1897 Y190.0203
G1 X71.2539 Y190.0752
G1 X71.3293 Y190.1135
G1 X71.3669 Y190.125
G1 X71.4781 Y190.1419
G1 X71.5745 Y190.1406
G1 X71.7447 Y190.1143
G1 X71.8791 Y190.0789
G1 X72.1087 Y189.9971
G1 X72.1708 Y189.9713
G1 X72.4504 Y189.8394
G1 X72.6084 Y189.7549
G1 X72.6585 Y189.7273
G1 X73.1405 Y189.4439
G1 X73.4353 Y189.2589
G1 X73.5189 Y189.2053
G1 X74.1383 Y188.7969
G1 X74.1707 Y188.7749
G1 X74.735 Y188.3894
G1 X74.858 Y188.3043
G1 X75.0959 Y188.1389
G1 X75.9846 Y187.5145
G1 X76.3173 Y187.2794
G1 X76.6084 Y187.0737
G1 X76.6721 Y187.0287
G1 X76.7338 Y186.9851
G1 X76.973 Y186.8164
G1 X78.0295 Y186.079
G1 X78.6582 Y185.6516
G1 X79.0703 Y185.371
G1 X80.1007 Y184.6423
G1 X80.5927 Y184.2856
G1 X81.727 Y183.46
G1 X81.94 Y183.3054
G1 X82.1399 Y183.1607
G1 X82.3276 Y183.0254
G1 X83.1651 Y182.431
G1 X83.7496 Y182.0305
G1 X83.9309 Y181.9104
G1 X84.0907 Y181.8068
G1 X84.517 Y181.545
G1 X84.6609 Y181.4618
G1 X84.9231 Y181.3259
G1 X84.9583 Y181.3094
G1 X85.0351 Y181.2758
G1 X85.0934 Y181.2527
G1 X85.2189 Y181.2135
G1 X85.2749 Y181.2025
G0 Z100.0
G0 X86.0985 Y180.581
G1 F100.0 Z0.0
G1 F1000.0 X86.1021 Y180.438
G1 X86.1121 Y180.3622
G1 X86.131 Y180.2618
G1 X86.18 Y180.0701
G1 X86.2355 Y179.8934
G1 X86.2931 Y179.7295
G1 X86.3505 Y179.5772
G1 X86.464 Y179.2938
G1 X86.5673 Y179.0474
G1 X86.6592 Y178.8324
G1 X86.8201 Y178.4563
G1 X86.9382 Y178.1729
G1 X87.0234 Y177.9589
G1 X87.0843 Y177.7973
G1 X87.1776 Y177.523
G1 X87.2376 Y177.3025
G0 Z100.0
G0 X86.8053 Y179.7889
G1 F100.0 Z0.0
G1 F1000.0 X86.7748 Y179.9896
G1 X86.7644 Y180.1671
G1 X86.7765 Y180.3934
G1 X86.7961 Y180.5461
G1 X86.8335 Y180.7967
G1 X86.8515 Y181.0137
G1 X86.8529 Y181.1336
G1 X86.8376 Y181.3292
G1 X86.8025 Y181.5222
G1 X86.7881 Y181.5795
G1 X86.7085 Y181.8405
G1 X86.6099 Y182.095
G1 X86.5876 Y182.146
G1 X86.4386 Y182.453
G1 X86.386 Y182.5515
G1 X86.1624 Y182.9453
G1 X86.0068 Y183.204
G1 X85.4382 Y184.1034
G1 X85.3606 Y184.2233
G1 X84.9217 Y184.8974
G1 X84.3414 Y185.7992
G1 X84.1899 Y186.0418
G1 X84.1126 Y186.1675
G1 X83.8532 Y186.6045
G1 X83.7719 Y186.75
G1 X83.6892 Y186.9033
G1 X83.6485 Y186.9819
G1 X83.5144 Y187.2692
G1 X83.4907 Y187.3252
G1 X83.4575 Y187.4154
G1 X83.4058 Y187.5871
G1 X83.3834 Y187.6968
G1 X83.3685 Y187.8237
G1 X83.3735 Y187.9513
G1 X83.3787 Y187.9877
G1 X83.4052 Y188.0813
G1 X83.4503 Y188.1675
G1 X83.4518 Y188.1696
G1 X83.5218 Y188.2493
G1 X83.6057 Y188.3145
G1 X83.6533 Y188.3416
G1 X83.7915 Y188.4042
G1 X83.9529 Y188.461
G1 X84.0388 Y188.4896
G1 X84.1291 Y188.5217
G1 X84.175 Y188.5395
G1 X84.2945 Y188.5955
G1 X84.3694 Y188.6429
G1 X84.4627 Y188.6967
G1 X84.5388 Y188.7253
G1 X84.6893 Y188.763
G1 X84.7222 Y188.7685
G1 X85.0005 Y188.8012
G1 X85.0946 Y188.8077
G1 X85.3425 Y188.8313
G1 X85.502 Y188.8572
G1 X85.6571 Y188.9026
G1 X85.6658 Y188.9058
G1 X85.7576 Y188.9518
G1 X85.8294 Y189.0061
G1 X85.8871 Y189.074
G1 X85.9281 Y189.1531
G1 X85.9439 Y189.2045
G1 X85.7204 Y189.277
G1 X85.4915 Y189.3302
G1 X85.4108 Y189.3441
G1 X85.1975 Y189.3634
G1 X84.9834 Y189.3627
G1 X84.86 Y189.3531
G1 X84.7031 Y189.3376
G1 X84.5238 Y189.3219
G1 X84.428 Y189.3171
G1 X84.3257 Y189.3163
G1 X84.1211 Y189.3295
G1 X83.9187 Y189.3625
G1 X83.786 Y189.3954
G1 X83.5667 Y189.4627
G1 X83.489 Y189.4917
G0 Z100.0
G0 X83.4575 Y187.4154
G0 Z1.0
G1 F100.0 Z0.0
G1 F1000.0 X83.3829 Y187.3678
G1 X83.3209 Y187.3047
G1 X83.2775 Y187.2351
G1 X83.2326 Y187.1194
G1 X83.2069 Y186.9979
G1 X83.206 Y186.9906
G1 X83.1921 Y186.8224
G1 X83.1941 Y186.6001
G1 X83.2012 Y186.4739
G1 X83.2283 Y186.1426
G1 X83.2524 Y185.7902
G1 X83.2552 Y185.7054
G1 X83.249 Y185.4916
G1 X83.246 Y185.456
G1 X83.2363 Y185.2157
G1 X83.2414 Y185.0466
G1 X83.2695 Y184.6382
G1 X83.2868 Y184.3658
G1 X83.2896 Y184.2931
G1 X83.2891 Y184.0803
G1 X83.2737 Y183.9052
G1 X83.2475 Y183.7772
G1 X83.217 Y183.6893
G1 X83.1733 Y183.6054
G1 X83.1129 Y183.5325
G1 X83.0536 Y183.4839
G1 X82.9756 Y183.4485
G1 X82.9231 Y183.4359
G1 X82.7968 Y183.4265
G1 X82.7843 Y183.4267
G1 X82.6921 Y183.4323
G1 X82.5703 Y183.4483
G1 X82.2596 Y183.5154
G1 X82.0983 Y183.5584
G1 X81.7889 Y183.6465
G1 X81.6123 Y183.6964
G1 X81.4098 Y183.7499
G1 X81.3012 Y183.7755
G1 X81.1845 Y183.7992
G1 X81.0114 Y183.824
G1 X80.9139 Y183.8291
G1 X80.8 Y183.8219
G1 X80.7684 Y183.8162
G1 X80.6957 Y183.7933
G1 X80.6314 Y183.7523
G1 X80.624 Y183.7458
G1 X80.5872 Y183.6955
G1 X80.5725 Y183.6568
G1 X80.5585 Y183.5642
G1 X80.5582 Y183.555
G1 X80.5695 Y183.4051
G1 X80.578 Y183.3542
G1 X80.6415 Y183.1002
G1 X80.681 Y182.9737
G1 X80.7653 Y182.7267
G1 X80.8813 Y182.4008
G1 X80.9991 Y182.0388
G1 X81.021 Y181.9635
G1 X81.0356 Y181.9061
G1 X81.0669 Y181.7523
G1 X81.0773 Y181.6384
G1 X81.0724 Y181.5471
G1 X81.0597 Y181.4931
G1 X81.0342 Y181.4405
G1 X80.9924 Y181.3996
G1 X80.9392 Y181.3751
G1 X80.9348 Y181.374
G1 X80.8574 Y181.3652
G1 X80.8322 Y181.3666
G1 X80.7961 Y181.3177
G1 X80.746 Y181.283
G1 X80.7303 Y181.2765
G1 X80.6481 Y181.2569
G1 X80.6109 Y181.2546
G1 X80.4793 Y181.2624
G1 X80.3818 Y181.2814
G1 X80.1748 Y181.3395
G1 X80.1272 Y181.3556
G1 X79.9417 Y181.425
G1 X79.5548 Y181.5929
G1 X79.2662 Y181.7328
G1 X78.7708 Y181.9863
G1 X78.6784 Y182.0349
G1 X78.6351 Y182.0578
G1 X77.9662 Y182.4148
G1 X77.2951 Y182.7676
G1 X76.7315 Y183.0717
G1 X76.6318 Y183.1279
G1 X76.346 Y183.2933
G1 X76.0796 Y183.451
G1 X75.5831 Y183.7515
G1 X73.8546 Y184.8187
G1 X73.6377 Y184.9508
G1 X73.5426 Y185.0084
G1 X73.1849 Y185.2221
G1 X72.6525 Y185.5292
G1 X72.1103 Y185.8188
G1 X72.0919 Y185.8283
G1 X72.1489 Y185.812
G1 X72.2823 Y185.7852
G1 X72.3767 Y185.7782
G1 X72.4665 Y185.7857
G1 X72.5524 Y185.8128
G1 X72.5695 Y185.8208
G1 X72.635 Y185.8677
G1 X72.6868 Y185.9292
G1 X72.6894 Y185.9332
G1 X72.7383 Y186.0297
G1 X72.7496 Y186.061
G1 X72.7962 Y186.2479
G1 X72.8059 Y186.3019
G1 X72.8387 Y186.488
G1 X72.8539 Y186.5584
G1 X72.87 Y186.6198
G1 X72.9055 Y186.7187
G1 X72.9592 Y186.809
G1 X72.9671 Y186.8196
G1 X73.0254 Y186.875
G1 X73.0955 Y186.9143
G1 X73.1584 Y186.9327
G0 Z100.0
G0 X71.1674 Y188.7785
G1 F100.0 Z0.0
G1 F1000.0 X71.134 Y188.853
G1 X71.1001 Y188.9272
G1 X71.0903 Y188.9485
G1 X71.0112 Y189.1174
G1 X70.8486 Y189.453
G1 X70.7379 Y189.6757
G1 X70.6742 Y189.8027
G1 X70.1632 Y190.8181
G1 X70.0213 Y191.1102
G1 X70.0035 Y191.1475
G1 X69.9287 Y191.3068
G1 X69.7652 Y191.6744
G1 X69.7455 Y191.7215
G1 X69.7257 Y191.7696
G1 X69.6076 Y192.0852
G1 X69.5648 Y192.2162
G1 X69.5323 Y192.3345
G1 X69.4984 Y192.505
G1 X69.4887 Y192.5934
G0 Z100.0
G0 X69.637 Y192.3031
G0 Z1.0
G1 F100.0 Z0.0
G1 F1000.0 X69.6417 Y192.4483
G1 X69.6322 Y192.5556
G1 X69.5871 Y192.7839
G1 X69.5225 Y193.0074
G1 X69.5209 Y193.0121
G1 X69.4538 Y193.206
G1 X69.3851 Y193.3856
G1 X69.1844 Y193.8559
G1 X69.097 Y194.0461
G1 X69.0394 Y194.1684
G1 X68.9296 Y194.3967
G1 X68.733 Y194.7941
G1 X68.4318 Y195.387
G1 X68.1288 Y195.9791
G0 Z100.0
G0 X66.2608 Y195.7645
G1 F100.0 Z0.0
G1 F1000.0 X66.1946 Y195.7195
G1 X66.1456 Y195.6653
G1 X66.1001 Y195.5839
G1 X66.0851 Y195.5432
G1 X66.0566 Y195.4142
G1 X66.048 Y195.2948
G1 X66.0563 Y195.0764
G1 X66.0663 Y194.9815
G1 X66.1214 Y194.6358
G1 X66.1229 Y194.6279
G1 X66.2285 Y194.1015
G1 X66.2909 Y193.7476
G1 X66.3144 Y193.5715
G0 Z100.0
G0 X71.7259 Y194.6065
G1 F100.0 Z0.0
G1 F1000.0 X71.9757 Y194.5453
G1 X72.1271 Y194.498
G1 X72.2583 Y194.4532
G1 X72.3328 Y194.4263
G1 X72.7778 Y194.2522
G1 X72.9207 Y194.1917
G1 X73.3082 Y194.025
G1 X73.824 Y193.8009
G1 X73.9619 Y193.7421
G1 X74.4121 Y193.5589
G1 X74.7064 Y193.4507
G1 X74.9771 Y193.3672
G1 X75.1463 Y193.3254
G1 X75.386 Y193.283
G1 X75.6284 Y193.2605
G1 X75.8719 Y193.258
G1 X76.1147 Y193.2754
G1 X76.1859 Y193.2843
G1 X76.4444 Y193.3303
G1 X76.5281 Y193.3496
G1 X76.6185 Y193.3711
G1 X76.8244 Y193.4221
G1 X76.8776 Y193.4351
G1 X77.1215 Y193.4895
G1 X77.4081 Y193.5308
G1 X77.6963 Y193.5587
G1 X77.8882 Y193.579
G1 X77.9976 Y193.5938
G1 X78.1219 Y193.6156
G1 X78.2715 Y193.6523
G1 X78.4152 Y193.7081
G1 X78.4419 Y193.721
G1 X78.5396 Y193.7829
G1 X78.6001 Y193.835
G1 X78.6645 Y193.9145
G1 X78.7122 Y194.0051
G1 X78.7213 Y194.0291
G1 X79.0105 Y193.9937
G1 X79.3015 Y193.9783
G1 X79.5929 Y193.9829
G1 X79.7381 Y193.9927
G1 X80.0314 Y194.0286
G1 X80.2419 Y194.0669
G1 X80.6229 Y194.1535
G1 X80.7375 Y194.1837
G0 Z100.0
G0 X81.1288 Y196.1021
G1 F100.0 Z0.0
G1 F1000.0 X80.8166 Y196.3015
G1 X80.5033 Y196.499
G1 X80.2937 Y196.6295
G1 X80.0132 Y196.8019
G1 X79.6373 Y197.0287
G1 X79.0008 Y197.4
G1 X78.3544 Y197.7539
G1 X78.1043 Y197.8848
G1 X77.6541 Y198.1064
G1 X77.21 Y198.3041
G1 X77.1291 Y198.3378
G1 X76.8085 Y198.4592
G1 X76.5094 Y198.5538
G0 Z100.0
G0 X80.056 Y199.2859
G1 F100.0 Z0.0
G1 F1000.0 X80.0608 Y199.3476
G1 X80.0572 Y199.3715
G1 X80.0355 Y199.4545
G1 X79.9707 Y199.6114
G1 X79.9495 Y199.6551
G1 X79.9244 Y199.7044
G1 X79.8541 Y199.8336
G1 X79.8123 Y199.9064
G1 X79.697 Y200.0976
G1 X79.6654 Y200.1481
G1 X79.494 Y200.4143
G1 X78.9212 Y201.2537
G1 X78.781 Y201.4539
G1 X78.2995 Y202.1416
G1 X78.0271 Y202.5363
G1 X77.7228 Y202.992
G1 X77.4967 Y203.3541
G1 X77.3969 Y203.5268
G1 X77.3013 Y203.7122
G1 X77.2522 Y203.8284
G1 X77.2237 Y203.9197
G1 X77.2149 Y203.9988
G1 X77.2218 Y204.0367
G1 X77.2468 Y204.066
G1 X77.2813 Y204.0787
G1 X77.3481 Y204.0744
G1 X77.3527 Y204.0733
G1 X77.4339 Y204.0473
G1 X77.5346 Y204.0298
G1 X77.5657 Y204.0202
G1 X77.7484 Y203.9466
G1 X77.8076 Y203.918
G1 X78.1163 Y203.7486
G1 X78.2493 Y203.6684
G1 X78.742 Y203.3503
G1 X79.0423 Y203.1445
G1 X79.2128 Y203.0255
G1 X79.5412 Y202.7923
G1 X79.8474 Y202.5713
G1 X80.4183 Y202.1527
G1 X81.4123 Y201.4131
G1 X82.157 Y200.8571
G1 X82.7167 Y200.4418
G1 X82.822 Y200.3643
G1 X83.2173 Y200.0748
G1 X83.2917 Y200.0207
G1 X83.5712 Y199.8192
G1 X84.1617 Y199.4033
G1 X84.4198 Y199.2291
G1 X84.2652 Y199.2418
G1 X84.2063 Y199.2414
G1 X84.0741 Y199.2311
G1 X83.9449 Y199.2011
G1 X83.8423 Y199.1617
G1 X83.7389 Y199.1015
G1 X83.647 Y199.0248
G1 X83.6202 Y198.9969
G1 X83.5287 Y198.8823
G1 X83.4961 Y198.8323
G1 X83.4005 Y198.6563
G1 X83.3563 Y198.5573
G1 X83.2366 Y198.273
G0 Z100.0
G0 X85.114 Y196.3388
G1 F100.0 Z0.0
G1 F1000.0 X85.0869 Y196.272
G1 X85.0827 Y196.2525
G1 X85.0755 Y196.1611
G1 X85.0895 Y196.0138
G1 X85.0955 Y195.9805
G1 X85.1532 Y195.7463
G1 X85.1883 Y195.634
G1 X85.2032 Y195.5885
G1 X85.2385 Y195.4852
G1 X85.3372 Y195.2129
G1 X85.3503 Y195.1779
G1 X85.4099 Y195.0182
G1 X85.477 Y194.8355
G1 X85.5798 Y194.5332
G1 X85.634 Y194.3425
G1 X85.666 Y194.1879
G1 X85.6778 Y194.0494
G1 X85.6716 Y193.9667
G1 X85.6474 Y193.8912
G1 X85.6135 Y193.8441
G1 X85.5895 Y193.8246
G1 X85.5318 Y193.7988
G1 X85.4927 Y193.7924
G1 X85.068 Y194.0462
G1 X85.0285 Y194.071
G1 X84.4648 Y194.4391
G1 X84.1833 Y194.6321
G1 X84.0008 Y194.7584
G1 X83.8247 Y194.8817
G1 X83.4847 Y195.1222
G1 X82.3187 Y195.9644
G1 X82.2191 Y196.0375
G1 X81.7462 Y196.3832
G1 X80.9186 Y196.9879
G1 X80.2961 Y197.439
G1 X80.0618 Y197.6071
G1 X79.6505 Y197.8992
G1 X79.3404 Y198.1161
G1 X79.1067 Y198.277
G1 X78.7535 Y198.5148
G1 X78.5755 Y198.6315
G1 X78.3963 Y198.7463
G1 X78.125 Y198.9176
G1 X77.8705 Y199.0779
G1 X77.751 Y199.153
G1 X77.5194 Y199.298
G1 X77.084 Y199.5683
G1 X76.7012 Y199.8024
G1 X76.6172 Y199.8533
G1 X76.5356 Y199.9024
G1 X75.8997 Y200.276
G1 X75.4121 Y200.547
G1 X74.9221 Y200.7968
G1 X74.6201 Y200.9341
G1 X74.4111 Y201.0166
G1 X74.2151 Y201.0818
G1 X74.1448 Y201.1002
G1 X74.002 Y201.129
G1 X73.8683 Y201.1381
G0 Z100.0
G0 X71.3567 Y201.482
G1 F100.0 Z0.0
G1 F1000.0 X71.1886 Y201.5134
G1 X71.1526 Y201.5175
G1 X71.0345 Y201.518
G1 X70.9637 Y201.5086
G1 X70.8859 Y201.4829
G1 X70.8167 Y201.4392
G1 X70.815 Y201.4377
G1 X70.7634 Y201.3792
G1 X70.7328 Y201.3212
G1 X70.7041 Y201.2141
G1 X70.6952 Y201.1036
G1 X70.6966 Y201.0671
G1 X70.7114 Y200.9131
G1 X70.7241 Y200.8469
G1 X70.7804 Y200.6178
G1 X70.8268 Y200.4732
G1 X70.9477 Y200.1497
G1 X71.0409 Y199.9334
G1 X71.1625 Y199.6697
G1 X71.2258 Y199.5389
G1 X71.258 Y199.4738
G1 X71.2904 Y199.4089
G0 Z100.0
G0 X71.3567 Y201.482
G0 Z1.0
G1 F100.0 Z0.0
G1 F1000.0 X71.4285 Y201.534
G1 X71.5018 Y201.566
G1 X71.6138 Y201.5921
G1 X71.6519 Y201.5964
G1 X71.8261 Y201.5999
G1 X71.9365 Y201.5918
G1 X72.2179 Y201.549
G1 X72.4252 Y201.5043
G1 X72.7861 Y201.4129
G1 X73.3249 Y201.2664
G1 X73.7262 Y201.168
G1 X73.8684 Y201.138
G1 X74.716 Y200.9675
G1 X75.2988 Y200.8383
G1 X75.9548 Y200.6759
G1 X76.6057 Y200.4943
G1 X76.7113 Y200.4628
G1 X76.9232 Y200.3975
G1 X77.0221 Y200.3659
G1 X77.404 Y200.2384
G1 X77.5704 Y200.1807
G1 X78.192 Y199.9574
G1 X78.6569 Y199.7863
G1 X78.744 Y199.7541
G1 X79.3982 Y199.5151
G1 X79.7264 Y199.3986
G1 X80.056 Y199.2859
G1 X80.452 Y199.1546
G1 X81.1474 Y198.9317
G1 X81.2127 Y198.9111
G1 X82.2255 Y198.5948
G1 X82.7316 Y198.4355
G1 X83.2366 Y198.273
G1 X83.5383 Y198.1855
G1 X83.6538 Y198.1574
G1 X83.9709 Y198.0927
G1 X84.0253 Y198.0836
G1 X84.3522 Y198.0266
G1 X84.6728 Y197.9611
G1 X84.9182 Y197.8969
G1 X85.2336 Y197.7933
G1 X85.5423 Y197.671
G1 X85.7305 Y197.5855
G1 X86.0896 Y197.4062
G1 X86.1194 Y197.3903
G1 X86.4992 Y197.1781
G1 X86.7318 Y197.0381
G1 X86.954 Y196.8976
G1 X87.0608 Y196.8282
G1 X87.4774 Y196.5494
G1 X87.8637 Y196.282
G1 X88.0439 Y196.1552
G1 X88.2179 Y196.0317
G1 X88.8889 Y195.5485
G1 X90.0567 Y194.6938
G1 X90.2754 Y194.5332
G1 X91.0968 Y193.9326
G1 X92.0655 Y193.2387
G1 X92.3399 Y193.0466
G1 X92.655 Y192.831
G1 X92.8932 Y192.6721
G1 X93.0732 Y192.555
G1 X93.4949 Y192.2958
G1 X93.624 Y192.221
G1 X93.6159 Y192.5554
G1 X93.6161 Y192.5748
G1 X93.6306 Y192.9282
G1 X93.6592 Y193.1941
G1 X93.7075 Y193.457
G1 X93.7494 Y193.6254
G1 X93.8209 Y193.8431
G1 X93.9111 Y194.0539
G1 X93.9174 Y194.0669
G1 X93.9786 Y194.1646
G1 X94.0557 Y194.2502
G1 X94.0717 Y194.2646
G1 X94.189 Y194.3556
G1 X94.2767 Y194.4088
G1 X94.3393 Y194.4437
G1 X94.5081 Y194.5313
G1 X94.6041 Y194.582
G1 X94.7423 Y194.6644
G1 X94.8441 Y194.7417
G1 X94.9256 Y194.8221
G1 X94.9918 Y194.9155
G1 X95.0408 Y195.0189
G1 X95.0565 Y195.0672
G1 X96.0703 Y194.5041
G1 X96.452 Y194.295
G1 X97.124 Y193.9364
G1 X97.3781 Y193.8056
G1 X97.8811 Y193.558
G1 X98.2818 Y193.3764
G1 X98.3394 Y193.3518
G1 X98.5571 Y193.2634
G1 X98.6394 Y193.2321
G1 X98.7846 Y193.1803
G1 X99.0245 Y193.1071
G1 X99.2311 Y193.0604
G0 Z100.0
G0 X99.067 Y193.3128
G1 F100.0 Z0.0
G1 F1000.0 X99.1183 Y193.1554
G1 X99.1453 Y193.0273
G1 X99.1508 Y192.9318
G1 X99.1482 Y192.9002
G1 X99.1299 Y192.8215
G1 X99.1167 Y192.7906
G1 X99.0733 Y192.7319
G1 X99.0156 Y192.6872
G1 X98.9639 Y192.6644
G1 X98.8481 Y192.6364
G1 X98.8003 Y192.6307
G1 X98.6549 Y192.6264
G1 X98.5276 Y192.6318
G1 X98.4162 Y192.6402
G1 X98.3675 Y192.6443
G1 X98.1845 Y192.6597
G1 X97.9722 Y192.6681
G1 X97.9085 Y192.6667
G1 X97.794 Y192.6546
G1 X97.7705 Y192.6496
G1 X97.6834 Y192.6217
G1 X97.6408 Y192.5997
G1 X97.5375 Y192.5499
G1 X97.4413 Y192.5216
G1 X97.3467 Y192.5024
G1 X97.3012 Y192.4952
G1 X97.1229 Y192.4738
G1 X96.8454 Y192.4396
G1 X96.8014 Y192.4323
G1 X96.6781 Y192.4016
G1 X96.5836 Y192.3635
G1 X96.4985 Y192.3077
G1 X96.4825 Y192.2942
G1 X96.4304 Y192.2318
G1 X96.3951 Y192.1585
G1 X96.3938 Y192.1544
G1 X96.3731 Y192.049
G1 X96.3724 Y191.9416
G1 X96.3759 Y191.9106
G1 X96.4064 Y191.7508
G1 X96.4291 Y191.672
G1 X96.4963 Y191.6941
G1 X96.5569 Y191.6974
G1 X96.6768 Y191.6827
G1 X96.6789 Y191.6823
G1 X96.8543 Y191.634
G1 X96.9061 Y191.6157
G1 X97.0097 Y191.5763
G1 X97.0594 Y191.5561
G1 X97.1564 Y191.5146
G1 X97.4945 Y191.3551
G1 X97.5259 Y191.3391
G1 X97.8441 Y191.1751
G1 X98.3966 Y190.879
G1 X98.6039 Y190.7676
G1 X98.9687 Y190.5757
G1 X99.2455 Y190.437
G1 X99.4562 Y190.3387
G1 X99.7096 Y190.2347
G1 X99.7806 Y190.2093
G1 X99.9494 Y190.1615
G1 X100.061 Y190.1452
G1 X100.124 Y190.1448
G0 Z100.0
G0 X101.6228 Y190.697
G1 F100.0 Z0.0
G1 F1000.0 X101.5654 Y190.6681
G1 X101.5018 Y190.6582
G1 X101.4974 Y190.6583
G1 X101.377 Y190.6686
G1 X101.3755 Y190.6689
G1 X101.2159 Y190.7084
G1 X101.1487 Y190.7314
G1 X101.0455 Y190.7696
G1 X100.9468 Y190.8097
G1 X100.8521 Y190.8508
G1 X100.6706 Y190.9348
G1 X100.5022 Y191.0173
G1 X100.3456 Y191.097
G1 X100.1994 Y191.1731
G1 X99.6544 Y191.4647
G1 X99.2454 Y191.6835
G1 X98.9361 Y191.8435
G1 X98.5904 Y192.01
G1 X98.4629 Y192.0659
G1 X98.3413 Y192.1151
G1 X98.1553 Y192.1786
G1 X98.0167 Y192.2108
G1 X97.9626 Y192.2179
G0 Z100.0
G0 X97.6408 Y192.5997
G0 Z1.0
G1 F100.0 Z0.0
G1 F1000.0 X97.7178 Y192.6002
G1 X97.7282 Y192.5987
G1 X97.847 Y192.5703
G1 X97.8918 Y192.554
G1 X98.1186 Y192.4557
G1 X98.1902 Y192.42
G1 X98.3256 Y192.3484
G1 X98.4552 Y192.2761
G1 X98.4864 Y192.2583
G1 X98.9612 Y191.9717
G1 X98.9744 Y191.9634
G1 X99.1852 Y191.8298
G1 X99.578 Y191.5755
G1 X100.2627 Y191.1255
G1 X100.7783 Y190.7896
G1 X101.1691 Y190.5425
G1 X101.552 Y190.3125
G1 X101.7694 Y190.1921
G1 X102.0044 Y190.0754
G1 X102.0855 Y190.0401
G1 X102.2327 Y189.9882
G1 X102.2532 Y189.9826
G1 X102.3415 Y189.967
G1 X102.402 Y189.9692
G1 X102.4306 Y189.9776
G1 X102.482 Y189.8469
G1 X102.5043 Y189.7489
G1 X102.5069 Y189.7221
G1 X102.5023 Y189.6683
G1 X102.4802 Y189.622
G1 X102.4408 Y189.5917
G1 X102.4087 Y189.5812
G1 X102.3214 Y189.5762
G1 X102.2584 Y189.5852
G1 X102.0908 Y189.6287
G1 X101.991 Y189.6649
G1 X101.8773 Y189.71
G1 X101.6665 Y189.802
G1 X101.3001 Y189.9743
G1 X101.2651 Y189.991
G1 X101.1293 Y190.0555
G1 X100.7541 Y190.2238
G1 X100.6418 Y190.27
G1 X100.4704 Y190.3284
G1 X100.3465 Y190.358
G1 X100.2543 Y190.3652
G1 X100.2485 Y190.365
G1 X100.1863 Y190.3526
G1 X100.174 Y190.3475
G1 X100.1376 Y190.3176
G1 X100.1169 Y190.2753
G1 X100.1139 Y190.2549
G1 X100.1176 Y190.1743
G1 X100.124 Y190.1448
G1 X100.1539 Y190.0415
G1 X100.1714 Y189.9916
G1 X100.245 Y189.8123
G1 X100.2517 Y189.7982
G1 X100.2948 Y189.7066
G1 X100.3393 Y189.6172
G1 X100.4308 Y189.4436
G1 X100.4537 Y189.4019
G1 X100.4996 Y189.3196
G1 X100.5921 Y189.1587
G1 X100.9114 Y188.6354
G1 X100.9684 Y188.5458
G1 X101.0532 Y188.4133
G1 X101.136 Y188.2854
G1 X101.4611 Y187.7924
G1 X101.5329 Y187.685
G1 X102.0944 Y186.8563
G1 X102.9402 Y185.6156
G1 X103.4543 Y184.8452
G1 X103.7653 Y184.3611
G1 X103.8837 Y184.3495
G1 X103.9908 Y184.3562
G1 X104.0723 Y184.378
G1 X104.1464 Y184.4184
G1 X104.1655 Y184.433
G1 X104.2267 Y184.4967
G1 X104.2656 Y184.5591
G1 X104.3097 Y184.6587
G1 X104.3189 Y184.6885
G1 X104.3279 Y184.718
G1 X104.3435 Y184.7757
G1 X104.3685 Y184.8854
G1 X104.3888 Y184.9826
G1 X104.4294 Y185.153
G1 X104.4718 Y185.2737
G1 X104.4741 Y185.2788
G1 X104.5206 Y185.363
G1 X104.5836 Y185.4358
G1 X104.5907 Y185.4423
G1 X104.6624 Y185.4884
G1 X104.7429 Y185.5166
G1 X104.775 Y185.5222
G1 X104.9523 Y185.5372
G1 X105.1298 Y185.5322
G1 X105.3853 Y185.5036
G1 X105.437 Y185.4954
G1 X105.7959 Y185.4241
G1 X105.9662 Y185.3831
G1 X106.1625 Y185.3322
G1 X106.2482 Y185.309
G1 X106.4085 Y185.2642
G1 X106.6882 Y185.1834
G1 X107.1069 Y185.0597
G1 X107.5265 Y184.9385
G1 X107.1629 Y185.5281
G1 X106.9339 Y185.8808
G1 X106.7294 Y186.1905
G1 X106.4537 Y186.6013
G1 X106.3797 Y186.7106
G1 X106.21 Y186.9598
G1 X104.8441 Y188.9481
G1 X104.458 Y189.5191
G1 X104.4093 Y189.5919
G1 X104.2031 Y189.9033
G1 X103.9861 Y190.2372
G1 X103.8756 Y190.4107
G1 X103.82 Y190.4991
G1 X103.7063 Y190.6823
G1 X103.6922 Y190.7055
G1 X103.4569 Y191.1028
G1 X103.3993 Y191.205
G1 X103.0093 Y191.9174
G1 X102.637 Y192.6391
G1 X102.6099 Y192.6935
G1 X102.5058 Y192.9106
G1 X102.3247 Y193.32
G1 X102.2518 Y193.5003
G1 X102.1933 Y193.6613
G1 X102.1206 Y193.9004
G1 X102.0878 Y194.0389
G1 X102.0657 Y194.1886
G1 X102.0625 Y194.2473
G1 X102.066 Y194.35
G1 X102.0894 Y194.4502
G1 X102.0975 Y194.4725
G1 X102.1342 Y194.534
G1 X102.1718 Y194.5718
G1 X102.2313 Y194.6026
G1 X102.2777 Y194.6131
G1 X102.3703 Y194.6165
G1 X102.3913 Y194.6145
G1 X102.5369 Y194.5907
G1 X102.6106 Y194.5708
G1 X102.8733 Y194.4813
G1 X103.0228 Y194.4207
G1 X103.4775 Y194.2126
G1 X103.8034 Y194.0496
G1 X104.023 Y193.9373
G1 X104.6054 Y193.637
G1 X104.9396 Y193.4689
G1 X105.3192 Y193.2889
G1 X105.3255 Y193.2861
G1 X105.6267 Y193.16
G1 X105.7784 Y193.1045
G1 X106.0231 Y192.9372
G1 X106.4947 Y192.6095
G1 X107.3725 Y191.986
G1 X108.1361 Y191.434
G1 X109.4671 Y190.4609
G1 X109.9656 Y190.0951
G1 X110.8386 Y189.4558
G1 X111.4946 Y188.9782
G1 X111.988 Y188.6219
G1 X112.3592 Y188.356
G1 X112.6382 Y188.1577
G1 X112.6645 Y188.1391
G1 X113.0715 Y187.8531
G1 X113.2758 Y187.7111
G1 X113.3782 Y187.6405
G1 X113.4038 Y187.6228
G1 X113.423 Y187.6096
G1 X113.4806 Y187.5701
G0 Z100.0
G0 X114.4998 Y188.6902
G1 F100.0 Z0.0
G1 F1000.0 X114.4909 Y188.6371
G1 X114.4569 Y188.4305
G1 X114.4143 Y188.2102
G1 X114.3753 Y188.0662
G1 X114.3264 Y187.934
G1 X114.2592 Y187.8101
G1 X114.2558 Y187.8047
G1 X114.1908 Y187.7225
G1 X114.1113 Y187.6541
G1 X114.0203 Y187.602
G1 X113.9211 Y187.5682
G1 X113.9053 Y187.5647
G1 X113.7786 Y187.547
G1 X113.6928 Y187.5463
G1 X113.5331 Y187.5608
G1 X113.4806 Y187.57
G1 X113.2875 Y187.6214
G1 X113.1963 Y187.653
G1 X113.0675 Y187.7036
G1 X112.7271 Y187.8579
G1 X112.5816 Y187.9307
G1 X111.9562 Y188.2652
G1 X111.7564 Y188.3769
G1 X111.1441 Y188.724
G1 X110.6838 Y188.9829
G1 X110.336 Y189.1728
G1 X109.884 Y189.4039
G1 X109.8058 Y189.4417
G1 X109.5335 Y189.5615
G1 X109.2944 Y189.6462
G1 X109.2525 Y189.6589
G1 F100.0 X109.2524
G1 F1000.0 X109.0463 Y189.8049
G1 X109.0168 Y189.8258
G1 X108.7816 Y189.9935
G1 X108.3126 Y190.3307
G1 X108.1787 Y190.4274
G1 X107.8224 Y190.6858
G1 X106.3997 Y191.7228
G1 X106.3079 Y191.7897
G1 X105.3266 Y192.5003
G1 X105.1995 Y192.5915
G1 X105.0682 Y192.6854
G1 X104.9326 Y192.7822
G1 X104.3102 Y193.2209
G1 X104.2308 Y193.2761
G1 X103.4996 Y193.7733
G1 X102.9387 Y194.1333
G1 X102.6449 Y194.3126
G1 X102.2606 Y194.5257
G1 X102.1718 Y194.5718
G0 Z100.0
G0 X101.1558 Y197.6987
G1 F100.0 Z0.0
G1 F1000.0 X100.6086 Y198.0858
G1 X100.065 Y198.4778
G1 X100.0299 Y198.5032
G1 X99.9553 Y198.5575
G1 X98.7647 Y199.4301
G1 X98.4249 Y199.68
G1 X97.5175 Y200.3445
G1 X96.9969 Y200.7212
G1 X96.2328 Y201.2627
G1 X95.5899 Y201.6997
G1 X95.5674 Y201.7145
G1 X95.3814 Y201.8357
G1 X94.979 Y202.0858
G1 X94.6796 Y202.2557
G1 X94.5358 Y202.3294
G1 X94.3152 Y202.4257
G1 X94.2957 Y202.4332
G1 X94.233 Y202.4538
G1 X94.058 Y202.9623
G1 X93.9075 Y203.4059
G1 X93.8868 Y203.4722
G1 X93.8433 Y203.6196
G1 X93.7995 Y203.7898
G1 X93.7625 Y203.9872
G1 X93.7512 Y204.1276
G1 X93.7544 Y204.2176
G1 X93.7754 Y204.3144
G1 X93.784 Y204.3387
G1 X93.8188 Y204.3972
G1 X93.8691 Y204.4431
G1 X93.8736 Y204.446
G1 X93.9468 Y204.476
G1 X94.0253 Y204.4868
G1 X94.0367 Y204.4867
G1 X94.1667 Y204.4734
G1 X94.2296 Y204.4597
G1 X94.4057 Y204.4033
G1 X94.4286 Y204.3944
G1 X94.6413 Y204.2958
G1 X94.8464 Y204.1823
G1 X94.9806 Y204.1022
G1 X95.3855 Y203.8439
G1 X95.505 Y203.7631
G1 X95.848 Y203.5274
G1 X96.0426 Y203.3906
G1 X96.5576 Y203.0209
G1 X97.2391 Y202.5214
G1 X97.6271 Y202.2341
G1 X97.834 Y202.0807
G1 X98.3066 Y201.7301
G1 X98.8476 Y201.3307
G1 X99.6509 Y200.7479
G1 X100.3073 Y200.2898
G1 X100.7018 Y200.0304
G1 X100.707 Y200.0272
G1 X100.9171 Y199.8976
G1 X101.0253 Y199.8342
G1 X101.2536 Y199.7118
G0 Z100.0
G0 X101.1243 Y199.8097
G1 F100.0 Z0.0
G1 F1000.0 X101.0473 Y199.7749
G1 X101.0048 Y199.7643
G1 X100.873 Y199.7512
G1 X100.7689 Y199.7549
G1 X100.6656 Y199.7652
G1 X100.3382 Y199.8214
G1 X100.2808 Y199.8333
G1 X100.1328 Y199.8641
G1 X100.067 Y199.8776
G1 X99.8169 Y199.9235
G1 X99.7921 Y199.9272
G1 X99.6955 Y199.9396
G1 X99.5268 Y199.9485
G1 X99.522
G1 X99.4069 Y199.9378
G1 X99.3873 Y199.934
G1 X99.3121 Y199.9097
G1 X99.2898 Y199.8981
G1 X99.2367 Y199.8582
G1 X99.1979 Y199.8044
G1 X99.1882 Y199.7825
G1 X99.1689 Y199.7004
G1 X99.1679 Y199.6298
G1 X99.4731 Y199.6452
G1 X99.6901 Y199.644
G1 X99.8861 Y199.6397
G1 X100.2292 Y199.6299
G1 X100.5853 Y199.6276
G1 X100.7445 Y199.633
G1 X101.0014 Y199.6571
G1 X101.1285 Y199.6796
G1 X101.1914 Y199.6943
G1 X101.2536 Y199.7118
G1 X101.3176 Y199.7409
G1 X101.3643 Y199.7797
G1 X101.4101 Y199.843
G1 X101.4271 Y199.88
G1 X101.4626 Y200.003
G1 X101.4764 Y200.0982
G1 X101.4854 Y200.1988
G1 X101.4983 Y200.3902
G1 X101.5021 Y200.4337
G1 X101.5238 Y200.5798
G1 X101.5289 Y200.6024
G1 X101.5612 Y200.6951
G1 X101.5863 Y200.7418
G1 X101.6342 Y200.7968
G1 X101.6951 Y200.8368
G1 X101.7647 Y200.8586
G1 X101.8024 Y200.8622
G1 X101.915 Y200.8583
G1 X101.9816 Y200.8464
G1 X102.1589 Y200.7934
G1 X102.2375 Y200.7631
G1 X102.4616 Y200.6591
G1 X102.4811 Y200.649
G0 Z100.0
G0 X101.1243 Y199.8097
G0 Z1.0
G1 F100.0 Z0.0
G1 F1000.0 X100.9201 Y199.8208
G1 X100.749 Y199.8457
G1 X100.45 Y199.907
G1 X100.3804 Y199.9242
G1 X100.2758 Y199.9501
G1 X99.9979 Y200.0221
G1 X99.8393 Y200.0638
G1 X99.6577 Y200.1103
G1 X99.5606 Y200.1341
G1 X99.2754 Y200.1964
G1 X99.0371 Y200.2331
G1 X98.8749 Y200.2445
G1 X98.7316 Y200.238
G1 X98.6287 Y200.2181
G1 X98.5716 Y200.1978
G1 X98.4824 Y200.1471
G1 X98.4047 Y200.0801
G1 X98.3416 Y199.9993
G1 X98.3311 Y199.9821
G1 X98.2696 Y199.8526
G1 X98.2268 Y199.7157
G1 X98.2188 Y199.6793
G1 X98.2101 Y199.6369
G1 X98.181 Y199.4406
G1 X98.1784 Y199.4112
G1 X98.1675 Y199.2821
G1 X98.1478 Y198.9414
G1 X98.1251 Y198.6501
G1 X98.1046 Y198.4939
G0 Z100.0
G0 X95.798 Y183.8026
G1 F100.0 Z0.0
G1 F1000.0 X95.6912 Y183.8211
G1 X95.5846 Y183.8199
G1 X95.5183 Y183.8033
G1 X95.4597 Y183.7682
G1 X95.4138 Y183.7176
G1 X95.405 Y183.7033
G1 X95.3696 Y183.6149
G1 X95.3584 Y183.5642
G1 X95.3463 Y183.4193
G1 X95.3466 Y183.3753
G1 X95.3597 Y183.1406
G1 X95.3598 Y183.1396
G1 X95.3704 Y183.0096
G1 X95.3797 Y182.8655
G1 X95.3799 Y182.7049
G1 X95.3659 Y182.5915
G1 X95.3488 Y182.5274
G1 X95.3201 Y182.4642
G1 X95.2745 Y182.4119
G1 X95.2159 Y182.3747
G1 X95.2052 Y182.3702
G1 X95.1244 Y182.3525
G1 X95.0818 Y182.3511
G0 Z100.0
G0 X96.4102 Y183.0768
G1 F100.0 Z0.0
G1 F1000.0 X96.3093 Y183.0235
G1 X96.2006 Y182.9885
G1 X96.1284 Y182.9763
G1 X95.9497 Y182.9628
G1 X95.8705 Y182.9631
G1 X95.6458 Y182.9784
G1 X95.5479 Y182.9899
G1 X95.0955 Y183.0642
G1 X94.8206 Y183.1194
G1 X94.6395 Y183.1559
G1 X94.1861 Y183.2391
G1 X94.0941 Y183.2535
G1 X94.0088 Y183.2687
G1 X93.7828 Y183.3276
G1 X93.6856 Y183.3595
G1 X93.6506 Y183.3713
G1 X93.2349 Y183.5273
G1 X93.1084 Y183.579
G1 X92.6992 Y183.7459
G1 X92.3347 Y183.8862
G1 X92.0626 Y183.9773
G1 X91.9715 Y184.0026
G1 X91.8059 Y184.0377
G1 X91.7394 Y184.0461
G1 X91.6234 Y184.0476
G1 X91.62 Y184.0474
G1 X91.54 Y184.0309
G1 X91.53 Y184.0273
G1 X91.4782 Y183.9982
G1 X91.4391 Y183.9535
G1 X91.4291 Y183.9348
G1 X91.41 Y183.8608
G1 X91.4089 Y183.7994
G0 Z100.0
G0 X89.1339 Y179.7132
G0 Z1.0
G1 F100.0 Z0.0
G1 F1000.0 X89.189 Y179.4444
G1 X89.2755 Y179.0839
G1 X89.3814 Y178.7285
G1 X89.4763 Y178.4577
G1 X89.6255 Y178.0885
G1 X89.7814 Y177.7507
G1 X90.0134 Y177.2968
G1 X90.2629 Y176.8524
G1 X90.3322 Y176.7359
G1 X90.6752 Y176.1781
G1 X90.9483 Y175.7596
G1 X91.0442 Y175.6171
G1 X91.2376 Y175.3399
G1 X91.429 Y175.0742
G1 X91.6172 Y174.8188
G1 X91.9871 Y174.328
G1 X92.3384 Y173.8712
G1 X93.3932 Y172.527
G1 X93.6748 Y172.1735
G1 X94.6836 Y170.905
G1 X95.4373 Y169.9512
G1 X96.2408 Y168.9133
G1 X96.5495 Y168.5057
G1 X97.0247 Y167.8527
G1 X97.0851 Y167.7672
G1 X97.2143 Y167.5791
G1 X97.4015 Y167.2926
G1 X97.4906 Y167.1463
G1 X97.5745 Y166.9972
G0 Z100.0
G0 X95.9684 Y164.3814
G1 F100.0 Z0.0
G1 F1000.0 X96.0857 Y164.082
G1 X96.1701 Y163.895
G1 X96.4023 Y163.4225
G1 X96.4179 Y163.3922
G1 X96.5856 Y163.071
G1 X96.6827 Y162.8882
G1 X96.7078 Y162.841
G1 X96.9758 Y162.3381
G1 X97.1269 Y162.0498
G1 X97.2947 Y161.7178
G1 X97.3809 Y161.539
G1 X97.5196 Y161.2278
G1 X97.5615 Y161.1228
G1 X97.6404 Y160.8938
G1 X97.6779 Y160.7333
G1 X97.6905 Y160.6391
G1 X97.688 Y160.5499
G1 X97.6786 Y160.5034
G1 X97.6269 Y160.3522
G1 X97.5685 Y160.2316
G1 X97.5551 Y160.2093
G1 X97.4985 Y160.1345
G1 X97.4274 Y160.0735
G1 X97.3449 Y160.0289
G1 X97.3028 Y160.0141
G1 X97.1947 Y159.9938
G1 X97.0871 Y159.9932
G1 X96.9276 Y160.0146
G1 X96.8079 Y160.0443
G1 X96.5955 Y160.1155
G1 X96.4668 Y160.1692
G1 X96.1438 Y160.3249
G1 X96.0551 Y160.3716
G1 X95.6737 Y160.5901
G1 X95.5526 Y160.6645
G1 X95.2771 Y160.8396
G1 X94.9713 Y161.043
G1 X94.4522 Y161.4141
G1 X94.2574 Y161.5597
G1 X94.1571 Y161.6359
G1 X94.0428 Y161.7234
G1 X93.7395 Y161.9585
G1 X93.3378 Y162.2756
G1 X92.8057 Y162.7025
G1 X92.1005 Y163.2769
G1 X91.6991 Y163.607
G1 X90.6318 Y164.4911
G1 X89.2121 Y165.6736
G1 X88.4003 Y166.3488
G1 X87.4704 Y167.1176
G1 X86.9727 Y167.5256
G1 X86.4397 Y167.9582
G1 X86.1636 Y168.1802
G1 X85.3761 Y168.7997
G1 X84.8845 Y169.1737
G1 X84.4662 Y169.4752
G1 X84.1769 Y169.6697
G1 X84.0613 Y169.7425
G1 X84.0226 Y169.7664
G1 X83.8665 Y169.8601
G1 X83.5475 Y170.0353
G1 X83.3276 Y170.138
G1 X83.1637 Y170.2001
G1 X83.0193 Y170.2379
G1 X82.9144 Y170.2508
G1 X82.8328 Y170.2471
G1 X82.7679 Y170.2307
G1 X82.7108 Y170.1959
G1 X82.6666 Y170.1457
G1 X82.6478 Y170.1098
G1 X82.6232 Y170.0181
G1 X82.6184 Y169.9742
G1 X82.6212 Y169.8417
G1 X82.6234 Y169.8209
G1 X82.6564 Y169.6253
G1 X82.6946 Y169.4791
G1 X82.7192 Y169.3948
G1 X82.828 Y169.0683
G1 X82.8901 Y168.8986
G1 X82.9589 Y168.7168
G1 X83.0701 Y168.4711
G1 X83.1574 Y168.3063
G1 X83.2324 Y168.1739
G1 X83.2528 Y168.1388
G1 X83.5499 Y167.6573
G1 X83.5947 Y167.5879
G1 X83.8328 Y167.2271
G1 X84.5828 Y166.1384
G1 X84.8158 Y165.8071
G1 X85.477 Y164.8648
G1 X85.8503 Y164.3234
G1 X85.9456 Y164.1829
G1 X86.0434 Y164.0375
G1 X86.0679 Y164.0007
G1 X86.1685 Y163.8487
G1 X86.4678 Y163.379
G1 X86.6101 Y163.142
G1 X86.6626 Y163.0501
G1 X86.795 Y162.7993
G1 X86.8652 Y162.6459
G1 X86.9595 Y162.4
G1 X86.9739 Y162.3566
G1 X87.0049 Y162.2583
G1 X87.0527 Y162.0743
G1 X87.0809 Y161.8864
G1 X87.0838 Y161.8538
G1 X87.0843 Y161.7289
G1 X87.0648 Y161.6056
G1 X87.0579 Y161.5788
G1 X87.0235 Y161.4947
G1 X86.9716 Y161.4202
G1 X86.9046 Y161.3589
G1 X86.8258 Y161.3138
G1 X86.7943 Y161.3016
G1 X86.6714 Y161.2695
G1 X86.5682 Y161.2578
G1 X86.3913 Y161.2599
G1 X86.3087 Y161.2678
G1 X86.0877 Y161.3038
G1 X86.0259 Y161.3175
G1 X85.8534 Y161.6396
G1 X85.8401 Y161.6626
G1 X85.8125 Y161.7114
G1 X85.5846 Y162.0972
G1 X85.4277 Y162.3513
G1 X85.3367 Y162.4958
G1 X85.2317 Y162.6602
G1 X84.9478 Y163.0959
G1 X84.5627 Y163.6726
G1 X84.3406 Y164.0006
G1 X84.283 Y164.0852
G1 X84.1601 Y164.2654
G1 X83.5026 Y165.2249
G1 X83.1273 Y165.7735
G1 X82.4921 Y166.7161
G1 X82.1442 Y167.248
G1 X82.114 Y167.295
G1 X81.9902 Y167.4894
G1 X80.9432 Y169.1686
G1 X80.0323 Y170.6611
G1 X79.758 Y171.1175
G1 X79.4465 Y171.6402
G1 X79.0931 Y172.2393
G1 X78.6929 Y172.9261
G1 X78.2522 Y173.7133
G1 X78.1324 Y173.9345
G1 X77.5972 Y174.9564
G1 X77.2433 Y175.6392
G1 X76.8419 Y176.3939
G1 X76.7597 Y176.5433
G1 X76.6269 Y176.7824
G1 X76.3163 Y177.3248
G1 X76.1465 Y177.6118
G1 X75.8475 Y177.7613
G1 X75.6623 Y177.8655
G1 X75.5048 Y177.9574
G1 X75.2969 Y178.083
G1 X74.6656 Y178.4829
G1 X74.4782 Y178.6063
G1 X72.8604 Y179.681
G1 X72.6435 Y179.8227
G1 X72.5883 Y179.8584
G1 X72.0803 Y180.1804
G1 X71.9479 Y180.2613
G1 X71.5552 Y180.4886
G1 X71.3294 Y180.6092
G1 X71.1071 Y180.7113
G1 X70.9814 Y180.7597
G1 X70.8594 Y180.7922
G1 X70.7887 Y180.8018
G1 X70.6853 Y180.8
G1 X70.5842 Y180.7783
G1 X70.5634 Y180.7712
G1 X70.4974 Y180.7349
G1 X70.4433 Y180.6826
G1 X70.4048 Y180.6178
G1 X70.4021 Y180.611
G1 X70.3766 Y180.5192
G1 X70.3707 Y180.46
G1 X70.3749 Y180.3241
G1 X70.3838 Y180.2603
G1 X70.4247 Y180.0754
G1 X70.4429 Y180.0142
G1 X70.4873 Y179.8807
G1 X70.5429 Y179.7345
G1 X70.611 Y179.5742
G1 X70.6926 Y179.3976
G1 X70.7377 Y179.3054
G1 X70.9582 Y178.8875
G1 X70.9841 Y178.841
G1 X71.1317 Y178.584
G1 X71.2119 Y178.4488
G1 X71.3974 Y178.1456
G1 X71.4979 Y177.9858
G1 X71.606 Y177.8169
G1 X71.6313 Y177.7778
G1 X71.6569 Y177.7389
G1 X71.7086 Y177.6613
G1 X71.7435 Y177.6099
G1 X71.8852 Y177.4057
G1 X72.1765 Y177.0031
G1 X72.2612 Y176.8891
G1 X72.3585 Y176.7592
G1 X72.6203 Y176.4147
G1 X72.9735 Y175.9585
G1 X73.4495 Y175.3542
G1 X74.0894 Y174.5527
G1 X74.9472 Y173.4879
G1 X76.0907 Y172.0682
G1 X76.7397 Y171.2534
G1 X76.9061 Y171.0422
G1 X77.259 Y170.5903
G1 X77.8533 Y169.8064
G1 X78.0475 Y169.543
G1 X78.369 Y169.0818
G1 X78.4449 Y168.9676
G1 X78.5397 Y168.8173
G1 X78.631 Y168.6615
G1 X78.6739 Y168.5811
G1 X78.7636 Y168.3896
G1 X78.7654 Y168.3852
G1 X78.8236 Y168.2165
G1 X78.8334 Y168.18
G1 X78.8472 Y168.0797
G1 X78.847 Y168.036
G1 X78.8345 Y167.9752
G1 X78.8254 Y167.9549
G1 X78.792 Y167.9113
G1 X78.7519 Y167.8853
G1 X78.6759 Y167.8644
G1 X78.6309 Y167.8613
G1 X78.4864 Y167.8751
G1 X78.3452 Y167.9087
G1 X78.3333 Y167.9125
G1 X78.2577 Y167.936
G1 X77.985 Y168.0382
G1 X77.9194 Y168.066
G1 X77.4345 Y168.2896
G1 X77.0947 Y168.4596
G1 X76.8704 Y168.5737
G1 X76.3037 Y168.8605
G1 X76.1528 Y168.9345
G0 Z100.0
G0 X77.4844 Y169.7423
G1 F100.0 Z0.0
G1 F1000.0 X77.1725 Y169.8229
G1 X76.8662 Y169.9227
G1 X76.7879 Y169.9516
G1 X76.4207 Y170.0986
G1 X76.1186 Y170.2361
G1 X75.9316 Y170.3267
G1 X75.4791 Y170.562
G1 X75.4405 Y170.5831
G1 X74.9652 Y170.8518
G1 X74.8002 Y170.9505
G1 X74.6318 Y171.0523
G1 X73.9363 Y171.4919
G1 X73.7472 Y171.6156
G1 X73.6916 Y171.6524
G1 X73.4555 Y171.8102
G1 X72.9202 Y172.177
G1 X72.7829 Y172.2729
G1 X72.1762 Y172.7151
G1 X71.7033 Y173.0773
G1 X71.5514 Y173.1953
G1 X71.3782 Y173.3306
G1 X70.3267 Y174.1664
G1 X70.0041 Y174.4279
G1 X69.0945 Y175.1673
G1 X67.8843 Y176.1563
G1 X67.5615 Y176.4201
G1 X65.838 Y177.817
G1 X65.8346 Y177.8197
G1 X65.371 Y178.189
G1 X64.8738 Y178.5795
G1 X64.6157 Y178.7793
G1 X64.3479 Y178.9837
G1 X64.2112 Y179.0866
G1 X63.6834 Y179.4723
G1 X63.6208 Y179.5164
G1 X63.4682 Y179.6218
G1 X63.3114 Y179.7263
G1 X63.1496 Y179.8288
G1 X62.9813 Y179.9268
G1 X62.9382 Y179.9499
G1 X62.8278 Y179.7309
G1 X62.7426 Y179.5227
G1 X62.6739 Y179.307
G1 X62.6245 Y179.0861
G1 X62.5948 Y178.8616
G1 X62.5926 Y178.8354
G1 X62.5841 Y178.5768
G1 X62.5956 Y178.3184
G1 X62.6164 Y178.1324
G0 Z100.0
G0 X60.9283 Y177.5392
G1 F100.0 Z0.0
G1 F1000.0 X61.0306 Y177.3092
G1 X61.1037 Y177.1057
G1 X61.133 Y177.0077
G1 X61.1794 Y176.8059
G1 X61.2047 Y176.6185
G1 X61.2123 Y176.5319
G1 X61.2237 Y176.364
G1 X61.2368 Y176.2067
G1 X61.2691 Y175.9913
G1 X61.321 Y175.7798
G1 X61.3698 Y175.6321
G1 X61.4756 Y175.3738
G1 X61.5455 Y175.2272
G1 X61.6214 Y175.0802
G1 X61.827 Y174.7203
G1 X61.9133 Y174.5803
G1 X62.2314 Y174.0967
G1 X62.3247 Y174.0829
G1 X62.3454 Y174.0771
G1 X62.5072 Y174.0168
G1 X62.5551 Y173.9947
G1 X62.8516 Y173.8381
G1 X62.9383 Y173.7879
G1 X63.1127 Y173.6822
G1 X63.2797 Y173.5767
G1 X63.8385 Y173.2051
G1 X63.9162 Y173.1515
G1 X63.9507 Y173.1277
G1 X63.9849 Y173.1041
G1 X64.5246 Y172.7255
G1 X64.7596 Y172.5582
G1 X65.6383 Y171.9273
G1 X66.2984 Y171.4553
G1 X66.7964 Y171.1052
G1 X66.8904 Y171.0402
G1 X67.2444 Y170.7994
G1 X67.7655 Y170.4635
G1 X67.7845 Y170.4517
G1 X67.9224 Y170.3691
G1 X68.1327 Y170.2513
G1 X68.33 Y170.1546
G1 X68.3496 Y170.1462
G1 X68.4627 Y170.1005
G1 X68.6735 Y170.03
G1 X68.681 Y170.0279
G1 X68.8332 Y169.9933
G1 X68.8803 Y169.9867
G1 X69.0158 Y169.9796
G1 X69.0595 Y169.9815
G1 X69.1559 Y169.9972
G1 X69.2471 Y170.0323
G1 X69.3292 Y170.0851
G1 X69.344 Y170.0974
G1 X69.4197 Y170.1796
G1 X69.4797 Y170.2739
G1 X69.4808 Y170.2762
G1 X69.5532 Y170.4281
G1 X69.602 Y170.5448
G1 X69.6822 Y170.7168
G1 X69.751 Y170.8231
G1 X69.7916 Y170.8719
G1 X70.0589 Y170.4403
G1 X70.2075 Y170.1826
G1 X70.4142 Y169.7963
G1 X70.4906 Y169.6419
G1 X70.6153 Y169.3635
G1 X70.6726 Y169.2164
G1 X70.7483 Y168.9923
G1 X70.7779 Y168.8823
G1 X70.8064 Y168.7533
G1 X70.8329 Y168.5461
G1 X70.8346 Y168.5233
G1 X70.8341 Y168.3739
G1 X70.8137 Y168.226
G1 X70.7737 Y168.0821
G1 X70.7148 Y167.9449
G1 X70.6657 Y167.8586
G1 X70.4549 Y167.8924
G1 X70.4056 Y167.9033
G1 X70.1507 Y167.972
G1 X69.9827 Y168.0244
G1 X69.3166 Y168.2489
G1 X68.9547 Y168.3594
G1 X68.8678 Y168.3828
G1 X68.6507 Y168.4276
G1 X68.6048 Y168.4345
G1 X68.4721 Y168.444
G1 X68.4617 Y168.4439
G1 X68.3557 Y168.4336
G1 X68.3088 Y168.4224
G1 X68.2479 Y168.395
G1 X68.1978 Y168.3507
G1 X68.1719 Y168.3122
G1 X68.1485 Y168.2449
G1 X68.1445 Y168.2151
G1 X68.0836 Y168.323
G1 X68.0256 Y168.4327
G1 X67.9286 Y168.645
G1 X67.9231 Y168.6584
G1 X67.875 Y168.8037
G1 X67.8719 Y168.8156
G1 X67.8524 Y168.9208
G1 X67.8527 Y169.0278
G1 X67.8536 Y169.0364
G1 X67.8726 Y169.1061
G1 X67.9017 Y169.1572
G1 X67.9599 Y169.2163
G1 X68.0225 Y169.2559
G1 X68.1617 Y169.3161
G1 X68.1885 Y169.3252
G1 X68.3112 Y169.3777
G1 X68.366 Y169.4088
G1 X68.4226 Y169.4562
G1 X68.4644 Y169.5171
G1 X68.4884 Y169.587
G1 X68.4897 Y169.5943
G1 X68.4955 Y169.6836
G1 X68.4921 Y169.7205
G1 X68.4646 Y169.8549
G1 X68.3944 Y170.0473
G1 X68.3496 Y170.1462
G0 Z100.0
G0 X68.8797 Y171.9006
G1 F100.0 Z0.0
G1 F1000.0 X68.8957 Y171.7353
G1 X68.9089 Y171.6639
G1 X68.9584 Y171.4709
G1 X68.9655 Y171.4487
G1 X68.9732 Y171.4237
G1 X69.0054 Y171.3255
G1 X69.0736 Y171.1371
G1 X69.0905 Y171.0932
G1 X69.2961 Y170.6035
G1 X69.3817 Y170.4139
G1 X69.6147 Y169.9108
G1 X69.961 Y169.1547
G1 X70.122 Y168.7711
G1 X70.1957 Y168.5765
G1 X70.2299 Y168.4782
G1 X70.2618 Y168.3792
G0 Z100.0
G0 X72.5084 Y170.4397
G1 F100.0 Z0.0
G1 F1000.0 X72.693 Y170.4036
G1 X72.8179 Y170.3672
G1 X72.9184 Y170.3335
G1 X73.051 Y170.2844
G1 X73.4045 Y170.1369
G1 X73.5692 Y170.0607
G1 X73.9087 Y169.8989
G1 X73.9302 Y169.8885
G1 X74.3868 Y169.6634
G1 X74.5085 Y169.6032
G1 X74.787 Y169.4667
G1 X75.1069 Y169.3143
G1 X75.4546 Y169.1591
G1 X75.477 Y169.1499
G1 X75.7748 Y169.0355
G1 X75.9115 Y168.99
G1 X76.0845 Y168.9463
G1 X76.1528 Y168.9345
G1 X76.4435 Y168.8792
G1 X76.5156 Y168.8623
G1 X76.5671 Y168.8499
G1 X76.9779 Y168.7498
G1 X77.096 Y168.7244
G1 X77.2955 Y168.6918
G1 X77.4156 Y168.6818
G1 X77.5252 Y168.6848
G1 X77.6002 Y168.6987
G1 X77.6713 Y168.7275
G1 X77.692 Y168.7404
G1 X77.7376 Y168.7844
G1 X77.7631 Y168.8296
G1 X77.7826 Y168.9082
G1 X77.7846 Y168.9613
G1 X77.7726 Y169.0706
G1 X77.7632 Y169.1099
G1 X77.7039 Y169.294
G1 X77.6437 Y169.4347
G1 X77.4996 Y169.7151
G1 X77.4844 Y169.7423
G1 X77.2701 Y170.0913
G1 X77.127 Y170.3049
G1 X77.0005 Y170.4874
G1 X76.576 Y171.0736
G1 X76.4771 Y171.2054
G1 X75.7762 Y172.1231
G1 X75.3925 Y172.612
G1 X75.078 Y173.0103
G1 X74.9967 Y173.113
G1 X74.1263 Y174.2055
G1 X72.9645 Y175.6606
G1 X72.3044 Y176.4952
G1 X71.9549 Y176.9422
G1 X71.5852 Y177.4215
G1 X71.3961 Y177.6702
G1 X71.3005 Y177.7969
G1 X71.1048 Y178.0597
G1 X70.9053 Y178.3328
G1 X70.8053 Y178.4725
G1 X70.6026 Y178.7635
G1 X70.4112 Y179.0486
G1 X70.224 Y179.3364
G1 X69.8643 Y179.9212
G1 X69.6091 Y180.3732
G1 X69.3715 Y180.8347
G1 X69.2274 Y181.1377
G1 X68.984 Y181.7003
G1 X68.8705 Y181.981
G1 X68.6721 Y182.465
G1 X68.5616 Y182.7212
G1 X68.438 Y182.9919
G1 X68.3717 Y183.1305
G1 X68.3371 Y183.2017
G1 X68.3021 Y183.2728
G1 X68.2312 Y183.4145
G1 X68.1834 Y183.5087
G1 X67.9886 Y183.8838
G1 X67.5915 Y184.6297
G1 X67.328 Y185.1277
G1 X67.0347 Y185.7063
G1 X66.9899 Y185.7986
G1 X66.9049 Y185.98
G1 X66.8182 Y186.1754
G1 X66.7969 Y186.2254
G1 X66.7115 Y186.4409
G1 X66.6715 Y186.5536
G1 X66.6345 Y186.6716
G1 X66.6027 Y186.7952
G1 X66.5795 Y186.9308
G1 X66.5763 Y187.0683
G1 Y187.0684
G0 Z100.0
G0 X66.9708 Y186.5004
G1 F100.0 Z0.0
G1 F1000.0 X66.9004 Y186.6798
G1 X66.8893 Y186.7144
G1 X66.8581 Y186.8376
G1 X66.8473 Y186.9395
G1 X66.8524 Y187.0226
G1 X66.8727 Y187.0914
G1 X66.9128 Y187.1547
G1 X66.9682 Y187.2051
G1 X67.0279 Y187.2365
G1 X67.1322 Y187.2701
G1 X67.1464 Y187.2731
G1 X67.2837 Y187.2951
G1 X67.3565 Y187.3032
G1 X67.4334 Y187.3111
G1 X67.6031 Y187.3346
G1 X67.7104 Y187.3625
G1 X67.7816 Y187.3934
G1 X67.8408 Y187.4349
G1 X67.8863 Y187.491
G1 X67.9146 Y187.5575
G1 X67.9158 Y187.5621
G1 X67.9277 Y187.6485
G1 X67.9268 Y187.6837
G1 X68.2406 Y187.6042
G1 X68.2911 Y187.5894
G1 X68.3699 Y187.5656
G1 X68.5219 Y187.5173
G1 X68.8054 Y187.4218
G1 X68.9292 Y187.3787
G1 X69.0452 Y187.338
G1 X69.4806 Y187.1862
G1 X69.6451 Y187.1312
G1 X69.7173 Y187.1078
G1 X70.035 Y187.0131
G1 X70.2666 Y186.957
G1 X70.4521 Y186.9247
G1 X70.5504 Y186.9157
G1 X70.6224 Y186.913
G1 X70.7348 Y186.9191
G1 X70.8361 Y186.9422
G1 X70.9359 Y186.9858
G1 X71.0261 Y187.047
G1 X71.1036 Y187.1237
G1 X71.1658 Y187.2132
G1 X71.2062 Y187.3002
G1 X71.2522 Y187.4491
G1 X71.2789 Y187.6026
G1 X71.2841 Y187.6669
G1 X71.2885 Y187.8902
G1 X71.2864 Y187.9473
G1 X71.258 Y188.2557
G1 X71.243 Y188.3652
G1 X71.1742 Y188.7458
G1 X71.1674 Y188.7786
G0 Z100.0
G0 X67.8732 Y185.6547
G0 Z1.0
G1 F100.0 Z0.0
G1 F1000.0 X67.5801 Y185.5613
G1 X67.2841 Y185.4775
G1 X67.0834 Y185.4388
G1 X66.8798 Y185.4199
G1 X66.6753 Y185.421
G1 X66.6717 Y185.4212
G1 X66.4271 Y185.4464
G1 X66.2638 Y185.4747
G1 X65.9889 Y185.5425
G1 X65.737 Y185.6232
G0 Z100.0
G0 X67.1317 Y186.4814
G1 F100.0 Z0.0
G1 F1000.0 X67.1389 Y186.1226
G1 X67.135 Y185.9414
G1 X67.1166 Y185.5368
G1 X67.1023 Y185.112
G1 Y184.9291
G1 X67.1178 Y184.6164
G1 X67.1506 Y184.3232
G1 X67.2276 Y183.8894
G1 X67.2895 Y183.6036
G1 X67.3531 Y183.3363
G1 X67.3822 Y183.2197
G1 X67.5942 Y182.4267
G1 X67.6161 Y182.3489
G1 X67.8574 Y181.4802
G1 X67.9019 Y181.5748
G1 X67.9276 Y181.6762
G1 X67.93 Y181.6931
G1 X67.9449 Y181.8671
G1 X67.9454 Y181.8898
G1 X67.9356 Y182.231
G1 X67.9351 Y182.24
G1 X67.9251 Y182.5144
G1 X67.9301 Y182.6853
G1 X67.9347 Y182.7298
G1 X67.9614 Y182.8654
G1 X67.9695 Y182.8936
G1 X68.0075 Y182.9765
G1 X68.0278 Y183.0073
G1 X68.0814 Y183.0626
G1 X68.1475 Y183.1023
G1 X68.1832 Y183.1152
G1 X68.28 Y183.1324
G1 X68.3717 Y183.1305
G0 Z100.0
G0 X67.1317 Y186.4814
G0 Z1.0
G1 F100.0 Z0.0
G1 F1000.0 X66.7583 Y186.4053
G1 X66.6335 Y186.3811
G1 X66.2949 Y186.3261
G1 X66.131 Y186.3068
G1 X65.842 Y186.2882
G1 X65.5524 Y186.2897
G1 X65.2636 Y186.3111
G1 X65.1154 Y186.33
G1 X64.6658 Y186.4062
G1 X64.22 Y186.502
G1 X63.7788 Y186.6173
G1 X63.7612 Y186.6223
G1 X63.2341 Y186.7809
G1 X62.713 Y186.9586
G1 X62.446 Y187.0579
G1 X62.0768 Y187.2009
G1 X62.0208 Y187.3947
G1 X61.9842 Y187.5931
G1 X61.9792 Y187.6343
G1 X61.9735 Y187.7767
G1 X61.9877 Y187.9185
G1 X62.0217 Y188.0568
G1 X62.028 Y188.0758
G1 X62.0987 Y188.2376
G1 X62.158 Y188.344
G1 X62.1976 Y188.413
G1 X62.2796 Y188.5687
G1 X62.2815 Y188.573
G1 X62.3319 Y188.704
G1 X62.3632 Y188.8408
G1 X62.3747 Y188.9807
G1 X62.3734 Y189.0436
G0 Z100.0
G0 X60.7042 Y190.6844
G0 Z1.0
G1 F100.0 Z0.0
G1 F1000.0 X60.6224 Y190.6463
G1 X60.5757 Y190.6337
G1 X60.4406 Y190.6134
G1 X60.4391 Y190.6133
G1 X60.2276 Y190.6102
G1 X60.1647 Y190.6132
G1 X60.0864 Y190.6176
G1 X59.8785 Y190.6309
G1 X59.8515 Y190.6324
G1 X59.7943 Y190.6352
G1 X59.609 Y190.6366
G1 X59.4894 Y190.6268
G1 X59.3843 Y190.6044
G1 X59.3204 Y190.5801
G1 X59.2568 Y190.5413
G1 X59.2057 Y190.487
G1 X59.1743 Y190.4296
G1 X59.1531 Y190.3471
G1 X59.1501 Y190.312
G1 X59.1585 Y190.1788
G1 X59.1866 Y190.0483
G1 X59.1928 Y190.0281
G0 Z100.0
G0 X60.3982 Y184.4589
G1 F100.0 Z0.0
G1 F1000.0 X60.8159 Y184.2671
G1 X60.9543 Y184.2083
G1 X61.2806 Y184.0843
G1 X61.3955 Y184.0456
G1 X61.6541 Y183.9724
G1 X61.7468 Y183.9511
G1 X61.9468 Y183.9186
G1 X62.0254 Y183.9113
G1 X62.1877 Y183.9112
G1 X62.2417 Y183.9156
G1 X62.3608 Y183.9399
G1 X62.402 Y183.9532
G1 X62.4891 Y183.9944
G1 X62.5658 Y184.0528
G1 X62.6042 Y184.0936
G1 X62.66 Y184.1805
G1 X62.698 Y184.2765
G1 X62.7079 Y184.3169
G0 Z100.0
G0 X56.2268 Y184.3232
G1 F100.0 Z0.0
G1 F1000.0 X56.1925 Y184.2849
G1 X56.1461 Y184.2625
G1 X56.1175 Y184.2584
G1 X56.0189 Y184.261
G1 X56.004 Y184.2632
G1 X55.8443 Y184.3029
G1 X55.7936 Y184.32
G1 X55.5252 Y184.4293
G1 X55.4183 Y184.479
G1 X55.338 Y184.5177
G1 X55.1835 Y184.5952
G1 X54.8965 Y184.7458
G1 X54.3974 Y185.0168
G1 X54.2095 Y185.1188
G1 X54.0442 Y185.2073
G1 X53.7523 Y185.3583
G1 X53.5289 Y185.4661
G1 X53.3132 Y185.5595
G1 X53.1812 Y185.6064
G1 X53.0885 Y185.633
G1 X52.9769 Y185.6524
G1 X52.9438 Y185.6544
G1 X52.8737 Y185.6465
G1 X52.8693 Y185.6453
G1 X52.8257 Y185.6236
G1 X52.8064 Y185.6043
G0 Z100.0
G0 X58.5365 Y175.5955
G1 F100.0 Z0.0
G1 F1000.0 X59.4354 Y174.2097
G1 X60.1111 Y173.1712
G1 X60.3628 Y172.7806
G1 X60.4177 Y172.695
G1 X60.6294 Y172.3628
G1 X60.9953 Y171.7785
G1 X61.0631 Y171.6684
G1 X61.4987 Y170.9386
G1 X61.5586 Y170.8351
G1 X61.6184 Y170.7296
G1 X61.8563 Y170.2929
G1 X62.0137 Y169.979
G0 Z100.0
G0 X63.2443 Y171.0581
G1 F100.0 Z0.0
G1 F1000.0 X63.2476 Y171.2096
G1 X63.2709 Y171.3593
G1 X63.2833 Y171.4096
G1 X63.3455 Y171.5818
G1 X63.4202 Y171.7356
G1 X63.467 Y171.8252
G1 X63.5184 Y171.9284
G1 X63.578 Y172.0707
G1 X63.6184 Y172.2183
G1 X63.6385 Y172.3717
G1 X63.6386 Y172.5263
G1 X63.6276 Y172.6287
G1 X63.5835 Y172.8532
G1 X63.5819 Y172.8598
G1 X63.6309 Y172.7202
G1 X63.6863 Y172.5831
G1 X63.809 Y172.3139
G1 X64.0136 Y171.9099
G1 X64.0796 Y171.7883
G1 X64.1604 Y171.6399
G1 X64.3795 Y171.2465
G1 X64.6751 Y170.7242
G1 X64.8432 Y170.4253
G1 X64.8863 Y170.348
G1 X65.1599 Y169.8424
G1 X65.3262 Y169.513
G1 X65.449 Y169.2438
G1 X65.5364 Y169.0159
G1 X65.5768 Y168.8823
G1 X65.5927 Y168.8131
G1 X65.6072 Y168.6992
G1 X65.6076 Y168.6663
G1 X65.5992 Y168.5936
G1 X65.5714 Y168.5259
G1 X65.5582 Y168.5054
G1 X65.5053 Y168.4574
G1 X65.4412 Y168.426
G1 X65.4138 Y168.4187
G1 X65.3029 Y168.4037
G1 X65.1581 Y168.4083
G1 X64.9744 Y168.4345
G1 X64.7416 Y168.4843
G1 X64.4433 Y168.5585
G1 X64.2745 Y168.6003
G1 X64.0825 Y168.6431
G1 X63.862 Y168.6788
G1 X63.7265 Y168.687
G1 X63.6073 Y168.6777
G1 X63.5295 Y168.6559
G1 X63.4778 Y168.6285
G1 X63.0589 Y168.8505
G1 X62.9666 Y168.8978
G1 X62.7871 Y168.9881
G1 X62.3064 Y169.2184
G1 X61.8174 Y169.4306
G1 X61.4069 Y169.5922
G1 X61.0513 Y169.7175
G1 X60.6341 Y169.8459
G1 X60.2114 Y169.9552
G1 X59.9596 Y170.0105
G1 X59.4723 Y170.1122
G1 X59.4484 Y170.1171
G1 X59.2602 Y170.1538
G1 X58.9738 Y170.1998
G1 X58.9215 Y170.2061
G1 X58.6995 Y170.2212
G1 X58.6515 Y170.2219
G1 X58.51 Y170.2125
G1 X58.4413 Y170.2007
G1 X58.3431 Y170.1709
G1 X58.2891 Y170.1449
G1 X58.2225 Y170.0971
G1 X58.1695 Y170.0346
G1 X58.1335 Y169.9621
G1 X58.1096 Y169.8557
G1 X58.1056 Y169.7468
G1 X58.1074 Y169.7234
G1 X58.204 Y169.5283
G1 X58.2453 Y169.4568
G1 X58.403 Y169.2013
G1 X58.6622 Y168.8164
G1 X58.7413 Y168.7057
G1 X58.9755 Y168.3815
G1 X59.2936 Y167.9537
G1 X59.3793 Y167.8403
G1 X59.8403 Y167.2386
G1 X59.9642 Y167.0789
G1 X60.2481 Y166.7145
G1 X60.5738 Y166.2992
G1 X61.4447 Y165.1938
G1 X62.5993 Y163.7154
G1 X62.7466 Y163.5233
G1 X63.0583 Y163.1117
G1 X63.3857 Y162.6688
G1 X63.4676 Y162.5554
G1 X63.5087 Y162.4981
G1 X63.6762 Y162.2599
G1 X63.9256 Y161.8844
G1 X64.0155 Y161.7396
G1 X64.0939 Y161.6026
G1 X64.1309 Y161.5321
G0 Z100.0
G0 X63.9448 Y161.6299
G1 F100.0 Z0.0
G1 F1000.0 X63.92 Y161.7055
G1 X63.8299 Y161.923
G1 X63.7962 Y161.993
G1 X63.6076 Y162.3517
G1 X63.5177 Y162.5089
G1 X63.3875 Y162.73
G1 X62.8897 Y163.5352
G1 X62.8812 Y163.5487
G1 X62.4955 Y164.1608
G1 X62.2094 Y164.6239
G1 X62.1038 Y164.7996
G1 X61.8822 Y165.1856
G1 X61.7544 Y165.4282
G1 X61.6523 Y165.6472
G1 X61.6062 Y165.7648
G1 X61.5664 Y165.9001
G1 X61.557 Y165.9492
G1 X61.5533 Y166.0269
G1 X61.5559 Y166.0489
G1 X61.5711 Y166.0938
G1 X61.6035 Y166.1285
G1 X61.6098 Y166.1326
G1 X61.6676 Y166.1505
G1 X61.7049 Y166.1516
G1 X61.8255 Y166.1331
G1 X61.8859 Y166.1159
G1 X62.0945 Y166.0353
G1 X62.2132 Y165.9795
G1 X62.5647 Y165.7936
G1 X62.7944 Y165.6594
G1 X63.0426 Y165.5089
G1 X63.8194 Y165.0128
G1 X63.9585 Y164.9214
G1 X64.2992 Y164.6967
G1 X64.5971 Y164.4997
G1 X64.7274 Y164.4135
G1 X64.9721 Y164.2523
G1 X65.0793 Y164.182
G1 X65.4824 Y163.9204
G1 X65.6344 Y163.8234
G1 X65.7011 Y163.7812
G1 X66.1834 Y163.4856
G1 X66.2056 Y163.4725
G1 X66.5427 Y163.2822
G1 X66.7246 Y163.1887
G0 Z100.0
G0 X66.4217 Y163.6052
G1 F100.0 Z0.0
G1 F1000.0 X66.432 Y163.5824
G1 X66.4422 Y163.5599
G1 X66.4522 Y163.5375
G1 X66.4622 Y163.5153
G1 X66.7644 Y162.8096
G1 X66.7659 Y162.8059
G1 X66.9607 Y162.2992
G1 X66.9733 Y162.2645
G1 X67.0446 Y162.0588
G1 X67.1538 Y161.7111
G1 X67.2437 Y161.3579
G1 X67.251 Y161.3253
G1 X67.2608 Y161.2785
G1 X67.306 Y161.0052
G1 X67.3155 Y160.9247
G1 X67.3264 Y160.7231
G1 X67.321 Y160.5666
G1 X67.3068 Y160.501
G1 X67.2786 Y160.4486
G1 X67.2323 Y160.4049
G1 X67.1916 Y160.3835
G1 X67.0926 Y160.3571
G1 X66.9932 Y160.3503
G1 X66.7544 Y160.365
G1 X66.6182 Y160.3825
G1 X66.4536 Y160.4023
G1 X66.3047 Y160.4137
G1 X66.1689 Y160.4105
G1 X66.0805 Y160.3938
G1 X66.0506 Y160.3834
G1 X65.995 Y160.3528
G1 X65.9517 Y160.3065
G1 X65.9249 Y160.2489
G1 X65.9206 Y160.2307
G1 X65.9145 Y160.1415
G1 X65.9207 Y160.0867
G1 X65.9517 Y159.9546
G1 X65.9789 Y159.8798
G1 X66.0652 Y159.6831
G1 X66.0979 Y159.6183
G1 X66.1315 Y159.5547
G1 X66.1657 Y159.4921
G1 X66.2359 Y159.3693
G1 X66.5319 Y158.8945
G1 X66.842 Y158.4344
G1 X66.8593 Y158.4093
G1 X66.9982 Y158.2102
G1 X67.2707 Y157.8269
G1 X67.5294 Y157.47
G1 X68.02 Y156.8048
G1 X68.128 Y156.6598
G1 X68.2328 Y156.5194
G1 X68.4363 Y156.2477
G1 X69.2017 Y155.2311
G1 X69.7756 Y154.4684
G1 X70.204 Y153.8948
G1 X70.8239 Y153.0508
G1 X70.8394 Y153.0293
G1 X71.1516 Y152.5924
G1 X71.2288 Y152.4826
G1 X71.3438 Y152.3173
G1 X71.3724 Y152.2758
G1 X71.4577 Y152.1512
G0 Z100.0
G0 X71.9089 Y151.76
G1 F100.0 Z0.0
G1 F1000.0 X71.9944 Y151.7924
G1 X72.061 Y151.8039
G1 X72.199 Y151.8079
G1 X72.2192 Y151.8068
G1 X72.4298 Y151.7819
G1 X72.5301 Y151.7628
G1 X72.7337 Y151.7174
G1 X73.0024 Y151.6497
G1 X73.1556 Y151.6105
G1 X73.5481 Y151.522
G1 X73.5658 Y151.5185
G1 X73.6765 Y151.5013
G1 X73.8398 Y151.4888
G1 X73.9329 Y151.4906
G1 X74.0328 Y151.5082
G1 X74.0682 Y151.5195
G1 X74.1306 Y151.5528
G1 X74.1811 Y151.6022
G1 X74.1902 Y151.6148
G1 X74.2261 Y151.6936
G1 X74.2386 Y151.744
G1 X74.2499 Y151.8704
G1 X74.25 Y151.8814
G1 X74.2353 Y152.0642
G1 X74.2209 Y152.153
G1 X74.1525 Y152.448
G1 X74.0856 Y152.6748
G1 X74.039 Y152.8214
G1 X73.909 Y153.2085
G1 X73.8341 Y153.429
G1 X73.7065 Y153.8249
G1 X73.6512 Y154.0203
G1 X73.5927 Y154.2814
G1 X73.5781 Y154.3663
G1 X73.5453 Y154.6557
G1 X73.5409 Y154.718
G1 X73.5262 Y155.0242
G1 X73.5257 Y155.0712
G1 X73.5246 Y155.3069
G1 X73.528 Y155.6212
G1 X73.5266 Y156.04
G1 X73.5073 Y156.3908
G1 X73.4866 Y156.5971
G1 X73.5266 Y156.6314
G1 X73.5509 Y156.6781
G1 X73.5567 Y156.7171
G1 X73.5521 Y156.8206
G1 X73.5489 Y156.8408
G1 X73.5093 Y156.9961
G1 X73.4831 Y157.0694
G1 X73.4427 Y157.1731
G1 X73.4219 Y157.2227
G1 X73.4007 Y157.2714
G1 X73.2315 Y157.6228
G1 X73.219 Y157.6471
G1 X73.1342 Y157.8089
G1 X73.0938 Y157.8844
G1 X72.9345 Y158.1755
G1 X72.7931 Y158.4294
G1 X72.669 Y158.6514
G1 X72.4539 Y159.0415
G1 X72.2503 Y159.43
G1 X72.1502 Y159.6381
G1 X72.0383 Y159.9074
G1 X72.0226 Y159.95
G1 X71.9805 Y160.0955
G1 X71.9767 Y160.1132
G1 X71.9643 Y160.2067
G1 X71.9688 Y160.2826
G0 Z100.0
G0 X69.7254 Y160.3299
G1 F100.0 Z0.0
G1 F1000.0 X69.6888 Y160.3384
G1 X69.6523 Y160.3469
G1 X69.5791 Y160.3639
G1 X69.4328 Y160.398
G1 X69.1398 Y160.4651
G1 X68.5621 Y160.5829
G1 X68.551 Y160.5849
G1 X68.1765 Y160.6386
G1 X68.1542 Y160.6411
G1 X67.9332 Y160.6573
G1 X67.7117 Y160.6535
G1 X67.6192 Y160.646
G1 X67.4813 Y160.6218
G1 X67.3482 Y160.5782
G1 X67.321 Y160.5666
G1 X67.251 Y160.5234
G1 X67.204 Y160.4777
G1 X67.1501 Y160.3961
G1 X67.1295 Y160.351
G1 X67.0885 Y160.2134
G1 X67.067 Y160.0714
G1 X67.0669 Y160.0696
G1 X67.0595 Y159.9878
G1 X67.0537 Y159.8946
G1 X67.0525 Y159.8704
G1 X67.0415 Y159.6168
G1 X67.0233 Y159.4104
G1 X67.0022 Y159.2842
G1 X66.9687 Y159.1732
G1 X66.9364 Y159.1038
G1 X66.8883 Y159.0345
G1 X66.8253 Y158.9785
G1 X66.772 Y158.9479
G1 X66.6766 Y158.9185
G1 X66.6273 Y158.9112
G1 X66.4957 Y158.9064
G1 X66.4782 Y158.9072
G1 X66.2695 Y158.9291
G1 X66.1839 Y158.944
G1 X65.7696 Y159.038
G1 X65.6116 Y159.0794
G1 X65.2329 Y159.1762
G1 X65.1313 Y159.1998
G1 X65.0226 Y159.223
G1 X64.9061 Y159.2444
G1 X64.7809 Y159.2618
G1 X64.6337 Y159.2715
G1 X64.4911 Y159.2617
G1 X64.402 Y159.2382
G1 X64.3423 Y159.2098
G1 X64.2805 Y159.1578
G1 X64.2332 Y159.0922
G1 X64.2125 Y159.0461
G1 X64.1797 Y158.9294
G1 X64.1682 Y158.8418
G1 X64.1642 Y158.6219
G1 X64.1765 Y158.4348
G1 X64.1873 Y158.3194
G1 X64.2174 Y158.0149
G1 X64.2302 Y157.7926
G1 X64.2258 Y157.6103
G1 X64.2076 Y157.4906
G1 X64.1734 Y157.3839
G1 X64.1307 Y157.3113
G1 X64.1025 Y157.2787
G1 X64.2923 Y156.9202
G1 X64.4772 Y156.588
G1 X64.9289 Y155.8178
G1 X65.2065 Y155.3632
G1 X65.4886 Y154.9091
G1 X65.9882 Y154.1183
G1 X66.3655 Y153.5268
G1 X66.6489 Y153.0834
G1 X66.702 Y153.0003
G1 X67.0996 Y152.3763
G1 X67.2976 Y152.0637
G1 X67.4945 Y151.7505
G1 X67.4694 Y151.6696
G1 X67.4657 Y151.644
G1 X67.4641 Y151.5336
G1 X67.4844 Y151.3785
G1 X67.4981 Y151.317
G1 X67.5793 Y151.0313
G1 X67.623 Y150.9019
G1 X67.6648 Y150.7854
G1 X67.6877 Y150.7236
G1 X67.8136 Y150.3966
G1 X67.9817 Y149.9623
G1 X68.0716 Y149.7121
G1 X68.0933 Y149.647
G1 X68.1363 Y149.5072
G1 X68.183 Y149.3225
G1 X68.2053 Y149.1797
G1 X68.2096 Y149.0731
G1 X68.2009 Y148.9997
G1 X68.1777 Y148.9307
G1 X68.1666 Y148.9107
G1 X68.2921 Y148.6761
G1 X68.3436 Y148.5697
G1 X68.4243 Y148.381
G1 X68.4303 Y148.3647
G1 X68.4626 Y148.2716
G1 X68.5073 Y148.091
G1 Y148.0909
G1 X68.5178 Y147.9639
G1 X68.517 Y147.9268
G1 X68.5041 Y147.8411
G1 X68.4718 Y147.7607
G1 X68.4219 Y147.6898
G1 X68.4039 Y147.671
G1 X68.3139 Y147.6013
G1 X68.2329 Y147.5571
G1 X68.0918 Y147.4921
G1 X67.971 Y147.4321
G1 X67.8877 Y147.3762
G1 X67.8262 Y147.3168
G1 X67.7801 Y147.2447
G1 X67.7564 Y147.1816
G1 X67.7036 Y147.0295
G1 X67.6811 Y146.9786
G1 X67.6604 Y146.9359
G1 X67.5151 Y146.6835
G1 X67.4744 Y146.6193
G1 X67.4034 Y146.5001
G1 X67.3236 Y146.3427
G1 X67.2982 Y146.2811
G1 X67.2513 Y146.1324
G1 X67.2239 Y145.979
G1 X67.2191 Y145.9262
G1 X67.2178 Y145.7421
G1 X67.2358 Y145.5629
G1 X67.2135 Y145.6691
G1 X67.2131 Y145.672
G1 X67.2102 Y145.7746
G1 X67.2279 Y145.8471
G1 X67.2348 Y145.8631
G1 X67.2732 Y145.9132
G1 X67.3253 Y145.9488
G1 X67.3603 Y145.9614
G1 X67.4522 Y145.9778
G1 X67.4994 Y145.9786
G1 X67.6705 Y145.9618
G1 X67.7571 Y145.9455
G1 X68.0436 Y145.8702
G1 X68.1937 Y145.8223
G1 X68.839 Y145.6053
G1 X69.0021 Y145.5552
G1 X69.0636 Y145.5376
G1 X69.1178 Y145.5231
G1 X69.2132 Y145.4999
G1 X69.3767 Y145.4708
G1 X69.5045 Y145.4619
G1 X69.5374 Y145.2806
G1 X69.5716 Y145.1581
G1 X69.6732 Y144.8741
G1 X69.7839 Y144.6174
G1 X69.8921 Y144.3877
G1 X69.9983 Y144.1747
G1 X70.011 Y144.1498
G1 X70.1131 Y143.9535
G1 X70.2109 Y143.7705
G1 X70.3041 Y143.5997
G1 X70.3924 Y143.4402
G1 X70.5603 Y143.1423
G1 X70.6344 Y143.0123
G1 X70.9148 Y142.5264
G1 X71.7574 Y141.0696
G1 X71.8575 Y140.8968
G1 X71.9572 Y140.7309
G1 X72.3996 Y140.0359
G1 X72.7753 Y139.4735
G1 X73.4082 Y138.5423
G1 X73.8818 Y137.8421
G1 X74.0576 Y137.5777
G1 X74.0958 Y137.5197
G1 X74.243 Y137.2942
G1 X74.5357 Y136.8317
G1 X74.7368 Y136.4907
G1 X74.7947 Y136.3871
G1 X74.9307 Y136.1239
G1 X74.9805 Y136.0152
G1 X75.0446 Y135.8485
G1 X75.0537 Y135.8191
G1 X75.0771 Y135.7163
G1 X75.08 Y135.6359
G1 X75.0768 Y135.6109
G1 X75.0586 Y135.5677
G1 X75.0272 Y135.5379
G1 X74.974 Y135.5185
G1 X74.9553 Y135.5163
G1 X74.8562 Y135.5213
G1 X74.8132 Y135.5299
G1 X74.628 Y135.5877
G1 X74.5538 Y135.6169
G1 X74.321 Y135.7231
G1 X73.8694 Y135.9628
G1 X73.482 Y136.187
G1 X72.8656 Y136.5574
G1 X72.4036 Y136.8363
G1 X71.8577 Y137.1555
G1 X71.7029 Y137.2419
G1 X71.3789 Y137.4114
G1 X71.3432 Y137.4287
G1 X71.2515 Y137.4717
G1 X71.0605 Y137.5519
G1 X70.9686 Y137.583
G1 X70.7981 Y137.6261
G1 X70.7053 Y137.6411
G1 X70.5692 Y137.6494
G1 X70.4697 Y137.6428
G1 X70.3451 Y137.6166
G1 X70.2716 Y137.5911
G1 X70.1372 Y137.528
G1 X70.1103 Y137.5125
G1 X69.9714 Y137.4369
G1 X69.8524 Y137.3836
G1 X69.7267 Y137.3492
G1 X69.5972 Y137.3344
G1 X69.467 Y137.3395
G1 X69.4338 Y137.3441
G1 X69.3999 Y137.3491
G1 X69.2327 Y137.3852
G1 X69.1511 Y137.4105
G1 X69.0302 Y137.453
G1 X68.9113 Y137.5009
G1 X68.7327 Y137.5828
G1 X68.5631 Y137.6689
G1 X68.4818 Y137.7123
G1 X68.3232 Y137.8003
G1 X68.0199 Y137.9773
G1 X67.7387 Y138.1488
G1 X66.9335 Y138.662
G1 X66.6995 Y138.8157
G1 X66.6027 Y138.8792
G1 X65.8529 Y139.3722
G1 X65.7121 Y139.4645
G1 X65.1823 Y139.8076
G1 X64.7818 Y140.0602
G1 X64.7062 Y140.1069
G1 X64.241 Y140.384
G1 X64.1326 Y140.4452
G1 X64.0596 Y140.4855
G1 X63.9309 Y140.5541
G1 X63.8336 Y140.6038
G1 X63.7599 Y140.6398
G1 X63.6482 Y140.6912
G1 X63.5346 Y140.7383
G1 X63.3243 Y140.8121
G1 X63.1083 Y140.8668
G1 X63.0772 Y140.8729
G1 X62.9255 Y140.8936
G1 X62.7723 Y140.8944
G1 X62.7138 Y140.8894
G1 X62.5997 Y140.8658
G1 X62.4912 Y140.8229
G1 X62.4554 Y140.8037
G1 X62.3603 Y140.7375
G1 X62.2972 Y140.6776
G1 X62.2033 Y140.5651
G1 X62.2005 Y140.5612
G1 X62.1363 Y140.4678
G1 X62.0453 Y140.3242
G1 X61.9991 Y140.2529
G1 X61.9506 Y140.183
G1 X61.8555 Y140.036
G1 X61.7777 Y139.8791
G1 X61.7253 Y139.7371
G1 X61.6754 Y139.5454
G1 X61.6474 Y139.3718
G1 X61.6317 Y139.1435
G1 X61.6359 Y138.9147
G1 X61.6443 Y138.813
G1 X61.6807 Y138.5271
G1 X61.7329 Y138.2614
G1 X61.7948 Y138.0269
G1 X61.9127 Y137.6765
G1 X61.9423 Y137.5972
G1 X61.9512 Y137.5739
G1 X62.0232 Y137.3905
G1 X62.0579 Y137.3049
G1 X62.1972 Y136.9751
G1 X62.2284 Y136.9032
G1 X62.3509 Y136.6255
G1 X62.5685 Y136.1411
G1 X62.589 Y136.0956
G1 X62.6679 Y135.9196
G1 X62.8045 Y135.6108
G1 X63.0024 Y135.1438
G1 X63.1812 Y134.6706
G1 X63.2131 Y134.5797
G1 X63.3421 Y134.2296
G1 X63.5769 Y133.6195
G1 X63.6644 Y133.3897
G1 X63.6739 Y133.3644
G1 X63.8253 Y132.9442
G1 X63.9454 Y132.5606
G1 X63.9976 Y132.3526
G1 X64.0338 Y132.1499
G1 X64.0455 Y132.0336
G1 X64.0458 Y131.9043
G1 X64.0427 Y131.8712
G1 X64.0243 Y131.7748
G1 X64.0016 Y131.714
G1 X63.244 Y132.1993
G1 X63.2197 Y132.2153
G1 X62.9613 Y132.3857
G1 X61.9319 Y133.0741
G1 X61.2453 Y133.5326
G1 X60.8512 Y133.792
G1 X60.7491 Y133.8584
G1 X60.168 Y134.2275
G1 X59.6439 Y134.5405
G1 X59.4976 Y134.6221
G1 X59.4227 Y134.6626
G1 X59.3847 Y134.6827
G1 X59.1158 Y134.8156
G1 X59.0551 Y134.8426
G1 X58.8876 Y134.9086
G1 X58.8786 Y134.9116
G1 X58.7499 Y134.9488
G1 X58.6881 Y134.9595
G1 X58.5897 Y134.9611
G1 X58.587 Y134.9609
G1 X58.7073 Y134.7016
G1 X58.779 Y134.5666
G1 X58.8804 Y134.3881
G1 X58.9824 Y134.2174
G1 X59.0838 Y134.0536
G1 X59.5522 Y133.3375
G1 X59.9117 Y132.8114
G1 X60.5516 Y131.8924
G1 X61.0313 Y131.2027
G1 X61.3868 Y130.6823
G1 X61.6486 Y130.2885
G1 X61.8403 Y129.99
G1 X62.1147 Y129.534
G1 X62.1792 Y129.4175
G1 X62.295 Y129.188
G1 X62.3513 Y129.0572
G1 X62.4106 Y128.8814
G1 X62.4247 Y128.827
G1 X62.4458 Y128.695
G1 X62.4488 Y128.6117
G1 X62.4375 Y128.527
G1 X62.4069 Y128.4472
G1 X62.3994 Y128.4337
G1 X62.3489 Y128.371
G1 X62.2897 Y128.3257
G1 X62.182 Y128.2755
G1 X62.1693 Y128.271
G1 X62.0137 Y128.2313
G1 X61.9438 Y128.22
G1 X61.8574 Y128.2063
G1 X61.7058 Y128.1809
G1 X61.5694 Y128.1469
G1 X61.4833 Y128.1143
G1 X61.4044 Y128.0663
G1 X61.3843 Y128.05
G1 X61.3335 Y127.9916
G1 X61.3132 Y127.956
G1 X61.2291 Y127.7509
G1 X61.1637 Y127.5391
G1 X61.1606 Y127.5268
G1 X61.0999 Y127.2526
G1 X61.0894 Y127.1931
G1 X61.0787 Y127.1301
G1 X61.0429 Y126.893
G1 X60.9969 Y126.5362
G1 X60.9743 Y126.3577
G1 X60.9685 Y126.3131
G1 X60.9503 Y126.1796
G1 X60.9163 Y126.0139
G1 X60.8915 Y125.9316
G1 X60.8118 Y125.7229
G1 X60.7368 Y125.5415
G1 X60.6771 Y125.3668
G1 X60.6411 Y125.2114
G1 X60.624 Y125.0381
G1 X60.627 Y124.864
G1 X60.6486 Y124.6985
G1 X60.7034 Y124.4606
G1 X60.7775 Y124.2281
G1 X60.7863 Y124.2043
G1 X60.8169 Y124.1246
G1 X60.8832 Y123.9704
G1 X61.0248 Y123.6804
G1 X61.0259 Y123.6782
G1 X61.0435 Y123.6444
G1 X61.1873 Y123.3785
G1 X61.3272 Y123.132
G1 X61.3439 Y123.1032
G1 X61.4773 Y122.8758
G1 X61.7324 Y122.4524
G1 X61.8452 Y122.2678
G1 X62.2704 Y121.5771
G1 X62.5868 Y121.0573
G1 X62.7038 Y120.8611
G1 X62.8049 Y120.6888
G1 X62.8487 Y120.6131
G1 X63.0097 Y120.3274
G1 X63.0683 Y120.2193
G1 X63.1679 Y120.0284
G1 X63.1861 Y119.9923
G1 X63.3114 Y119.7245
G1 X63.3142 Y119.7179
G1 X63.3928 Y119.5134
G1 X63.4178 Y119.4334
G1 X63.4611 Y119.2544
G1 X63.4846 Y119.0717
G1 X63.4892 Y118.9625
G1 X63.4759 Y118.8247
G1 X63.4672 Y118.7803
G1 X63.4345 Y118.6814
G1 X63.3835 Y118.5907
G1 X63.3161 Y118.5114
G1 X63.3106 Y118.5061
G1 X63.2168 Y118.436
G1 X63.1131 Y118.3832
G1 X62.9586 Y118.334
G1 X62.7992 Y118.3043
G1 X62.7762 Y118.3016
G1 X62.5301 Y118.2834
G1 X62.4302 Y118.2817
G1 X62.3637 Y118.2739
G1 X62.3025 Y118.2469
G1 X62.2996 Y118.245
G1 X62.2568 Y118.1999
G1 X62.2305 Y118.1436
G1 X62.2273 Y118.1303
G1 X62.216 Y118.0406
G1 X62.2214 Y117.9324
G1 X62.2226 Y117.924
G1 X62.2493 Y117.7772
G1 X62.3335 Y117.4841
G1 X62.41 Y117.266
G1 X62.5334 Y116.9395
G1 X62.5666 Y116.853
G1 X62.6412 Y116.6562
G1 X62.7221 Y116.4315
G1 X62.8033 Y116.172
G1 X62.8429 Y116.0019
G1 X62.8601 Y115.8672
G1 X62.858 Y115.771
G1 X62.8436 Y115.7006
G1 X62.8005 Y115.603
G1 X62.74 Y115.5151
G1 X62.6642 Y115.4401
G1 X62.6295 Y115.4139
G1 X62.5023 Y115.3395
G1 X62.3661 Y115.2829
G1 X62.3046 Y115.2642
G1 X62.1107 Y115.2146
G1 X62.0744 Y115.2076
G1 X62.0126 Y115.1951
G1 X61.8716 Y115.1686
G1 X61.7965 Y115.1547
G1 X61.6265 Y115.1211
G1 X61.5365 Y115.1006
G1 X61.3353 Y115.0412
G1 X61.4595 Y114.7717
G1 X61.6979 Y114.2692
G1 X61.911 Y113.8318
G1 X62.1001 Y113.4502
G1 X62.2671 Y113.1171
G1 X62.8571 Y111.9543
G1 X63.4462 Y110.7909
G1 X63.9914 Y109.7063
G1 X64.8135 Y108.0815
G1 X65.226 Y107.2699
G1 X65.6392 Y106.4586
G1 X65.6879 Y106.5745
G1 X65.7544 Y106.6812
G1 X65.767 Y106.6977
G1 X65.8427 Y106.791
G1 X65.9167 Y106.8768
G1 X65.9837 Y106.9596
G1 X66.052 Y107.0609
G1 X66.1029 Y107.172
G1 X66.1349 Y107.2899
G1 X66.1402 Y107.322
G1 X66.1475 Y107.4607
G1 X66.1347 Y107.5991
G1 X66.1322 Y107.6136
G1 X66.0869 Y107.8135
G1 X66.0833 Y107.8263
G1 X65.9933 Y108.0822
G1 X65.8848 Y108.3308
G1 X65.8348 Y108.4307
G1 X65.7751 Y108.5431
G1 X65.7124 Y108.6515
G1 X65.4932 Y108.9967
G1 X65.446 Y109.0664
G1 X65.182 Y109.4458
G1 X64.928 Y109.7968
G1 X64.8678 Y109.8787
G1 X64.6292 Y110.1997
G1 X64.177 Y110.798
G1 X63.3785 Y111.8405
G1 X63.0786 Y112.2321
G1 X62.5563 Y112.9201
G1 X62.5075 Y112.9851
G1 X62.3192 Y113.2373
G1 X61.8532 Y113.8803
G1 X61.6759 Y114.134
G1 X61.5973 Y114.2507
G1 X61.4625 Y114.4582
G1 X61.2961 Y114.7405
G1 X61.2725 Y114.7839
G1 X61.2271 Y114.8767
G1 X61.1792 Y115.0032
G1 X61.1713 Y115.0313
G1 X61.1645 Y115.0823
G1 X61.1694 Y115.121
G1 X61.1927 Y115.1523
G1 X61.1948 Y115.1538
G1 X61.2422 Y115.1645
G1 X61.2722 Y115.1611
G1 X61.3826 Y115.1254
G1 X61.4548 Y115.0898
G1 X61.6216 Y114.9951
G1 X61.7808 Y114.8937
G1 X62.1958 Y114.6042
G1 X62.3858 Y114.4633
G1 X62.9213 Y114.0536
G1 X62.9384 Y114.0401
G1 X63.1948 Y113.8385
G1 X63.2258 Y113.8139
G1 X63.7174 Y113.4206
G1 X65.2629 Y112.155
G1 X65.5425 Y111.9232
G1 X66.2238 Y111.3577
G1 X68.0002 Y109.8866
G1 X68.6135 Y109.3847
G1 X69.2166 Y108.898
G1 X69.6723 Y108.5371
G1 X70.0169 Y108.27
G1 X70.2778 Y108.0726
G1 X70.6748 Y107.7843
G1 X70.7757 Y107.7145
G1 X70.852 Y107.663
G1 X71.0853 Y107.5156
G1 X71.1726 Y107.4654
G1 X71.4023 Y107.3433
G1 X71.5422 Y107.2795
G1 X71.63 Y107.2444
G1 X71.7936 Y107.1945
G1 X71.807 Y107.1913
G1 X71.9112 Y107.1778
G1 X71.9749 Y107.1793
G1 X72.0397 Y107.1951
G1 X72.0969 Y107.2293
G1 X72.1048 Y107.2362
G1 X72.1443 Y107.2902
G1 X72.1632 Y107.3399
G1 X72.179 Y107.4498
G1 X72.1756 Y107.5547
G1 X72.144 Y107.7574
G1 X72.1033 Y107.9213
G1 X71.9582 Y108.3956
G1 X71.9381 Y108.4563
G1 X71.8529 Y108.723
G1 X71.7764 Y108.9923
G0 Z100.0
G0 X72.6472 Y106.0705
G1 F100.0 Z0.0
G1 F1000.0 X72.8848 Y105.9987
G1 X73.0014 Y105.9556
G1 X73.3368 Y105.8117
G1 X73.6344 Y105.6652
G1 X73.7696 Y105.5952
G1 X74.0293 Y105.4552
G1 X74.637 Y105.1077
G1 X74.9848 Y104.8982
G1 X75.3381 Y104.681
G1 X75.6458 Y104.4885
G1 X77.0341 Y103.5957
G1 X77.7778 Y103.1076
G0 Z100.0
G0 X75.3072 Y101.2996
G1 F100.0 Z0.0
G1 F1000.0 X75.3239 Y101.054
G1 X75.3605 Y100.8105
G1 X75.3689 Y100.7686
G1 X75.4403 Y100.4807
G1 X75.4898 Y100.3186
G1 X75.6115 Y99.9821
G1 X75.7518 Y99.6529
G1 X75.7939 Y99.5633
G1 X76.029 Y99.0949
G1 X76.2818 Y98.6359
G1 X76.3688 Y98.4869
G1 X76.6785 Y97.9786
G1 X76.6865 Y97.966
G1 X76.8505 Y97.7087
G1 X77.0174 Y97.4532
G1 X76.9751 Y97.4015
G1 X76.9572 Y97.3636
G1 X76.9358 Y97.274
G1 X76.9341 Y97.2581
G1 X76.9334 Y97.122
G1 X76.9419 Y97.046
G1 X76.9868 Y96.8083
G1 X77.0308 Y96.6413
G1 X77.1081 Y96.3783
G1 X77.1539 Y96.229
G1 X77.2705 Y95.8319
G1 X77.325 Y95.6022
G1 X77.3509 Y95.4298
G1 X77.3566 Y95.3341
G1 X77.3503 Y95.2366
G1 X77.3399 Y95.1898
G1 X77.3148 Y95.1272
G1 X77.2724 Y95.0748
G1 X77.2477 Y95.0552
G1 X77.1803 Y95.0247
G1 X77.1415 Y95.0162
G1 X77.0373 Y95.0085
G1 X77.0287 Y95.0087
G1 X76.9537 Y95.0137
G1 X76.7576 Y95.0476
G1 X76.6624 Y95.0716
G1 X76.5809 Y95.0946
G1 X76.1989 Y95.2216
G1 X75.9506 Y95.3158
G1 X75.7728 Y95.3843
G1 X75.57 Y95.4626
G1 X75.4616 Y95.5039
G1 X75.3459 Y95.547
G1 X75.3164 Y95.5578
G1 X75.0457 Y95.6514
G1 X74.763 Y95.7307
G1 X74.7304 Y95.7386
G1 X74.5835 Y95.7642
G1 X74.5579 Y95.7666
G1 X74.4475 Y95.771
G1 X74.37 Y95.762
G0 Z100.0
G0 X75.4681 Y94.5787
G1 F100.0 Z0.0
G1 F1000.0 X75.5663 Y94.5512
G1 X75.6635 Y94.5203
G1 X75.8556 Y94.452
G1 X75.9824 Y94.403
G1 X76.1502 Y94.3348
G1 X76.3727 Y94.2408
G1 X76.6683 Y94.113
G1 X77.0634 Y93.9451
G1 X77.4173 Y93.8086
G1 X77.6001 Y93.7463
G1 X77.7847 Y93.6971
G1 X77.9197 Y93.6738
G1 X78.0255 Y93.6687
G1 X78.0963 Y93.6766
G1 X78.1606 Y93.6975
G1 X78.1836 Y93.7106
G1 X78.227 Y93.7519
G1 X78.2498 Y93.7925
G1 X78.2666 Y93.8672
G1 X78.2669 Y93.9161
G1 X78.2503 Y94.0243
G1 X78.2424 Y94.0531
G1 X78.229 Y94.0976
G1 X78.1628 Y94.2707
G1 X78.027 Y94.5523
G1 X78.0003 Y94.6025
G1 X77.739 Y95.0594
G1 X77.6299 Y95.239
G1 X77.5188 Y95.4175
G1 X77.3901 Y95.6204
G1 X77.0419 Y96.1574
G1 X76.9482 Y96.3
G1 X76.7336 Y96.6255
G1 X76.619 Y96.799
G1 X76.358 Y97.1959
G1 X76.0628 Y97.6513
G1 X75.9875 Y97.7695
G1 X75.8288 Y98.0225
G1 X75.5549 Y98.482
G1 X75.4822 Y98.6108
G1 X75.3246 Y98.9168
G1 X75.3159 Y98.935
G1 X75.2968 Y98.9767
G1 X75.2599 Y99.0625
G0 Z100.0
G0 X75.9919 Y98.3588
G1 F100.0 Z0.0
G1 F1000.0 X76.012 Y98.4178
G1 X76.0146 Y98.443
G1 X76.0109 Y98.5301
G1 X75.978 Y98.6786
G1 X75.9722 Y98.6979
G1 X75.8884 Y98.9261
G1 X75.8499 Y99.0147
G1 X75.6638 Y99.4016
G1 X75.5511 Y99.6156
G1 X75.3384 Y100.0075
G1 X75.2156 Y100.2305
G1 X74.8933 Y100.8263
G1 X74.8106 Y100.9868
G1 X74.7255 Y101.1595
G1 X74.7045 Y101.2037
G1 X74.5971 Y101.4493
G1 X74.5356 Y101.6178
G1 X74.5011 Y101.7497
G1 X74.4879 Y101.853
G1 X74.4922 Y101.9184
G1 X74.5152 Y101.978
G1 X74.5477 Y102.0082
G1 X74.5671 Y102.0167
G1 X74.6313 Y102.0259
G1 X74.7274 Y102.0149
G1 X74.7556 Y102.0078
G1 X74.9249 Y101.9529
G1 X74.9845 Y101.9284
G1 X75.2782 Y101.7921
G1 X75.4098 Y101.7238
G1 X75.6849 Y101.5749
G1 X76.0467 Y101.3716
G1 X76.1429 Y101.317
G1 X76.3626 Y101.1928
G1 X76.6144 Y101.0529
G1 X76.7495 Y100.9798
G1 X77.0544 Y100.8244
G1 X77.0621 Y100.8208
G1 X77.1442 Y100.7826
G1 X77.2299 Y100.7452
G1 X77.4009 Y100.6813
G1 X77.4171 Y100.6763
G1 X77.5174 Y100.6518
G1 X77.6092 Y100.6458
G1 X77.625 Y100.6468
G1 X77.669 Y100.6585
G1 X77.7036 Y100.688
G1 X77.7219 Y100.7275
G1 X77.725 Y100.793
G1 X77.7228 Y100.8087
G1 X77.7025 Y100.8932
G1 X77.7 Y100.9
G1 X77.6832 Y100.9462
G1 X77.5852 Y101.1553
G1 X77.5517 Y101.2174
G1 X77.3983 Y101.4769
G1 X77.0961 Y101.9362
G1 X77.0663 Y101.9795
G1 X76.8354 Y102.3079
G1 X76.773 Y102.3949
G1 X76.436 Y102.8556
G1 X76.241 Y103.1169
G1 X75.7154 Y103.8092
G1 X75.5742 Y103.9931
G1 X74.8175 Y104.9701
G1 X73.8058 Y106.2701
G1 X72.9005 Y107.4491
G1 X72.474 Y108.0161
G1 X72.1285 Y108.489
G1 X71.9535 Y108.7355
G1 X71.7763 Y108.9924
G1 X70.9609 Y110.2201
G1 X70.6945 Y110.6329
G1 X70.2016 Y111.4196
G1 X69.7257 Y112.2166
G1 X69.6712 Y112.3105
G1 X69.3712 Y112.8499
G1 X69.0889 Y113.3988
G1 X69.0553 Y113.4672
G1 X68.8814 Y113.8477
G1 X68.7567 Y114.1545
G0 Z100.0
G0 X69.9273 Y113.0407
G1 F100.0 Z0.0
G1 F1000.0 X69.7724 Y113.263
G1 X69.6186 Y113.4863
G1 X69.3156 Y113.9357
G1 X69.1171 Y114.2378
G1 X68.8577 Y114.6439
G1 X68.5295 Y115.1788
G1 X68.2184 Y115.7239
G1 X67.9249 Y116.2786
G1 X67.9044 Y116.319
G1 X67.7919 Y116.5501
G1 X67.6035 Y116.968
G1 X67.4336 Y117.3937
G1 X67.2831 Y117.8242
G1 X67.1956 Y118.1198
G1 X67.1843 Y118.1624
G1 X67.156 Y118.2765
G1 X67.1102 Y118.5029
G1 X67.0841 Y118.7324
G1 X67.0835 Y118.7407
G1 X67.0829 Y118.8828
G1 X67.1023 Y119.0236
G1 X67.1092 Y119.054
G1 X67.144 Y119.1475
G1 X67.1871 Y119.2192
G1 X67.2467 Y119.2814
G1 X67.3192 Y119.3281
G1 X67.3644 Y119.3468
G1 X67.4783 Y119.3726
G1 X67.5949 Y119.3786
G1 X67.6255 Y119.3768
G1 X67.7999 Y119.354
G1 X67.9205 Y119.3261
G1 X68.1261 Y119.2558
G1 X68.1309 Y119.2539
G1 X68.3342 Y119.1635
G1 X68.6509 Y119.0014
G1 X68.7284 Y118.9582
G1 X69.2543 Y118.6517
G1 X69.4921 Y118.5053
G1 X69.7072 Y118.3708
G1 X69.952 Y118.2156
G1 X70.2308 Y118.0369
G1 X70.972 Y117.5578
G1 X71.396 Y117.2849
G1 X72.0308 Y116.8854
G1 X72.5411 Y116.5809
G1 X72.6922 Y116.4956
G1 X72.8495 Y116.41
G1 X72.9302 Y116.3678
G1 X73.0984 Y116.2844
G0 Z100.0
G0 X72.1613 Y117.2531
G1 F100.0 Z0.0
G1 F1000.0 X71.6791 Y117.4197
G1 X71.6525 Y117.4282
G1 X71.3217 Y117.525
G1 X71.2474 Y117.544
G1 X70.9874 Y117.5984
G1 X70.9204 Y117.6092
G1 X70.7184 Y117.6268
G1 X70.657 Y117.6282
G1 X70.5273 Y117.6179
G1 X70.4527 Y117.6026
G1 X70.3648 Y117.5705
G1 X70.3097 Y117.5381
G1 X70.2482 Y117.4823
G1 X70.2018 Y117.4135
G1 X70.1765 Y117.3484
G1 X70.1568 Y117.2369
G1 X70.1571 Y117.1236
G1 X70.1577 Y117.1174
G1 X69.816 Y117.2809
G1 X69.4736 Y117.4426
G1 X68.8899 Y117.7049
G1 X68.7818 Y117.7511
G1 X68.7595 Y117.7603
G1 X68.5555 Y117.8423
G1 X68.2717 Y117.9456
G1 X67.9983 Y118.0256
G1 X67.8155 Y118.0623
G1 X67.6659 Y118.0775
G1 X67.559 Y118.0737
G1 X67.4854 Y118.0593
G1 X67.418 Y118.0335
G1 X67.3602 Y117.9902
G1 X67.3191 Y117.9372
G1 X67.2906 Y117.8653
G1 X67.2831 Y117.8242
G0 Z100.0
G0 X67.9205 Y119.3261
G0 Z1.0
G1 F100.0 Z0.0
G1 F1000.0 X68.0385 Y119.3287
G1 X68.0711 Y119.3258
G1 X68.2447 Y119.2945
G1 X68.3535 Y119.2643
G1 X68.6084 Y119.1754
G1 X68.8418 Y119.0783
G1 X69.3048 Y118.8585
G1 X69.691 Y118.6579
G1 X70.5745 Y118.1669
G1 X70.9303 Y117.9627
G1 X71.2378 Y117.7849
G1 X71.4684 Y117.6514
G1 X72.1613 Y117.2531
G0 Z100.0
G0 X70.0504 Y117.1363
G1 F100.0 Z0.0
G1 F1000.0 X69.8381 Y117.1874
G1 X69.7492 Y117.215
G1 X69.4556 Y117.3186
G1 X69.2629 Y117.3954
G1 X69.0086 Y117.504
G1 X68.9411 Y117.5339
G1 X68.5838 Y117.6976
G1 X68.1106 Y117.9227
G1 X68.0496 Y117.952
G1 X67.3993 Y118.263
G1 X66.8972 Y118.4922
G1 X66.5201 Y118.6501
G1 X66.2797 Y118.7392
G1 X65.7033 Y118.9293
G1 X65.1209 Y119.1002
G1 X64.9994 Y119.1332
G1 X64.5398 Y119.2458
G1 X64.0758 Y119.3389
G1 X63.6869 Y119.4013
G1 X63.5096 Y119.4235
G1 X63.4178 Y119.4334
G1 X63.1225 Y119.4533
G1 X62.8265 Y119.4531
G1 X62.5312 Y119.433
G1 X62.303 Y119.4036
G1 X61.9453 Y119.3382
G1 X61.9365 Y119.3363
G1 X61.452 Y119.2283
G0 Z100.0
G0 X62.8436 Y115.7006
G0 Z1.0
G1 F100.0 Z0.0
G1 F1000.0 X62.6418 Y116.1943
G1 X62.4421 Y116.6888
G1 X62.0491 Y117.6804
G1 X61.7913 Y118.343
G1 X61.452 Y119.2283
G1 X61.3707 Y119.4489
G1 X61.292 Y119.6705
G1 X61.141 Y120.116
G1 X61.1213 Y120.1756
G1 X60.8065 Y121.1282
G1 X60.6132 Y121.6707
G1 X60.5802 Y121.7576
G1 X60.3686 Y122.2861
G1 X60.2404 Y122.5824
G1 X60.0566 Y122.9601
G1 X59.8953 Y123.2581
G1 X59.8425 Y123.3528
G1 X59.7814 Y123.4607
G1 X59.7486 Y123.5181
G1 X59.7317 Y123.5478
G1 X59.5487 Y123.8621
G1 X58.8054 Y125.1125
G1 X58.5975 Y125.4724
G1 X58.489 Y125.6658
G1 X58.4755 Y125.6903
G1 X58.4203 Y125.7915
G1 X58.2433 Y126.1321
G1 X58.1817 Y126.2617
G1 X58.0789 Y126.5013
G1 X58.0715 Y126.5206
G1 X58.0166 Y126.6857
G1 X57.9886 Y126.8102
G1 X57.9815 Y126.8974
G1 X57.9906 Y126.9684
G1 X58.0473 Y127.0266
G1 X58.1165 Y127.0693
G1 X58.1647 Y127.0869
G1 X58.2838 Y127.1103
G1 X58.3507 Y127.1147
G1 X58.5284 Y127.1054
G1 X58.6974 Y127.0777
G1 X58.9824 Y127.0059
G1 X59.2618 Y126.915
G1 X59.281 Y126.9079
G1 X59.7403 Y126.73
G1 X60.1246 Y126.5642
G1 X60.5389 Y126.3748
G1 X60.9503 Y126.1796
G0 Z100.0
G0 X61.3132 Y127.956
G0 Z1.0
G1 F100.0 Z0.0
G1 F1000.0 X61.4027 Y127.9628
G1 X61.4297 Y127.9609
G1 X61.5812 Y127.9347
G1 X61.6482 Y127.9165
G1 X61.9033 Y127.8276
G1 X62.0387 Y127.7715
G1 X62.2053 Y127.6977
G1 X62.3603 Y127.6254
G1 X62.4326 Y127.5907
G1 X62.5722 Y127.5226
G1 X63.0931 Y127.2613
G1 X63.191 Y127.212
G1 X63.5597 Y127.0299
G1 X63.6296 Y126.9965
G1 X63.9602 Y126.8469
G1 X64.1629 Y126.7658
G1 X64.3444 Y126.7053
G1 X64.4454 Y126.6804
G1 X64.5822 Y126.6625
G1 X64.5942 Y126.6619
G1 X64.6655 Y126.6676
G1 X64.7325 Y126.6928
G1 X64.7399 Y126.697
G0 Z100.0
G0 X66.6994 Y129.0446
G1 F100.0 Z0.0
G1 F1000.0 X67.0241 Y128.8553
G1 X67.3259 Y128.6733
G1 X67.4667 Y128.5869
G1 X67.5348 Y128.5449
G1 X68.0689 Y128.2105
G1 X68.9995 Y127.6185
G1 X69.8793 Y127.0653
G1 X70.4059 Y126.7454
G1 X70.4505 Y126.719
G1 X70.9546 Y126.4331
G1 X71.1517 Y126.3275
G1 X71.3315 Y126.2375
G1 X71.3656 Y126.2211
G1 X71.4941 Y126.1621
G1 X71.5917 Y126.1204
G1 X71.7795 Y126.0508
G1 X71.8931 Y126.0186
G0 Z100.0
G0 X74.4079 Y127.8109
G1 F100.0 Z0.0
G1 F1000.0 X74.6206 Y127.7999
G1 X74.6954 Y127.7913
G1 X74.9746 Y127.7446
G1 X74.9797 Y127.7436
G1 X75.5431 Y127.6256
G1 X75.7046 Y127.5944
G1 X75.9464 Y127.5579
G1 X76.1402 Y127.5431
G1 X76.274 Y127.5477
G1 X76.391 Y127.5684
G1 X76.4756 Y127.6012
G1 X76.5157 Y127.625
G1 X76.5709 Y127.6753
G1 X76.6108 Y127.7385
G1 X76.6135 Y127.7446
G1 X76.6439 Y127.8497
G1 X76.6547 Y127.9585
G1 X76.6548 Y127.9618
G1 X76.6472 Y128.1274
G1 X76.6402 Y128.1823
G1 X76.5945 Y128.4215
G1 X76.5439 Y128.6099
G1 X76.456 Y128.8879
G1 X76.4011 Y129.0449
G1 X76.3355 Y129.223
G1 X76.2576 Y129.4252
G1 X76.1662 Y129.6548
G1 X76.0598 Y129.916
G1 X75.7755 Y130.61
G1 X75.7016 Y130.7958
G1 X75.876 Y130.7002
G1 X76.0407 Y130.6121
G1 X76.1962 Y130.5311
G1 X76.6143 Y130.3243
G1 X76.7889 Y130.2444
G1 X77.0172 Y130.1456
G1 X77.3262 Y130.0248
G1 X77.4255 Y129.9905
G1 X77.7418 Y129.8959
G1 X77.945 Y129.8508
G1 X78.1516 Y129.8255
G1 X78.2341 Y129.821
G1 X78.3709 Y129.8252
