( AxiDraw Fresh Postprocessor )
( RepeatedSquig1 7/30/2017 2:43:09 AM )
G21 G90
G00 Z100.0
( Engrave1 )
G64 G17
G00 X220.9943 Y97.5435
G01 F100.0 Z0.0
G01 F1000.0 X221.0021 Y97.5516
G01 X220.994 Y97.5572
G01 X220.9223 Y97.547
G01 X220.6429 Y97.4749
G01 X219.8046 Y97.2246
G01 X219.5406 Y97.1414
G01 X218.996 Y96.9693
G01 X218.454 Y96.7959
G01 X217.9145 Y96.6219
G01 X217.3775 Y96.4475
G01 X216.3084 Y96.0979
G01 X214.1891 Y95.3981
G01 X213.9284 Y95.3116
G01 X212.888 Y94.9654
G01 X211.8561 Y94.6209
G01 X211.3443 Y94.4497
G01 X209.3058 Y93.7657
G01 X207.2999 Y93.0898
G01 X203.3528 Y91.7533
G01 X202.3972 Y91.4286
G01 X198.6057 Y90.1367
G01 X194.9342 Y88.8805
G01 X191.3788 Y87.6598
G01 X190.9483 Y87.5117
G01 X187.5187 Y86.3299
G01 X184.1973 Y85.182
G01 X183.393 Y84.9035
G01 X182.595 Y84.6271
G01 X179.4288 Y83.5283
G01 X179.0454 Y83.3951
G01 X170.7317 Y80.4961
G01 X162.4247 Y77.5782
G01 X154.634 Y74.8224
G01 X150.0626 Y73.196
G01 X145.779 Y71.665
G01 X143.7718 Y70.9451
G01 X139.8841 Y69.5461
G01 X133.7731 Y67.3345
G01 X127.6689 Y65.104
G01 X125.3255 Y64.2421
G01 X122.5995 Y63.2351
G01 X117.5007 Y61.3365
G01 X112.409 Y59.4192
G01 X112.393 Y59.4131
G01 X110.4822 Y58.6864
G01 X108.6919 Y58.0016
G01 X108.2725 Y57.8406
G01 X107.8596 Y57.6818
G01 X106.2348 Y57.0548
G01 X104.7127 Y56.4638
G01 X103.2868 Y55.9067
G01 X101.9509 Y55.3813
G01 X101.7944 Y55.3195
G01 X100.5528 Y54.8276
G01 X97.8391 Y53.7401
G01 X95.9081 Y52.9531
G01 X95.4735 Y52.7743
G01 X95.0526 Y52.6005
G01 X94.2378 Y52.2621
G01 X92.2713 Y51.4333
G01 X91.1917 Y50.969
G01 X90.6221 Y50.7211
G01 X90.0886 Y50.4867
G01 X89.9637 Y50.4315
G01 X88.6035 Y49.8217
G01 X88.0032 Y49.5455
G01 X87.6368 Y49.375
G01 X87.4652 Y49.2945
G01 X86.802 Y48.9787
G01 X86.6572 Y48.9087
G01 X86.0976 Y48.6339
G01 X85.61 Y48.3882
G01 X85.3972 Y48.2787
G01 X85.1982 Y48.1749
G01 X85.0121 Y48.0765
G01 X84.6646 Y47.8885
G01 X84.091 Y47.563
G01 X84.0627 Y47.5463
G01 X83.9506 Y47.4795
G01 X83.7419 Y47.3518
G01 X83.4035 Y47.1324
G01 X83.0763 Y46.8965
G01 X83.0351 Y46.865
G01 X82.9924 Y46.8309
G01 X82.8147 Y46.6764
G01 X82.6917 Y46.5524
G01 X82.6015 Y46.4376
G01 X82.5676 Y46.3846
G01 X82.5264 Y46.2909
G01 X82.5254 Y46.2877
G01 X82.5134 Y46.2176
G01 X82.5149 Y46.1825
G01 X82.5349 Y46.1164
G01 X82.5729 Y46.0587
G01 X82.5885 Y46.0429
G01 X82.6687 Y45.9809
G01 X82.7079 Y45.9587
G01 X82.8564 Y45.8962
G01 X82.9764 Y45.8606
G01 X83.2032 Y45.8124
G01 X83.2535 Y45.8044
G01 X83.6212 Y45.7613
G01 X83.8131 Y45.7467
G01 X84.3688 Y45.7273
G01 X84.9248 Y45.7279
G01 X84.9309 Y45.728
G01 X85.2079 Y45.7342
G01 X86.0731 Y45.7705
G01 X86.3125 Y45.7841
G01 X86.8597 Y45.8201
G01 X87.9005 Y45.903
G01 X87.9484 Y45.9074
G01 X88.4879 Y45.9567
G01 X89.025 Y46.0092
G01 X89.5597 Y46.0644
G01 X89.8259 Y46.0928
G01 X91.7359 Y46.3137
G01 X93.6435 Y46.5543
G01 X94.069 Y46.6108
G01 X96.5441 Y46.9525
G01 X98.169 Y47.1879
G01 X99.1608 Y47.3352
G01 X100.1446 Y47.4836
G01 X102.0957 Y47.7844
G01 X104.0153 Y48.0875
G01 X105.9039 Y48.3918
G01 X107.7621 Y48.6964
G01 X108.6764 Y48.8479
G01 X112.9522 Y49.5691
G01 X115.9285 Y50.0832
G01 X116.7778 Y50.2311
G01 X118.4629 Y50.5265
G01 X121.7792 Y51.114
G01 X124.9905 Y51.69
G01 X128.1006 Y52.2538
G01 X128.4771 Y52.3224
G01 X131.4772 Y52.8718
G01 X134.3827 Y53.408
G01 X137.1969 Y53.9309
G01 X138.5598 Y54.1853
G01 X141.2425 Y54.6882
G01 X141.5674 Y54.7493
G01 X141.891 Y54.8102
G01 X144.4691 Y55.2965
G01 X145.0935 Y55.4146
G01 X150.0484 Y56.3563
G01 X152.3705 Y56.8001
G01 X154.6198 Y57.2314
G01 X158.9771 Y58.0706
G01 X161.0193 Y58.4654
G01 X162.0085 Y58.657
G01 X165.9029 Y59.4133
G01 X166.017 Y59.4355
G01 X166.1308 Y59.4577
G01 X166.2445 Y59.4798
G01 X169.8735 Y60.1874
G01 X176.6769 Y61.5202
G01 X182.6287 Y62.6917
G01 X185.2324 Y63.2056
G01 X190.114 Y64.1708
G01 X207.1979 Y67.5572
G01 X207.7318 Y67.6629
G01 X211.8701 Y68.4801
G01 X212.6461 Y68.6329
G01 X213.3737 Y68.7759
G01 X216.1024 Y69.3101
G01 X218.1498 Y69.7074
G01 X218.9177 Y69.8552
G01 X219.2538 Y69.9197
G01 X219.4113 Y69.9498
G01 X220.6326 Y70.1817
G01 X221.549 Y70.3531
G01 X221.7209 Y70.3848
G01 X222.3658 Y70.5026
G01 X223.3347 Y70.6724
G01 X223.3954 Y70.6825
G01 X223.623 Y70.7197
G01 X223.794 Y70.7463
G01 X224.051 Y70.7827
G01 X224.1803 Y70.7972
G01 X224.2454 Y70.8018
G01 X224.2782 Y70.8023
G01 X224.3104 Y70.7958
G01 X224.307 Y70.787
G01 X224.2437 Y70.7579
G01 X223.9778 Y70.6784
G01 X223.9109 Y70.6605
G01 X223.8773 Y70.6516
G01 X222.8827 Y70.4101
G01 X222.8017 Y70.3914
G01 X221.7308 Y70.1486
G01 X220.667 Y69.9137
G01 X220.4029 Y69.8561
G01 X219.3486 Y69.6276
G01 X218.302 Y69.403
G01 X218.1721 Y69.3752
G01 X216.0965 Y68.9347
G01 X216.0326 Y68.9212
G01 X210.0203 Y67.6647
G01 X207.8572 Y67.2176
G01 X204.023 Y66.4284
G01 X203.0943 Y66.2379
G01 X202.1728 Y66.049
G01 X198.5153 Y65.3014
G01 X198.0723 Y65.211
G01 X194.5424 Y64.4923
G01 X193.6874 Y64.3185
G01 X186.9003 Y62.9429
G01 X180.5364 Y61.6584
G01 X174.5694 Y60.4581
G01 X174.3945 Y60.423
G01 X171.6027 Y59.8626
G01 X166.1931 Y58.779
G01 X161.1212 Y57.7654
G01 X159.9323 Y57.5282
G01 X155.2512 Y56.5952
G01 X141.3202 Y53.8295
G01 X127.3854 Y51.0835
G01 X120.1303 Y49.6618
G01 X115.7381 Y48.8052
G01 X114.7772 Y48.6182
G01 X106.5491 Y47.0243
G01 X99.8783 Y45.747
G01 X98.0148 Y45.3933
G01 X96.3839 Y45.0853
G01 X94.9565 Y44.8173
G01 X92.4579 Y44.3524
G01 X91.5205 Y44.1798
G01 X89.8794 Y43.8812
G01 X89.5716 Y43.8258
G01 X89.4272 Y43.7999
G01 X88.3085 Y43.6013
G01 X87.8886 Y43.528
G01 X87.1535 Y43.4019
G01 X86.6016 Y43.3099
G01 X85.7722 Y43.1794
G01 X85.564 Y43.1494
G01 X85.4075 Y43.1282
G01 X85.1718 Y43.1002
G01 X85.0521 Y43.0898
G01 X84.9897 Y43.087
G01 X84.9544 Y43.0876
G01 X84.9279 Y43.0911
G01 X84.9181 Y43.0962
G01 X84.9234 Y43.1091
G01 X84.935 Y43.1169
G01 X85.0624 Y43.1699
G01 X85.0747 Y43.1739
G01 X85.3616 Y43.2662
G01 X85.5057 Y43.3094
G01 X85.7942 Y43.393
G01 X86.8419 Y43.6819
G01 X86.9506 Y43.7107
G01 X87.5256 Y43.8636
G01 X88.6722 Y44.1635
G01 X89.2415 Y44.3106
G01 X90.3761 Y44.6015
G01 X92.6294 Y45.1722
G01 X94.8487 Y45.7284
G01 X97.0344 Y46.2722
G01 X99.1866 Y46.8045
G01 X101.3057 Y47.3264
G01 X103.3923 Y47.8383
G01 X105.4465 Y48.3406
G01 X105.6994 Y48.4024
G01 X107.7179 Y48.8944
G01 X108.7116 Y49.1362
G01 X110.6835 Y49.6152
G01 X114.5664 Y50.5553
G01 X116.4474 Y51.0094
G01 X118.2993 Y51.4558
G01 X121.9456 Y52.3325
G01 X123.7121 Y52.7562
G01 X123.9295 Y52.8083
G01 X125.6651 Y53.224
G01 X129.0824 Y54.0409
G01 X140.3356 Y56.7151
G01 X151.5934 Y59.3699
G01 X155.5821 Y60.3056
G01 X156.2036 Y60.451
G01 X161.137 Y61.6031
G01 X165.763 Y62.679
G01 X167.9319 Y63.182
G01 X172.1346 Y64.1538
G01 X174.105 Y64.6081
G01 X177.9232 Y65.4857
G01 X179.7132 Y65.8959
G01 X181.4476 Y66.2926
G01 X184.8083 Y67.0589
G01 X186.384 Y67.4171
G01 X187.1473 Y67.5903
G01 X188.6501 Y67.9309
G01 X191.5623 Y68.5887
G01 X192.9276 Y68.896
G01 X193.0103 Y68.9146
G01 X193.0928 Y68.9332
G01 X193.1752 Y68.9517
G01 X195.8055 Y69.5417
G01 X196.4221 Y69.6796
G01 X197.0292 Y69.8153
G01 X198.2243 Y70.0818
G01 X200.5402 Y70.5965
G01 X202.7119 Y71.0769
G01 X204.7485 Y71.5251
G01 X208.5685 Y72.3592
G01 X210.2406 Y72.7213
G01 X213.3769 Y73.3945
G01 X213.5486 Y73.4311
G01 X216.2733 Y74.0082
G01 X216.8696 Y74.1334
G01 X217.4475 Y74.2544
G01 X219.6871 Y74.7192
G01 X220.1774 Y74.82
G01 X220.6524 Y74.9172
G01 X222.4936 Y75.2907
G01 X224.1061 Y75.6122
G01 X225.5182 Y75.8886
G01 X227.7005 Y76.3038
G01 X227.9928 Y76.3578
G01 X228.4575 Y76.4432
G01 X229.3297 Y76.6004
G01 X229.7115 Y76.6679
G01 X229.8907 Y76.6992
G01 X230.5851 Y76.8183
G01 X230.7372 Y76.8439
G01 X230.8846 Y76.8685
G01 X231.456 Y76.9618
G01 X231.9567 Y77.0405
G01 X232.176 Y77.074
G01 X233.0618 Y77.201
G01 X233.826 Y77.2944
G01 X234.3909 Y77.347
G01 X234.6608 Y77.3651
G01 X234.9899 Y77.3727
G01 X235.085 Y77.3711
G01 X235.2717 Y77.3557
G01 X235.3011 Y77.3514
G01 X235.3972 Y77.3279
G01 X235.4097 Y77.3232
G01 X235.4592 Y77.2962
G01 X235.4607 Y77.295
G01 X235.4844 Y77.2654
G01 X235.4899 Y77.2446
G01 X235.4785 Y77.1959
G01 X235.4613 Y77.1685
G01 X235.3823 Y77.0863
G01 X235.3499 Y77.0598
G01 X235.1763 Y76.9383
G01 X235.0936 Y76.8885
G01 X235.0273 Y76.8498
G01 X234.6402 Y76.6435
G01 X234.4836 Y76.5663
G01 X234.4493 Y76.5496
G01 X233.8959 Y76.2926
G01 X233.6181 Y76.1695
G01 X233.3399 Y76.0489
G01 X232.7823 Y75.8138
G01 X232.2246 Y75.5851
G01 X231.6674 Y75.3614
G01 X230.1907 Y74.7846
G01 X229.4366 Y74.4983
G01 X228.8858 Y74.2907
G01 X228.6112 Y74.1879
G01 X227.514 Y73.7807
G01 X226.4238 Y73.381
G01 X225.8824 Y73.184
G01 X225.6127 Y73.0862
G01 X224.5352 Y72.6977
G01 X224.0004 Y72.506
G01 X222.9342 Y72.1258
G01 X222.6696 Y72.0318
G01 X218.7013 Y70.6375
G01 X214.7265 Y69.2621
G01 X214.2016 Y69.0821
G01 X212.2132 Y68.4014
G01 X210.2549 Y67.7343
G01 X209.2907 Y67.407
G01 X207.3768 Y66.7591
G01 X207.259 Y66.7193
G01 X203.4927 Y65.4513
G01 X201.6675 Y64.8396
G01 X200.7689 Y64.539
G01 X198.9856 Y63.9437
G01 X197.2298 Y63.3589
G01 X193.7719 Y62.211
G01 X187.0685 Y59.9978
G01 X177.9258 Y57.0008
G01 X174.4893 Y55.8797
G01 X171.736 Y54.9835
G01 X169.0683 Y54.1167
G01 X163.8986 Y52.4411
G01 X159.0505 Y50.8744
G01 X154.5044 Y49.409
G01 X150.2415 Y48.0382
G01 X148.243 Y47.3966
G01 X144.3702 Y46.155
G01 X137.107 Y43.8331
G01 X130.7496 Y41.8075
G01 X125.1854 Y40.0401
G01 X122.7505 Y39.2683
G01 X121.6091 Y38.9068
G01 X119.3974 Y38.2071
G01 X119.1381 Y38.1251
G01 X115.0229 Y36.8259
G01 X114.5727 Y36.6839
G01 X114.1294 Y36.5442
G01 X112.3844 Y35.9946
G01 X109.112 Y34.9658
G01 X107.68 Y34.5164
G01 X104.9947 Y33.6752
G01 X104.4072 Y33.4914
G01 X99.8531 Y32.0709
G01 X96.4358 Y31.0108
G01 X91.3053 Y29.4347
G01 X90.0212 Y29.0454
G01 X89.0574 Y28.7556
G01 X88.8766 Y28.7016
G01 X88.707 Y28.6511
G01 X88.0708 Y28.4626
G01 X87.5932 Y28.3229
G01 X86.8754 Y28.1178
G01 X86.6953 Y28.0681
G01 X86.4245 Y27.9963
G01 X86.288 Y27.9631
G01 X86.2536 Y27.9554
G01 X86.2015 Y27.9451
G01 X86.1748 Y27.9411
G01 X86.1606 Y27.9399
G01 X86.1522 Y27.9401
G01 X86.1485 Y27.9474
G01 X86.2181 Y27.986
G01 X86.2542 Y28.0026
G01 X86.4 Y28.0651
G01 X86.4366 Y28.0802
G01 X86.7307 Y28.1982
G01 X87.3206 Y28.4262
G01 X87.9098 Y28.6491
G01 X89.0857 Y29.0876
G01 X89.6697 Y29.3034
G01 X90.2516 Y29.5176
G01 X95.4869 Y31.4246
G01 X99.543 Y32.8874
G01 X103.9032 Y34.4536
G01 X106.0157 Y35.2106
G01 X110.1758 Y36.6982
G01 X114.2067 Y38.1367
G01 X116.1595 Y38.8327
G01 X120.0046 Y40.2014
G01 X127.4561 Y42.8486
G01 X130.9497 Y44.0875
G01 X131.3728 Y44.2375
G01 X138.1164 Y46.6251
G01 X138.9068 Y46.9047
G01 X142.0437 Y48.0135
G01 X148.1224 Y50.1596
G01 X149.5473 Y50.6622
G01 X155.1582 Y52.6392
G01 X160.4194 Y54.4902
G01 X161.036 Y54.707
G01 X165.9307 Y56.4262
G01 X170.5203 Y58.036
G01 X171.596 Y58.413
G01 X173.7141 Y59.1549
G01 X175.7662 Y59.8732
G01 X179.7424 Y61.2635
G01 X187.1996 Y63.8655
G01 X193.7267 Y66.1362
G01 X193.816 Y66.1672
G01 X199.518 Y68.1447
G01 X202.0134 Y69.008
G01 X203.1832 Y69.4123
G01 X205.4501 Y70.1948
G01 X213.9548 Y73.1174
G01 X217.1462 Y74.2075
G01 X217.3208 Y74.267
G01 X217.4941 Y74.3261
G01 X220.2444 Y75.2613
G01 X220.8462 Y75.4654
G01 X221.4294 Y75.6629
G01 X223.6895 Y76.4264
G01 X225.668 Y77.0917
G01 X227.4002 Y77.6711
G01 X228.9167 Y78.1757
G01 X229.2487 Y78.2857
G01 X230.5352 Y78.7106
G01 X231.0984 Y78.8957
G01 X232.1548 Y79.2413
G01 X232.6172 Y79.3918
G01 X233.051 Y79.5325
G01 X234.6789 Y80.0551
G01 X235.9021 Y80.4404
G01 X236.3617 Y80.5828
G01 X237.167 Y80.8281
G01 X237.3184 Y80.8734
G01 X237.8865 Y81.0404
G01 X238.6085 Y81.2423
G01 X238.7429 Y81.2776
G01 X238.9586 Y81.3322
G01 X239.1212 Y81.3708
G01 X239.2438 Y81.3976
G01 X239.3361 Y81.4159
G01 X239.4759 Y81.438
G01 X239.5468 Y81.4439
G01 X239.6034 Y81.4399
G01 X239.6174 Y81.4356
G01 X239.6291 Y81.4207
G01 X239.6284 Y81.4135
G01 X239.6063 Y81.3813
G01 X239.5123 Y81.3083
G01 X239.4836 Y81.2906
G01 X239.2476 Y81.1558
G01 X239.219 Y81.141
G01 X238.9487 Y81.0036
G01 X238.9317 Y80.9952
G01 X238.6593 Y80.8637
G01 X238.591 Y80.8315
G01 X237.4726 Y80.3232
G01 X236.386 Y79.8501
G01 X235.84 Y79.6164
G01 X235.2954 Y79.3851
G01 X234.2091 Y78.9283
G01 X233.6695 Y78.7031
G01 X233.1317 Y78.4796
G01 X232.0595 Y78.0365
G01 X231.5272 Y77.8175
G01 X230.4662 Y77.3826
G01 X229.9396 Y77.1675
G01 X227.8401 Y76.3138
G01 X225.7716 Y75.4777
G01 X223.7342 Y74.6579
G01 X223.2326 Y74.4565
G01 X221.2337 Y73.6557
G01 X219.2652 Y72.8692
G01 X218.7807 Y72.6759
G01 X216.8497 Y71.9066
G01 X214.9485 Y71.1506
G01 X211.2043 Y69.6652
G01 X209.3902 Y68.9469
G01 X205.8181 Y67.5346
G01 X198.8948 Y64.8038
G01 X197.2717 Y64.1646
G01 X194.0762 Y62.9069
G01 X192.5282 Y62.298
G01 X189.4804 Y61.0997
G01 X177.6687 Y56.4605
G01 X156.9974 Y48.3441
G01 X155.0597 Y47.5825
G01 X151.3055 Y46.1062
G01 X144.2676 Y43.3354
G01 X138.1111 Y40.9069
G01 X138.0269 Y40.8736
G01 X132.6521 Y38.7483
G01 X130.3012 Y37.8169
G01 X129.1993 Y37.3799
G01 X127.0647 Y36.5325
G01 X126.8146 Y36.4331
G01 X122.8449 Y34.8532
G01 X116.928 Y32.4877
G01 X111.0186 Y30.1036
G01 X108.9711 Y29.2725
G01 X107.2401 Y28.5654
G01 X105.7266 Y27.9438
G01 X104.4034 Y27.3971
G01 X103.2464 Y26.9161
G01 X102.235 Y26.4928
G01 X101.7929 Y26.3068
G01 X101.3785 Y26.1318
G01 X100.6022 Y25.8022
G01 X100.2628 Y25.6573
G01 X100.1038 Y25.5892
G01 X99.9498 Y25.523
G01 X99.3536 Y25.2657
G01 X99.2232 Y25.2092
G01 X98.2149 Y24.7667
G01 X98.0261 Y24.6827
G01 X97.3199 Y24.3639
G01 X97.1878 Y24.3032
G01 X97.0639 Y24.246
G01 X96.2214 Y23.8435
G01 X96.1416 Y23.8042
G01 X95.9129 Y23.6872
G01 X95.8701 Y23.6647
G01 X95.5858 Y23.5076
G01 X95.5537 Y23.4884
G01 X95.3994 Y23.3889
G01 X95.3256 Y23.3303
G01 X95.292 Y23.2939
G01 X95.28 Y23.2706
G01 X95.2826 Y23.2485
G01 X95.2854 Y23.2449
G01 X95.3214 Y23.2287
G01 X95.3224 Y23.2285
G01 X95.4009 Y23.2235
G01 X95.6189 Y23.2454
G01 X95.7109 Y23.2607
G01 X96.0162 Y23.3209
G01 X96.3189 Y23.3895
G01 X97.1174 Y23.5902
G01 X97.5185 Y23.6988
G01 X98.1107 Y23.8629
G01 X98.4052 Y23.9462
G01 X99.5788 Y24.2861
G01 X100.7406 Y24.6317
G01 X101.8917 Y24.9803
G01 X103.0324 Y25.3303
G01 X104.1634 Y25.6808
G01 X105.2846 Y26.031
G01 X107.5076 Y26.7322
G01 X108.601 Y27.0797
G01 X110.7695 Y27.773
G01 X111.3029 Y27.9444
G01 X113.4276 Y28.6292
G01 X115.518 Y29.3065
G01 X117.575 Y29.9758
G01 X118.5872 Y30.306
G01 X122.6025 Y31.6214
G01 X130.3766 Y34.1872
G01 X134.0187 Y35.396
G01 X134.2392 Y35.4694
G01 X137.7595 Y36.6415
G01 X141.1688 Y37.7795
G01 X142.8199 Y38.3316
G01 X146.0702 Y39.4201
G01 X152.3656 Y41.5342
G01 X155.3159 Y42.5273
G01 X158.1736 Y43.4907
G01 X160.9416 Y44.425
G01 X166.3037 Y46.2383
G01 X171.3294 Y47.9415
G01 X171.6239 Y48.0414
G01 X176.3161 Y49.635
G01 X180.7143 Y51.1314
G01 X181.7451 Y51.4825
G01 X185.803 Y52.866
G01 X187.705 Y53.5152
G01 X195.0736 Y56.0349
G01 X198.2967 Y57.1395
G01 X201.3179 Y58.1762
G01 X206.9815 Y60.1235
G01 X208.2202 Y60.5501
G01 X213.0194 Y62.2053
G01 X217.2176 Y63.657
G01 X219.0539 Y64.2932
G01 X222.4963 Y65.488
G01 X225.5077 Y66.5359
G01 X228.1418 Y67.455
G01 X230.4461 Y68.2611
G01 X232.4617 Y68.9683
G01 X235.9872 Y70.2109
G01 X236.3176 Y70.3279
G01 X238.8769 Y71.2371
G01 X241.8066 Y72.2887
G01 X242.7102 Y72.6173
G01 X243.6666 Y72.968
G01 X244.3829 Y73.2339
G01 X244.9193 Y73.4358
G01 X245.7213 Y73.7457
G01 X245.7712 Y73.7656
G01 X245.818 Y73.7843
G01 X245.8619 Y73.8019
G01 X246.0261 Y73.8687
G01 X246.2707 Y73.9727
G01 X246.3314 Y74.0001
G01 X246.3541 Y74.0106
G01 X246.4326 Y74.0489
G01 X246.5072 Y74.0943
G01 X246.5145 Y74.1092
G01 X246.5141 Y74.1107
G01 X246.4772 Y74.1156
G01 X246.4043 Y74.1071
G01 X246.1312 Y74.051
G01 X246.1175 Y74.0476
G01 X245.8335 Y73.978
G01 X244.88 Y73.7233
G01 X244.7068 Y73.6748
G01 X244.1496 Y73.5181
G01 X243.5951 Y73.3599
G01 X241.5283 Y72.7584
G01 X241.3895 Y72.7172
G01 X240.3052 Y72.3966
G01 X239.2299 Y72.0765
G01 X237.0973 Y71.4375
G01 X236.5727 Y71.2796
G01 X236.0502 Y71.1221
G01 X233.9689 Y70.4929
G01 X231.9208 Y69.8711
G01 X229.9053 Y69.2574
G01 X225.9384 Y68.0452
G01 X222.0966 Y66.8671
G01 X221.6314 Y66.7243
G01 X217.9252 Y65.5845
G01 X210.7459 Y63.371
G01 X207.3811 Y62.3316
G01 X205.7515 Y61.8277
G01 X204.1473 Y61.3316
G01 X197.8314 Y59.3763
G01 X185.9908 Y55.705
G01 X144.5536 Y42.8398
G01 X139.3732 Y41.2337
G01 X138.2399 Y40.8826
G01 X129.4562 Y38.1643
G01 X127.8089 Y37.6554
G01 X121.6309 Y35.7504
G01 X116.9958 Y34.3265
G01 X116.5611 Y34.1933
G01 X114.8766 Y33.6778
G01 X111.9279 Y32.7787
G01 X109.7152 Y32.1081
G01 X109.3002 Y31.9828
G01 X107.7432 Y31.5149
G01 X105.405 Y30.8223
G01 X105.2586 Y30.7796
G01 X105.1213 Y30.7397
G01 X104.6063 Y30.5912
G01 X104.2195 Y30.4813
G01 X104.1468 Y30.4609
G01 X103.6014 Y30.3114
G01 X103.4643 Y30.2755
G01 X103.258 Y30.2243
G01 X103.1535 Y30.2012
G01 X103.1 Y30.1912
G01 X103.0715 Y30.1872
G01 X103.054 Y30.186
G01 X103.0381 Y30.1881
G01 X103.04 Y30.1964
G01 X103.0465 Y30.2017
G01 X103.1868 Y30.2706
G01 X103.3307 Y30.3308
G01 X103.3488 Y30.3381
G01 X103.4936 Y30.3958
G01 X103.5661 Y30.4242
G01 X103.8566 Y30.5356
G01 X104.0018 Y30.5904
G01 X104.2925 Y30.6989
G01 X104.5829 Y30.8062
G01 X104.6192 Y30.8195
G01 X105.1996 Y31.0314
G01 X105.4889 Y31.1362
G01 X105.7778 Y31.2404
G01 X105.922 Y31.2923
G01 X107.0752 Y31.7048
G01 X108.2205 Y32.1111
G01 X109.3575 Y32.5122
G01 X109.9218 Y32.7107
G01 X110.2029 Y32.8094
G01 X111.3253 Y33.2027
G01 X112.4392 Y33.592
G01 X112.992 Y33.7848
G01 X113.2673 Y33.8808
G01 X114.3665 Y34.2634
G01 X116.5484 Y35.0209
G01 X120.846 Y36.5067
G01 X120.9762 Y36.5516
G01 X125.1372 Y37.9841
G01 X126.1453 Y38.3304
G01 X128.1458 Y39.0168
G01 X132.085 Y40.3659
G01 X139.72 Y42.9718
G01 X143.3001 Y44.1901
G01 X145.0344 Y44.7795
G01 X146.7418 Y45.3593
G01 X153.466 Y47.6382
G01 X159.7718 Y49.769
G01 X165.6854 Y51.7617
G01 X171.2308 Y53.6254
G01 X173.8307 Y54.4975
G01 X174.4605 Y54.7085
G01 X175.0853 Y54.9179
G01 X176.3253 Y55.3332
G01 X181.2084 Y56.966
G01 X183.4978 Y57.7301
G01 X184.6069 Y58.0999
G01 X188.9744 Y59.554
G01 X189.9982 Y59.8943
G01 X191.0061 Y60.2291
G01 X194.9752 Y61.5456
G01 X196.8362 Y62.1617
G01 X198.6392 Y62.7578
G01 X207.3874 Y65.6382
G01 X212.6212 Y67.3515
G01 X212.7032 Y67.3782
G01 X212.785 Y67.405
G01 X220.5609 Y69.9304
G01 X223.2444 Y70.7971
G01 X225.2073 Y71.4282
G01 X230.3242 Y73.0628
G01 X232.5748 Y73.7752
G01 X232.7477 Y73.8298
G01 X235.4926 Y74.6929
G01 X237.8964 Y75.4424
G01 X238.9488 Y75.7683
G01 X240.9232 Y76.3755
G01 X242.6526 Y76.9019
G01 X244.1673 Y77.358
G01 X244.499 Y77.4571
G01 X245.7848 Y77.8386
G01 X245.9255 Y77.8801
G01 X246.0641 Y77.9208
G01 X247.1559 Y78.2396
G01 X247.634 Y78.3777
G01 X248.0826 Y78.5064
G01 X248.9244 Y78.7452
G01 X249.2931 Y78.8484
G01 X249.466 Y78.8966
G01 X249.6336 Y78.9431
G01 X250.2836 Y79.1213
G01 X250.426 Y79.1598
G01 X250.5639 Y79.197
G01 X251.0988 Y79.3394
G01 X252.0375 Y79.5808
G01 X252.7445 Y79.7523
G01 X253.4105 Y79.9016
G01 X253.8126 Y79.9818
G01 X253.8801 Y79.9942
G01 X254.134 Y80.0374
G01 X254.3257 Y80.0648
G01 X254.6026 Y80.0902
G01 X254.6157 Y80.0909
G01 X254.6892 Y80.0921
G01 X254.7446 Y80.0902
G01 X254.7861 Y80.0865
G01 X254.8476 Y80.0746
G01 X254.8949 Y80.0523
G01 X254.9033 Y80.0457
G01 X254.9191 Y80.0118
G01 X254.9152 Y79.9746
G01 X254.9077 Y79.9604
G01 X254.8501 Y79.8815
G01 X254.811 Y79.8428
G01 X254.7547 Y79.7928
G01 X254.6963 Y79.7456
G01 X254.4876 Y79.5954
G01 X254.4516 Y79.5719
G01 X254.0924 Y79.3468
G01 X253.9417 Y79.2591
G01 X253.4246 Y78.9691
G01 X253.4223 Y78.9679
G01 X252.4536 Y78.4576
G01 X251.4758 Y77.9651
G01 X251.3122 Y77.8849
G01 X251.1812 Y77.8205
G01 X251.0503 Y77.7563
G01 X250.9849 Y77.7243
G01 X249.9366 Y77.2178
G01 X248.893 Y76.7225
G01 X248.3743 Y76.4789
G01 X248.1157 Y76.358
G01 X247.0823 Y75.8782
G01 X246.0553 Y75.4057
G01 X243.3464 Y74.1745
G01 X241.9677 Y73.5563
G01 X241.8437 Y73.5008
G01 X240.8525 Y73.0581
G01 X238.8839 Y72.1839
G01 X238.6415 Y72.0766
G01 X238.3996 Y71.9696
G01 X236.467 Y71.1178
G01 X234.563 Y70.2829
G01 X232.6875 Y69.4639
G01 X230.8402 Y68.6601
G01 X229.0208 Y67.8711
G01 X227.229 Y67.0963
G01 X223.6995 Y65.5756
G01 X221.989 Y64.8411
G01 X215.2973 Y61.9798
G01 X215.2493 Y61.9594
G01 X213.6688 Y61.2861
G01 X212.1127 Y60.624
G01 X205.9829 Y58.0233
G01 X200.233 Y55.5926
G01 X197.5368 Y54.4555
G01 X197.2103 Y54.3178
G01 X196.885 Y54.1807
G01 X191.7002 Y51.9986
G01 X189.2693 Y50.977
G01 X188.6804 Y50.7297
G01 X188.0962 Y50.4844
G01 X186.9368 Y49.9978
G01 X186.3661 Y49.7583
G01 X181.8361 Y47.8592
G01 X177.5882 Y46.0808
G01 X173.6052 Y44.4153
G01 X166.1353 Y41.2963
G01 X159.5978 Y38.5706
G01 X153.8765 Y36.1878
G01 X133.8487 Y27.8565
G01 X128.842 Y25.7728
G01 X125.0877 Y24.2085
G01 X122.2727 Y23.0334
G01 X120.1622 Y22.1502
G01 X116.9989 Y20.8196
G01 X116.6038 Y20.6523
G01 X115.2226 Y20.0634
G01 X115.1363 Y20.0262
G01 X114.4907 Y19.7456
G01 X114.3297 Y19.6744
G01 X114.089 Y19.5657
G01 X114.029 Y19.5379
G01 X113.9841 Y19.5166
G01 X113.9173 Y19.4838
G01 X113.884 Y19.4664
G01 X113.8675 Y19.4569
G01 X113.859 Y19.4515
G01 X113.8542 Y19.4478
G01 X113.851 Y19.4439
G01 X113.8557 Y19.442
G01 X113.9309 Y19.4613
G01 X114.4391 Y19.6421
G01 X114.5145 Y19.6707
G01 X115.0921 Y19.8898
G01 X116.2396 Y20.3338
G01 X117.3764 Y20.7789
G01 X118.5035 Y21.2228
G01 X119.6211 Y21.6648
G01 X121.8376 Y22.545
G01 X124.0183 Y23.4142
G01 X126.1643 Y24.2718
G01 X130.3874 Y25.9643
G01 X131.41 Y26.3749
G01 X131.5368 Y26.4259
G01 X133.5636 Y27.2405
G01 X133.813 Y27.3408
G01 X137.7945 Y28.9438
G01 X137.915 Y28.9924
G01 X141.7674 Y30.5463
G01 X154.8462 Y35.838
G01 X167.9175 Y41.1482
G01 X180.9813 Y46.477
G01 X194.0375 Y51.8243
G01 X201.3915 Y54.8457
G01 X205.1125 Y56.3785
G01 X208.6002 Y57.8175
G01 X211.8691 Y59.1684
G01 X213.4012 Y59.8024
G01 X214.1433 Y60.1096
G01 X215.604 Y60.7148
G01 X221.2625 Y63.0641
G01 X226.2111 Y65.1263
G01 X230.5388 Y66.9366
G01 X231.4852 Y67.3335
G01 X231.9435 Y67.5258
G01 X235.5517 Y69.0435
G01 X238.7069 Y70.3765
G01 X240.0866 Y70.9613
G01 X240.2483 Y71.03
G01 X242.8135 Y72.1215
G01 X245.0564 Y73.0807
G01 X246.0371 Y73.5018
G01 X246.9562 Y73.8975
G01 X247.387 Y74.0833
G01 X249.055 Y74.8054
G01 X250.5131 Y75.4404
G01 X250.8319 Y75.5798
G01 X252.0664 Y76.1218
G01 X253.1455 Y76.5989
G01 X253.6172 Y76.8085
G01 X253.8382 Y76.907
G01 X254.6939 Y77.2903
G01 X255.4418 Y77.6279
G01 X256.9352 Y78.3117
G01 X258.0475 Y78.8354
G01 X258.9366 Y79.2673
G01 X259.3371 Y79.4693
G01 X259.6562 Y79.6351
G01 X259.8938 Y79.7629
G01 X260.0704 Y79.8617
G01 X260.3311 Y80.0178
G01 X260.4573 Y80.1023
G01 X260.5759 Y80.1974
G01 X260.6179 Y80.2465
G01 X260.6322 Y80.2825
G01 X260.6327 Y80.2944
G01 X260.6189 Y80.3221
G01 X260.6136 Y80.3265
G01 X260.5623 Y80.3501
G01 X260.5511 Y80.3526
G01 X260.5184 Y80.3586
G01 X260.3577 Y80.367
G01 X260.2537 Y80.3617
G01 X259.88 Y80.3225
G01 X259.7309 Y80.3012
G01 X259.6015 Y80.2809
G01 X259.3436 Y80.2371
G01 X258.4867 Y80.0693
G01 X258.3193 Y80.0342
G01 X257.3083 Y79.8091
G01 X257.1831 Y79.7801
G01 X256.1844 Y79.5427
G01 X254.3336 Y79.0811
G01 X254.2081 Y79.0491
G01 X253.2374 Y78.7986
G01 X251.3139 Y78.291
G01 X251.2547 Y78.2752
G01 X251.1956 Y78.2593
G01 X249.3069 Y77.7492
G01 X245.778 Y76.7743
G01 X242.2544 Y75.7803
G01 X241.8881 Y75.6757
G01 X241.454 Y75.5518
G01 X240.5894 Y75.3044
G01 X238.8746 Y74.8111
G01 X237.1873 Y74.3227
G01 X235.5272 Y73.8393
G01 X233.8937 Y73.3612
G01 X233.0898 Y73.1251
G01 X229.9011 Y72.1832
G01 X226.8141 Y71.2638
G01 X220.9132 Y69.4866
G01 X215.0181 Y67.6902
G01 X214.8684 Y67.6443
G01 X212.2583 Y66.8413
G01 X210.9944 Y66.451
G01 X209.7505 Y66.0659
G01 X207.3023 Y65.3051
G01 X204.9315 Y64.5649
G01 X202.6358 Y63.8448
G01 X200.4125 Y63.1443
G01 X198.2596 Y62.4629
G01 X196.1747 Y61.8002
G01 X195.6698 Y61.6393
G01 X195.4194 Y61.5594
G01 X195.1699 Y61.4798
G01 X193.1826 Y60.8441
G01 X192.2202 Y60.5353
G01 X190.3261 Y59.9257
G01 X190.2114 Y59.8887
G01 X190.097 Y59.8517
G01 X188.2699 Y59.2609
G01 X186.5005 Y58.6864
G01 X184.787 Y58.1278
G01 X184.3721 Y57.9922
G01 X181.0803 Y56.9113
G01 X177.9963 Y55.8904
G01 X175.1071 Y54.9261
G01 X172.4004 Y54.0152
G01 X169.8648 Y53.1547
G01 X165.9333 Y51.8052
G01 X162.0083 Y50.4368
G01 X160.3774 Y49.862
G01 X159.9334 Y49.7046
G01 X158.1861 Y49.0816
G01 X156.5495 Y48.4926
G01 X156.1661 Y48.3539
G01 X155.7887 Y48.217
G01 X154.304 Y47.6752
G01 X152.9134 Y47.1629
G01 X151.6109 Y46.6783
G01 X150.3911 Y46.2199
G01 X150.2482 Y46.1659
G01 X149.1149 Y45.7351
G01 X148.0536 Y45.3274
G01 X147.5565 Y45.1349
G01 X147.0751 Y44.9476
G01 X146.1435 Y44.582
G01 X145.2711 Y44.2358
G01 X143.5008 Y43.5204
G01 X142.013 Y42.9023
G01 X141.7085 Y42.7737
G01 X141.4137 Y42.6484
G01 X141.1283 Y42.5263
G01 X139.8233 Y41.9577
G01 X138.9275 Y41.5546
G01 X138.5167 Y41.3659
G01 X137.7492 Y41.0053
G01 X137.4145 Y40.8443
G01 X137.1015 Y40.6913
G01 X136.2619 Y40.2669
G01 X135.9373 Y40.0968
G01 X135.8289 Y40.0389
G01 X135.6193 Y39.9256
G01 X135.4236 Y39.8177
G01 X135.2407 Y39.715
G01 X135.07 Y39.6173
G01 X134.9106 Y39.5242
G01 X134.7619 Y39.4356
G01 X134.4851 Y39.2655
G01 X134.365 Y39.1892
G01 X134.253 Y39.1165
G01 X133.919 Y38.889
G01 X133.5967 Y38.6452
G01 X133.4464 Y38.5226
G01 X133.2623 Y38.3561
G01 X133.0922 Y38.1753
G01 X133.0858 Y38.1679
G01 X132.9766 Y38.0248
G01 X132.9359 Y37.9619
G01 X132.8789 Y37.8514
G01 X132.8402 Y37.7332
G01 X132.8386 Y37.7264
G01 X132.8276 Y37.63
G01 X132.8366 Y37.5333
G01 X132.8625 Y37.4468
G01 X132.916 Y37.3473
G01 X132.9862 Y37.2588
G01 X133.005 Y37.2399
G01 X133.1208 Y37.1399
G01 X133.1938 Y37.089
G01 X133.3807 Y36.9817
G01 X133.5769 Y36.8921
G01 X133.6186 Y36.8757
G01 X133.7284 Y36.834
G01 X134.0451 Y36.7309
G01 X134.1757 Y36.6944
G01 X134.6118 Y36.589
G01 X135.0522 Y36.5031
G01 X135.0856 Y36.4974
G01 X135.7576 Y36.3944
G01 X136.4324 Y36.3112
G01 X136.914 Y36.2641
G01 X137.1397 Y36.244
G01 X138.1086 Y36.1717
G01 X138.9443 Y36.1254
G01 X140.2794 Y36.0735
G01 X140.7226 Y36.0607
G01 X142.2987 Y36.0329
G01 X142.4737 Y36.0311
G01 X144.3208 Y36.0269
G01 X145.9213 Y36.0395
G01 X147.5907 Y36.0668
G01 X147.7962 Y36.071
G01 X148.6162 Y36.0894
G01 X149.0229 Y36.0995
G01 X151.7106 Y36.18
G01 X154.3975 Y36.2804
G01 X155.5036 Y36.3276
G01 X155.5985 Y36.3317
G01 X157.1152 Y36.4
G01 X160.6078 Y36.5725
G01 X163.0856 Y36.7071
G01 X164.4845 Y36.7864
G01 X165.173 Y36.8263
G01 X167.9051 Y36.9898
G01 X168.5668 Y37.0306
G01 X173.7601 Y37.3642
G01 X178.9521 Y37.7177
G01 X179.0668 Y37.7257
G01 X180.215 Y37.8062
G01 X181.3452 Y37.8861
G01 X183.5702 Y38.0452
G01 X187.8806 Y38.3595
G01 X189.9011 Y38.5092
G01 X190.3904 Y38.5456
G01 X192.3324 Y38.6909
G01 X196.0947 Y38.9749
G01 X210.203 Y40.054
G01 X215.4949 Y40.4563
G01 X220.1263 Y40.8026
G01 X220.1897 Y40.8073
G01 X220.2529 Y40.8119
G01 X225.5856 Y41.1998
G01 X228.3293 Y41.3915
G01 X228.7081 Y41.4176
G01 X231.6916 Y41.6184
G01 X232.9974 Y41.7032
G01 X234.2219 Y41.7808
G01 X236.5184 Y41.9202
G01 X237.5236 Y41.9782
G01 X237.7593 Y41.9916
G01 X237.9913 Y42.0046
G01 X238.448 Y42.0298
G01 X239.3332 Y42.0774
G01 X240.9933 Y42.161
G01 X241.72 Y42.1949
G01 X242.4015 Y42.2251
G01 X243.0407 Y42.2517
G01 X243.3404 Y42.2636
G01 X244.5021 Y42.3055
G01 X246.3544 Y42.3552
G01 X246.5367 Y42.359
G01 X247.7656 Y42.3746
G01 X248.0656 Y42.3754
G01 X249.0907 Y42.3687
G01 X249.2148 Y42.3665
G01 X249.4309 Y42.362
G01 X249.6336 Y42.3567
G01 X249.8238 Y42.3508
G01 X250.0021 Y42.3442
G01 X250.6224 Y42.3126
G01 X251.2414 Y42.2609
G01 X251.3381 Y42.251
G01 X251.6754 Y42.2064
G01 X251.9477 Y42.158
G01 X252.1784 Y42.1009
G01 X252.3339 Y42.0479
G01 X252.4251 Y42.0066
G01 X252.5118 Y41.9514
G01 X252.5372 Y41.9302
G01 X252.5774 Y41.8835
G01 X252.6004 Y41.8264
G01 X252.6032 Y41.8116
G01 X252.5966 Y41.7466
G01 X252.5714 Y41.6879
G01 X252.499 Y41.5934
G01 X252.4118 Y41.5123
G01 X252.4092 Y41.5103
G01 X252.2197 Y41.3735
G01 X252.2173 Y41.372
G01 X251.9689 Y41.2247
G01 X251.8075 Y41.141
G01 X251.5975 Y41.0383
G01 X251.3856 Y40.941
G01 X251.3324 Y40.9173
G01 X251.119 Y40.8251
G01 X250.9047 Y40.7361
G01 X250.1327 Y40.4371
G01 X249.3536 Y40.1568
G01 X249.168 Y40.0932
G01 X248.7366 Y39.9469
G01 X248.3059 Y39.8044
G01 X247.0613 Y39.4075
G01 X246.5821 Y39.2603
G01 X244.8254 Y38.7365
G01 X243.1671 Y38.2612
G01 X242.3372 Y38.0289
G01 X241.9252 Y37.9148
G01 X239.2455 Y37.1894
G01 X236.5605 Y36.4834
G01 X235.3398 Y36.1692
G01 X234.5663 Y35.9717
G01 X233.0304 Y35.583
G01 X231.5176 Y35.2045
G01 X230.7726 Y35.0196
G01 X229.2937 Y34.655
G01 X225.1285 Y33.6449
G01 X220.9587 Y32.6543
G01 X217.6249 Y31.877
G01 X216.3465 Y31.5814
G01 X213.8289 Y31.0036
G01 X211.3887 Y30.4488
G01 X206.0973 Y29.2619
G01 X200.8015 Y28.0945
G01 X195.5014 Y26.9467
G01 X190.1971 Y25.8184
G01 X184.8887 Y24.7097
G01 X179.5763 Y23.6205
G01 X174.2599 Y22.551
G01 X173.4476 Y22.3894
G01 X172.2573 Y22.1543
G01 X169.9503 Y21.7023
G01 X167.7864 Y21.2831
G01 X165.7567 Y20.8943
G01 X163.853 Y20.5338
G01 X163.4065 Y20.4499
G01 X161.6485 Y20.1218
G01 X160.8241 Y19.9694
G01 X159.2262 Y19.6765
G01 X158.8515 Y19.6084
G01 X157.3759 Y19.3422
G01 X154.2337 Y18.7874
G01 X151.8354 Y18.3775
G01 X150.7943 Y18.2036
G01 X149.8177 Y18.0431
G01 X149.5887 Y18.0058
G01 X149.1377 Y17.9329
G01 X148.2636 Y17.7933
G01 X147.4436 Y17.6646
G01 X147.0589 Y17.6051
G01 X146.6862 Y17.548
G01 X145.2407 Y17.3319
G01 X144.6074 Y17.2403
G01 X144.3103 Y17.198
G01 X143.1582 Y17.039
G01 X142.1483 Y16.9068
G01 X141.2626 Y16.7977
G01 X140.8744 Y16.7522
G01 X140.1455 Y16.6714
G01 X139.9856 Y16.6546
G01 X139.3657 Y16.5927
G01 X138.8217 Y16.5438
G01 X138.583 Y16.5242
G01 X137.8067 Y16.4698
G01 X137.6858 Y16.4631
G01 X137.3464 Y16.4467
G01 X136.7495 Y16.4307
G01 X136.2962 Y16.4341
G01 X136.1235 Y16.4406
G01 X135.8329 Y16.4608
G01 X135.8189 Y16.4623
G01 X135.5866 Y16.4919
G01 X135.5857 Y16.4921
G01 X135.496 Y16.5082
G01 X135.3448 Y16.5444
G01 X135.1995 Y16.5997
G01 X135.1874 Y16.6053
G01 X135.1177 Y16.6481
G01 X135.1114 Y16.6533
G01 X135.0654 Y16.6999
G01 X135.0355 Y16.7582
G01 X135.0337 Y16.7641
G01 X135.0305 Y16.8287
G01 X135.0472 Y16.8913
G01 X135.0505 Y16.8984
G01 X135.1024 Y16.9861
G01 X135.1252 Y17.0151
G01 X135.25 Y17.1467
G01 X135.3184 Y17.2078
G01 X135.3704 Y17.2513
G01 X135.6256 Y17.4435
G01 X135.8094 Y17.5672
G01 X136.0363 Y17.7114
G01 X136.4981 Y17.9844
G01 X136.7309 Y18.1151
G01 X137.5274 Y18.5396
G01 X138.3332 Y18.9464
G01 X138.6268 Y19.0891
G01 X139.0992 Y19.3168
G01 X139.5712 Y19.5405
G01 X140.9373 Y20.1718
G01 X141.4622 Y20.4085
G01 X142.3975 Y20.8254
G01 X142.8624 Y21.0302
G01 X144.9885 Y21.9515
G01 X146.5819 Y22.6278
G01 X146.8078 Y22.7229
G01 X147.7101 Y23.1013
G01 X148.6063 Y23.4745
G01 X149.4963 Y23.843
G01 X151.2642 Y24.5691
G01 X153.0069 Y25.2783
G01 X154.7242 Y25.9718
G01 X156.4162 Y26.6504
G01 X156.5204 Y26.692
G01 X158.1858 Y27.3558
G01 X159.006 Y27.6814
G01 X160.6342 Y28.3255
G01 X161.436 Y28.6416
G01 X163.0277 Y29.2672
G01 X163.4196 Y29.4208
G01 X169.0162 Y31.6009
G01 X169.6702 Y31.8543
G01 X172.6034 Y32.9865
G01 X175.4466 Y34.0791
G01 X176.1354 Y34.3432
G01 X178.8699 Y35.389
G01 X180.1949 Y35.8944
G01 X182.8041 Y36.8874
G01 X184.0683 Y37.3676
G01 X186.5578 Y38.3112
G01 X188.9702 Y39.2235
G01 X193.646 Y40.9861
G01 X198.0316 Y42.6335
G01 X200.0879 Y43.4041
G01 X204.0729 Y44.8946
G01 X205.9413 Y45.5922
G01 X209.562 Y46.942
G01 X216.3529 Y49.4672
G01 X232.1299 Y55.309
G01 X240.1362 Y58.2654
G01 X241.6231 Y58.8144
G01 X247.1985 Y60.8735
G01 X251.3792 Y62.4199
G01 X251.7712 Y62.5651
G01 X253.2896 Y63.128
G01 X254.618 Y63.6211
G01 X256.9419 Y64.4863
G01 X257.3775 Y64.6489
G01 X258.1941 Y64.9543
G01 X259.6223 Y65.4907
G01 X260.6927 Y65.8952
G01 X261.0938 Y66.0477
G01 X261.7952 Y66.316
G01 X262.3206 Y66.519
G01 X262.4191 Y66.5573
G01 X262.5113 Y66.5933
G01 X262.5978 Y66.6271
G01 X262.6788 Y66.6589
G01 X263.2851 Y66.9007
G01 X263.5865 Y67.026
G01 X263.736 Y67.0917
G01 X263.8098 Y67.1265
G01 X263.8815 Y67.1657
G01 X263.8907 Y67.1726
G01 X263.8965 Y67.1797
G01 X263.8893 Y67.1842
G01 X263.77 Y67.1585
G01 X263.7678 Y67.1579
G01 X263.2946 Y67.0075
G01 X262.8267 Y66.8475
G01 X262.5941 Y66.7664
G01 X261.6674 Y66.4377
G01 X260.7495 Y66.1073
G01 X260.2945 Y65.9423
G01 X258.4832 Y65.2812
G01 X256.7017 Y64.6262
G01 X253.1968 Y63.3302
G01 X249.8034 Y62.0696
G01 X246.517 Y60.8455
G01 X240.1514 Y58.4691
G01 X228.2191 Y54.0047
G01 X217.7792 Y50.0959
G01 X208.6438 Y46.677
G01 X200.6492 Y43.6883
G01 X186.6543 Y38.4691
G01 X181.4041 Y36.5174
G01 X179.1066 Y35.6648
G01 X178.0295 Y35.2655
G01 X177.9642 Y35.2413
G01 X177.8991 Y35.2172
G01 X170.2699 Y32.3964
G01 X169.5813 Y32.1429
G01 X166.4602 Y30.9948
G01 X163.7281 Y29.9931
G01 X161.3365 Y29.1194
G01 X159.2428 Y28.3575
G01 X158.7847 Y28.1912
G01 X157.0089 Y27.5483
G01 X156.2316 Y27.2678
G01 X152.9225 Y26.0816
G01 X150.3931 Y25.1892
G01 X148.9289 Y24.6808
G01 X147.8284 Y24.3052
G01 X147.001 Y24.0286
G01 X146.8456 Y23.9774
G01 X146.6998 Y23.9296
G01 X145.8027 Y23.6433
G01 X145.6026 Y23.5823
G01 X145.3261 Y23.5003
G01 X144.9081 Y23.386
G01 X144.8815 Y23.3794
G01 X144.8566 Y23.3733
G01 X144.8098 Y23.3622
G01 X144.6447 Y23.3282
G01 X144.559 Y23.317
G01 X144.5133 Y23.3162
G01 X144.4883 Y23.321
G01 X144.4756 Y23.3339
G01 X144.4768 Y23.3437
G00 Z100.0
G00 Y23.8729
G01 F100.0 Z0.0
G01 F1000.0 X144.4797 Y23.8551
G01 X144.4883 Y23.8502
G01 X144.5133 Y23.8454
G01 X144.559 Y23.8461
G01 X144.6447 Y23.8574
G01 X144.8098 Y23.8914
G01 X144.8566 Y23.9025
G01 X144.8815 Y23.9086
G01 X144.9081 Y23.9151
G01 X145.3261 Y24.0294
G01 X145.6026 Y24.1114
G01 X146.5011 Y24.3936
G01 X146.6998 Y24.4588
G01 X146.8456 Y24.5066
G01 X147.001 Y24.5578
G01 X147.8284 Y24.8344
G01 X148.9289 Y25.2099
G01 X150.3931 Y25.7184
G01 X153.7073 Y26.8902
G01 X156.2316 Y27.797
G01 X157.0089 Y28.0774
G01 X158.7847 Y28.7204
G01 X159.2428 Y28.8867
G01 X161.3365 Y29.6486
G01 X163.7281 Y30.5223
G01 X166.4602 Y31.524
G01 X169.5813 Y32.6721
G01 X177.2112 Y35.4911
G01 X177.8991 Y35.7464
G01 X177.9642 Y35.7705
G01 X178.0295 Y35.7947
G01 X179.1066 Y36.194
G01 X181.4041 Y37.0466
G01 X186.6543 Y38.9983
G01 X200.6492 Y44.2175
G01 X208.6438 Y47.2062
G01 X217.7792 Y50.6251
G01 X228.2191 Y54.5339
G01 X240.1514 Y58.9982
G01 X246.517 Y61.3747
G01 X249.8034 Y62.5988
G01 X253.1968 Y63.8594
G01 X256.7017 Y65.1554
G01 X258.4832 Y65.8104
G01 X260.2945 Y66.4715
G01 X260.7495 Y66.6364
G01 X261.6674 Y66.9669
G01 X262.5941 Y67.2955
G01 X262.8267 Y67.3767
G01 X263.2946 Y67.5367
G01 X263.7678 Y67.687
G01 X263.887 Y67.7131
G01 X263.8893 Y67.7134
G01 X263.8965 Y67.7089
G01 X263.8907 Y67.7018
G01 X263.8815 Y67.6949
G01 X263.8098 Y67.6557
G01 X263.736 Y67.6209
G01 X263.5865 Y67.5552
G01 X263.2851 Y67.4298
G01 X262.6788 Y67.1881
G01 X262.5978 Y67.1563
G01 X262.5113 Y67.1225
G01 X262.4191 Y67.0865
G01 X262.3206 Y67.0482
G01 X261.7952 Y66.8452
G01 X261.0938 Y66.5769
G01 X260.6927 Y66.4244
G01 X259.6223 Y66.0198
G01 X258.1941 Y65.4835
G01 X257.3775 Y65.1781
G01 X256.9419 Y65.0155
G01 X254.618 Y64.1503
G01 X253.2896 Y63.6571
G01 X251.7712 Y63.0942
G01 X251.3792 Y62.9491
G01 X247.1985 Y61.4027
G01 X241.6231 Y59.3435
G01 X240.1362 Y58.7946
G01 X224.3558 Y52.9623
G01 X216.3529 Y49.9964
G01 X209.562 Y47.4712
G01 X205.9413 Y46.1214
G01 X204.0729 Y45.4238
G01 X200.0879 Y43.9333
G01 X198.0316 Y43.1627
G01 X193.646 Y41.5153
G01 X188.9702 Y39.7526
G01 X186.5578 Y38.8404
G01 X184.0683 Y37.8967
G01 X182.8041 Y37.4166
G01 X180.1949 Y36.4236
G01 X178.8699 Y35.9181
G01 X176.1354 Y34.8723
G01 X175.4466 Y34.6083
G01 X172.6034 Y33.5157
G01 X169.6702 Y32.3834
G01 X164.0728 Y30.2056
G01 X163.4196 Y29.95
G01 X163.0277 Y29.7964
G01 X161.436 Y29.1708
G01 X160.6342 Y28.8547
G01 X159.006 Y28.2106
G01 X158.1858 Y27.885
G01 X156.5204 Y27.2212
G01 X156.4162 Y27.1796
G01 X154.7242 Y26.5009
G01 X153.0069 Y25.8075
G01 X151.2642 Y25.0983
G01 X149.4963 Y24.3721
G01 X148.6063 Y24.0037
G01 X147.7101 Y23.6305
G01 X146.8078 Y23.2521
G01 X146.5819 Y23.157
G01 X144.4499 Y22.2494
G01 X142.8624 Y21.5594
G01 X142.3975 Y21.3546
G01 X141.4622 Y20.9377
G01 X140.0928 Y20.3133
G01 X139.5712 Y20.0697
G01 X139.0992 Y19.846
G01 X138.6268 Y19.6183
G01 X137.8179 Y19.218
G01 X137.018 Y18.7998
G01 X136.7309 Y18.6442
G01 X136.4981 Y18.5136
G01 X136.0363 Y18.2406
G01 X135.8094 Y18.0964
G01 X135.5461 Y17.9155
G01 X135.3704 Y17.7805
G01 X135.3184 Y17.737
G01 X135.1864 Y17.6125
G01 X135.1252 Y17.5442
G01 X135.0673 Y17.4605
G01 X135.0505 Y17.4276
G01 X135.0315 Y17.3657
G01 X135.0322 Y17.301
G01 X135.0337 Y17.2932
G01 X135.0618 Y17.2341
G01 X135.1065 Y17.1862
G01 X135.1114 Y17.1825
G01 X135.18 Y17.1379
G01 X135.1874 Y17.1344
G01 X135.3321 Y17.0776
G01 X135.4829 Y17.0397
G01 X135.496 Y17.0374
G01 X135.5857 Y17.0212
G01 X135.818 Y16.9915
G01 X135.8189 Y16.9914
G01 X136.1094 Y16.9703
G01 X136.1235 Y16.9697
G01 X136.2962 Y16.9633
G01 X136.7495 Y16.9599
G01 X137.3464 Y16.9759
G01 X137.6858 Y16.9923
G01 X138.4623 Y17.0436
G01 X138.583 Y17.0533
G01 X138.8217 Y17.073
G01 X139.3657 Y17.1219
G01 X139.9856 Y17.1837
G01 X140.1455 Y17.2006
G01 X140.8744 Y17.2814
G01 X141.2626 Y17.3269
G01 X142.1483 Y17.436
G01 X143.1582 Y17.5682
G01 X144.3103 Y17.7272
G01 X144.6074 Y17.7695
G01 X145.2407 Y17.8611
G01 X146.6862 Y18.0772
G01 X147.0589 Y18.1343
G01 X147.4436 Y18.1938
G01 X148.2636 Y18.3225
G01 X149.1377 Y18.462
G01 X149.5887 Y18.535
G01 X149.8177 Y18.5722
G01 X150.7943 Y18.7328
G01 X151.8354 Y18.9067
G01 X154.9801 Y19.4465
G01 X157.3759 Y19.8714
G01 X158.8515 Y20.1376
G01 X159.2262 Y20.2057
G01 X160.8241 Y20.4985
G01 X161.6485 Y20.651
G01 X163.4065 Y20.9791
G01 X163.853 Y21.063
G01 X165.7567 Y21.4235
G01 X167.7864 Y21.8123
G01 X169.9503 Y22.2315
G01 X172.2573 Y22.6835
G01 X173.4475 Y22.9186
G01 X178.7645 Y23.9851
G01 X184.0774 Y25.0712
G01 X189.3863 Y26.1769
G01 X194.6911 Y27.3022
G01 X199.9917 Y28.447
G01 X205.288 Y29.6114
G01 X210.5801 Y30.7952
G01 X211.3887 Y30.978
G01 X213.8289 Y31.5328
G01 X216.3465 Y32.1106
G01 X217.6249 Y32.4062
G01 X221.7983 Y33.3813
G01 X225.9671 Y34.3758
G01 X229.2937 Y35.1842
G01 X230.7726 Y35.5487
G01 X231.5176 Y35.7337
G01 X233.0304 Y36.1122
G01 X234.5663 Y36.5009
G01 X235.3398 Y36.6984
G01 X238.0272 Y37.3957
G01 X240.7094 Y38.1123
G01 X241.9252 Y38.444
G01 X242.3372 Y38.5581
G01 X243.1671 Y38.7903
G01 X244.9291 Y39.2961
G01 X246.5821 Y39.7894
G01 X247.8291 Y40.179
G01 X248.3059 Y40.3336
G01 X248.7366 Y40.4761
G01 X249.168 Y40.6223
G01 X249.9487 Y40.8982
G01 X250.7226 Y41.1928
G01 X250.9047 Y41.2653
G01 X251.119 Y41.3543
G01 X251.3324 Y41.4465
G01 X251.3856 Y41.4701
G01 X251.5975 Y41.5675
G01 X251.8075 Y41.6702
G01 X252.0621 Y41.8065
G01 X252.2173 Y41.9011
G01 X252.4071 Y42.0378
G01 X252.4092 Y42.0395
G01 X252.4968 Y42.1202
G01 X252.5697 Y42.2144
G01 X252.5714 Y42.2171
G01 X252.5969 Y42.2773
G01 X252.6032 Y42.3408
G01 X252.5847 Y42.3995
G01 X252.5484 Y42.4492
G01 X252.5372 Y42.4594
G01 X252.4541 Y42.5198
G01 X252.4251 Y42.5357
G01 X252.2739 Y42.6
G01 X252.1784 Y42.63
G01 X251.9096 Y42.6952
G01 X251.6754 Y42.7356
G01 X251.3381 Y42.7802
G01 X250.7194 Y42.835
G01 X250.0992 Y42.8698
G01 X250.0021 Y42.8734
G01 X249.8238 Y42.88
G01 X249.6336 Y42.8859
G01 X249.4309 Y42.8911
G01 X249.2148 Y42.8957
G01 X248.1898 Y42.9048
G01 X248.0656 Y42.9045
G01 X246.8366 Y42.8939
G01 X246.5367 Y42.8882
G01 X244.6843 Y42.8404
G01 X244.5021 Y42.8346
G01 X243.3404 Y42.7927
G01 X243.0407 Y42.7809
G01 X242.4015 Y42.7543
G01 X241.72 Y42.7241
G01 X240.9933 Y42.6902
G01 X239.3332 Y42.6066
G01 X238.448 Y42.559
G01 X237.9913 Y42.5337
G01 X237.7593 Y42.5207
G01 X237.5236 Y42.5074
G01 X236.5184 Y42.4493
G01 X234.2219 Y42.3099
G01 X232.9974 Y42.2324
G01 X231.6916 Y42.1475
G01 X228.7081 Y41.9468
G01 X228.3293 Y41.9207
G01 X222.9959 Y41.5431
G01 X220.2529 Y41.3411
G01 X220.1897 Y41.3364
G01 X220.1263 Y41.3318
G01 X215.4949 Y40.9854
G01 X210.203 Y40.5832
G01 X196.0947 Y39.5041
G01 X192.3324 Y39.2201
G01 X190.3904 Y39.0748
G01 X189.9011 Y39.0384
G01 X187.8806 Y38.8887
G01 X183.5702 Y38.5744
G01 X181.3452 Y38.4153
G01 X180.215 Y38.3354
G01 X179.0668 Y38.2549
G01 X173.8748 Y37.9009
G01 X168.6815 Y37.5669
G01 X168.5668 Y37.5598
G01 X167.9051 Y37.519
G01 X165.173 Y37.3554
G01 X164.4845 Y37.3155
G01 X163.0856 Y37.2362
G01 X159.5938 Y37.0495
G01 X157.1152 Y36.9292
G01 X155.5985 Y36.8609
G01 X155.5036 Y36.8568
G01 X152.8169 Y36.7481
G01 X150.1295 Y36.6594
G01 X149.0229 Y36.6287
G01 X148.6162 Y36.6186
G01 X147.7962 Y36.6002
G01 X147.5907 Y36.596
G01 X145.9213 Y36.5687
G01 X144.0743 Y36.5555
G01 X142.4737 Y36.5603
G01 X140.8975 Y36.5858
G01 X140.7226 Y36.5899
G01 X139.3873 Y36.6351
G01 X138.9443 Y36.6546
G01 X137.9743 Y36.7097
G01 X137.1397 Y36.7732
G01 X136.914 Y36.7933
G01 X136.2376 Y36.8623
G01 X135.5636 Y36.9512
G01 X135.0856 Y37.0266
G01 X134.6449 Y37.111
G01 X134.2085 Y37.2149
G01 X134.1757 Y37.2235
G01 X133.8566 Y37.3189
G01 X133.7284 Y37.3632
G01 X133.6186 Y37.4049
G01 X133.4208 Y37.4907
G01 X133.2318 Y37.5945
G01 X133.1938 Y37.6182
G01 X133.0707 Y37.7091
G01 X133.005 Y37.7691
G01 X132.9311 Y37.8545
G01 X132.8735 Y37.9517
G01 X132.8625 Y37.9759
G01 X132.8353 Y38.0691
G01 X132.8277 Y38.1659
G01 X132.8386 Y38.2556
G01 X132.8762 Y38.3741
G01 X132.9323 Y38.4851
G01 X132.9359 Y38.491
G01 X133.0384 Y38.639
G01 X133.0858 Y38.697
G01 X133.2553 Y38.8784
G01 X133.4388 Y39.0454
G01 X133.4464 Y39.0518
G01 X133.7628 Y39.3031
G01 X134.0913 Y39.5385
G01 X134.253 Y39.6457
G01 X134.365 Y39.7184
G01 X134.4851 Y39.7947
G01 X134.7619 Y39.9648
G01 X134.9106 Y40.0534
G01 X135.07 Y40.1465
G01 X135.2407 Y40.2442
G01 X135.4236 Y40.3469
G01 X135.6193 Y40.4547
G01 X135.8289 Y40.5681
G01 X135.9373 Y40.626
G01 X136.7734 Y41.0573
G01 X137.1015 Y41.2204
G01 X137.4145 Y41.3734
G01 X137.7492 Y41.5344
G01 X138.5167 Y41.8951
G01 X138.9275 Y42.0838
G01 X140.2269 Y42.6651
G01 X141.1283 Y43.0555
G01 X141.4137 Y43.1776
G01 X141.7085 Y43.3029
G01 X142.013 Y43.4315
G01 X143.7769 Y44.1625
G01 X145.2711 Y44.7649
G01 X146.1435 Y45.1111
G01 X147.0751 Y45.4767
G01 X147.5565 Y45.6641
G01 X148.0536 Y45.8566
G01 X149.1149 Y46.2643
G01 X150.2482 Y46.6951
G01 X150.3911 Y46.7491
G01 X151.6109 Y47.2075
G01 X152.9134 Y47.692
G01 X154.304 Y48.2044
G01 X155.7887 Y48.7461
G01 X156.1661 Y48.883
G01 X156.5495 Y49.0218
G01 X158.1861 Y49.6108
G01 X159.9334 Y50.2338
G01 X160.3774 Y50.3912
G01 X164.2997 Y51.7675
G01 X168.2286 Y53.1248
G01 X169.8648 Y53.6839
G01 X172.4004 Y54.5443
G01 X175.1071 Y55.4553
G01 X177.9963 Y56.4196
G01 X181.0803 Y57.4405
G01 X184.3721 Y58.5214
G01 X184.787 Y58.657
G01 X186.5005 Y59.2156
G01 X188.2699 Y59.7901
G01 X190.097 Y60.3809
G01 X190.2114 Y60.4178
G01 X190.3261 Y60.4548
G01 X192.2202 Y61.0645
G01 X193.1826 Y61.3733
G01 X195.1699 Y62.009
G01 X195.4194 Y62.0886
G01 X195.6698 Y62.1685
G01 X196.1747 Y62.3294
G01 X198.2596 Y62.9921
G01 X200.4125 Y63.6734
G01 X202.6358 Y64.3739
G01 X204.9315 Y65.0941
G01 X207.3023 Y65.8343
G01 X209.7505 Y66.5951
G01 X210.9944 Y66.9802
G01 X212.2583 Y67.3705
G01 X214.8684 Y68.1735
G01 X220.7635 Y69.9704
G01 X226.6643 Y71.7482
G01 X226.8141 Y71.793
G01 X229.9011 Y72.7124
G01 X233.0898 Y73.6543
G01 X233.8937 Y73.8904
G01 X235.5272 Y74.3685
G01 X237.1873 Y74.8519
G01 X238.8746 Y75.3403
G01 X240.5894 Y75.8336
G01 X241.454 Y76.081
G01 X241.8881 Y76.2049
G01 X245.4111 Y77.201
G01 X248.9395 Y78.1778
G01 X249.3069 Y78.2783
G01 X251.1956 Y78.7885
G01 X251.2547 Y78.8044
G01 X251.3139 Y78.8202
G01 X253.2374 Y79.3278
G01 X254.2081 Y79.5783
G01 X256.0586 Y80.0411
G01 X256.1844 Y80.0719
G01 X257.1831 Y80.3093
G01 X257.3083 Y80.3383
G01 X258.3193 Y80.5634
G01 X259.1754 Y80.7349
G01 X259.3436 Y80.7662
G01 X259.6015 Y80.8101
G01 X259.7309 Y80.8304
G01 X260.1037 Y80.8776
G01 X260.2537 Y80.8909
G01 X260.4145 Y80.8955
G01 X260.5184 Y80.8878
G01 X260.5511 Y80.8818
G01 X260.6039 Y80.862
G01 X260.6136 Y80.8557
G01 X260.6313 Y80.8303
G01 X260.6327 Y80.8236
G01 X260.6242 Y80.7858
G01 X260.6179 Y80.7757
G01 X260.5759 Y80.7266
G01 X260.4573 Y80.6314
G01 X260.3311 Y80.547
G01 X260.0704 Y80.3909
G01 X259.8938 Y80.2921
G01 X259.6562 Y80.1642
G01 X259.3371 Y79.9984
G01 X258.4518 Y79.5582
G01 X258.0475 Y79.3646
G01 X256.5599 Y78.6669
G01 X255.4418 Y78.1571
G01 X254.6939 Y77.8194
G01 X253.8382 Y77.4362
G01 X253.6172 Y77.3377
G01 X253.1455 Y77.1281
G01 X252.0664 Y76.651
G01 X250.8319 Y76.109
G01 X250.5131 Y75.9696
G01 X249.055 Y75.3346
G01 X247.387 Y74.6125
G01 X246.9562 Y74.4267
G01 X246.0371 Y74.031
G01 X245.0564 Y73.6099
G01 X242.8135 Y72.6507
G01 X240.2483 Y71.5592
G01 X240.0866 Y71.4905
G01 X238.7069 Y70.9056
G01 X235.5517 Y69.5727
G01 X231.9435 Y68.055
G01 X231.4852 Y67.8626
G01 X230.5388 Y67.4658
G01 X226.2111 Y65.6554
G01 X221.2625 Y63.5933
G01 X215.604 Y61.244
G01 X214.1433 Y60.6388
G01 X213.4012 Y60.3316
G01 X211.8691 Y59.6976
G01 X208.6002 Y58.3467
G01 X205.1125 Y56.9077
G01 X201.3915 Y55.3749
G01 X188.3292 Y50.013
G01 X175.2592 Y44.6695
G01 X162.1817 Y39.3446
G01 X149.0967 Y34.0383
G01 X141.7674 Y31.0754
G01 X137.915 Y29.5216
G01 X137.7945 Y29.473
G01 X133.813 Y27.87
G01 X133.5636 Y27.7697
G01 X131.5368 Y26.9551
G01 X131.41 Y26.9041
G01 X130.3874 Y26.4935
G01 X126.1643 Y24.801
G01 X124.0183 Y23.9434
G01 X121.8376 Y23.0742
G01 X119.6211 Y22.194
G01 X118.5035 Y21.752
G01 X117.3764 Y21.308
G01 X116.2396 Y20.863
G01 X115.0921 Y20.419
G01 X114.5145 Y20.1999
G01 X114.0073 Y20.0163
G01 X113.9309 Y19.9905
G01 X113.8557 Y19.9712
G01 X113.851 Y19.9731
G01 X113.8542 Y19.977
G01 X113.859 Y19.9806
G01 X113.8675 Y19.9861
G01 X113.884 Y19.9956
G01 X113.9173 Y20.013
G01 X113.9841 Y20.0458
G01 X114.029 Y20.067
G01 X114.089 Y20.0949
G01 X114.3297 Y20.2036
G01 X114.4907 Y20.2748
G01 X115.1363 Y20.5554
G01 X115.2226 Y20.5925
G01 X116.6038 Y21.1815
G01 X116.9989 Y21.3488
G01 X120.1622 Y22.6794
G01 X122.2727 Y23.5625
G01 X125.0877 Y24.7376
G01 X128.842 Y26.302
G01 X133.8487 Y28.3856
G01 X153.8766 Y36.717
G01 X159.5978 Y39.0998
G01 X166.1354 Y41.8255
G01 X173.6052 Y44.9445
G01 X177.5882 Y46.61
G01 X181.8361 Y48.3883
G01 X186.3661 Y50.2875
G01 X186.9368 Y50.527
G01 X188.0962 Y51.0136
G01 X188.6804 Y51.2589
G01 X189.2693 Y51.5062
G01 X191.7002 Y52.5277
G01 X196.885 Y54.7099
G01 X197.2103 Y54.847
G01 X197.5368 Y54.9846
G01 X200.233 Y56.1218
G01 X205.9829 Y58.5524
G01 X212.1127 Y61.1532
G01 X213.6688 Y61.8153
G01 X215.2493 Y62.4885
G01 X221.9368 Y65.3478
G01 X221.989 Y65.3702
G01 X223.6995 Y66.1048
G01 X227.229 Y67.6255
G01 X229.0208 Y68.4003
G01 X230.8402 Y69.1893
G01 X232.6875 Y69.993
G01 X234.563 Y70.812
G01 X236.467 Y71.647
G01 X238.3996 Y72.4988
G01 X238.6415 Y72.6058
G01 X238.8839 Y72.713
G01 X240.8525 Y73.5873
G01 X241.8437 Y74.0299
G01 X241.9677 Y74.0854
G01 X244.6805 Y75.3073
G01 X246.0553 Y75.9349
G01 X247.0823 Y76.4074
G01 X248.1157 Y76.8872
G01 X248.3743 Y77.0081
G01 X248.893 Y77.2517
G01 X249.9366 Y77.747
G01 X250.9849 Y78.2535
G01 X251.0503 Y78.2855
G01 X251.1812 Y78.3497
G01 X251.3122 Y78.4141
G01 X252.2914 Y78.9035
G01 X253.2614 Y79.4107
G01 X253.4223 Y79.497
G01 X253.9394 Y79.787
G01 X253.9417 Y79.7883
G01 X254.305 Y80.0064
G01 X254.4516 Y80.1011
G01 X254.6622 Y80.2485
G01 X254.6963 Y80.2748
G01 X254.7547 Y80.322
G01 X254.811 Y80.372
G01 X254.8773 Y80.4437
G01 X254.9077 Y80.4896
G01 X254.92 Y80.5249
G01 X254.9122 Y80.5615
G01 X254.9033 Y80.5749
G01 X254.8578 Y80.6008
G01 X254.8476 Y80.6038
G01 X254.7861 Y80.6157
G01 X254.7446 Y80.6194
G01 X254.6892 Y80.6213
G01 X254.6157 Y80.6201
G01 X254.3387 Y80.5956
G01 X254.3257 Y80.594
G01 X254.134 Y80.5666
G01 X253.8801 Y80.5234
G01 X253.8126 Y80.5109
G01 X253.1442 Y80.3735
G01 X252.7445 Y80.2815
G01 X252.0375 Y80.1099
G01 X251.0988 Y79.8686
G01 X250.5639 Y79.7262
G01 X250.426 Y79.689
G01 X250.2836 Y79.6504
G01 X249.6336 Y79.4722
G01 X249.466 Y79.4258
G01 X249.2931 Y79.3776
G01 X248.9244 Y79.2743
G01 X248.0826 Y79.0356
G01 X247.634 Y78.9069
G01 X247.1559 Y78.7688
G01 X246.0641 Y78.45
G01 X245.9255 Y78.4092
G01 X245.7848 Y78.3678
G01 X244.499 Y77.9863
G01 X244.1674 Y77.8872
G01 X242.6526 Y77.4311
G01 X240.9233 Y76.9046
G01 X238.9488 Y76.2974
G01 X237.8964 Y75.9715
G01 X235.4926 Y75.2221
G01 X232.7477 Y74.3589
G01 X232.5748 Y74.3043
G01 X227.4633 Y72.6806
G01 X225.2073 Y71.9573
G01 X223.2444 Y71.3263
G01 X215.4867 Y68.814
G01 X212.7851 Y67.9341
G01 X212.7032 Y67.9074
G01 X212.6212 Y67.8806
G01 X203.8783 Y65.0145
G01 X198.6392 Y63.2869
G01 X196.8362 Y62.6908
G01 X194.9752 Y62.0748
G01 X191.0061 Y60.7583
G01 X189.9982 Y60.4235
G01 X188.9744 Y60.0832
G01 X184.6069 Y58.6291
G01 X183.4978 Y58.2593
G01 X181.2084 Y57.4952
G01 X176.3253 Y55.8623
G01 X175.0853 Y55.4471
G01 X174.4605 Y55.2377
G01 X173.8307 Y55.0266
G01 X171.2308 Y54.1545
G01 X165.6854 Y52.2908
G01 X159.7719 Y50.2981
G01 X153.466 Y48.1673
G01 X146.7418 Y45.8884
G01 X145.0344 Y45.3086
G01 X143.3001 Y44.7192
G01 X139.72 Y43.5009
G01 X132.085 Y40.8951
G01 X128.1458 Y39.546
G01 X126.1453 Y38.8595
G01 X125.1373 Y38.5132
G01 X120.9762 Y37.0808
G01 X120.846 Y37.0359
G01 X116.5484 Y35.5501
G01 X114.3666 Y34.7926
G01 X113.2673 Y34.4099
G01 X112.992 Y34.314
G01 X112.4392 Y34.1212
G01 X111.3253 Y33.7319
G01 X110.2029 Y33.3385
G01 X109.9218 Y33.2398
G01 X109.3575 Y33.0414
G01 X108.2205 Y32.6402
G01 X107.0753 Y32.2339
G01 X105.922 Y31.8215
G01 X105.7778 Y31.7696
G01 X105.4889 Y31.6654
G01 X105.1996 Y31.5606
G01 X104.6192 Y31.3487
G01 X104.5829 Y31.3353
G01 X104.2925 Y31.2281
G01 X104.0019 Y31.1196
G01 X103.8566 Y31.0647
G01 X103.5661 Y30.9533
G01 X103.4936 Y30.9249
G01 X103.3488 Y30.8673
G01 X103.3307 Y30.8599
G01 X103.1868 Y30.7997
G01 X103.0466 Y30.7309
G01 X103.04 Y30.7255
G01 X103.0381 Y30.7173
G01 X103.054 Y30.7151
G01 X103.0715 Y30.7164
G01 X103.1 Y30.7204
G01 X103.1535 Y30.7303
G01 X103.258 Y30.7534
G01 X103.4644 Y30.8046
G01 X103.6014 Y30.8405
G01 X104.1469 Y30.9901
G01 X104.2195 Y31.0105
G01 X104.6063 Y31.1203
G01 X105.1213 Y31.2688
G01 X105.2586 Y31.3088
G01 X105.405 Y31.3514
G01 X107.7432 Y32.0441
G01 X109.3002 Y32.5119
G01 X109.7152 Y32.6372
G01 X111.9279 Y33.3079
G01 X114.8766 Y34.2069
G01 X116.5611 Y34.7224
G01 X116.9958 Y34.8556
G01 X121.6309 Y36.2795
G01 X127.809 Y38.1845
G01 X129.4562 Y38.6934
G01 X138.2399 Y41.4117
G01 X139.3732 Y41.7629
G01 X144.5536 Y43.369
G01 X185.9908 Y56.2342
G01 X197.8314 Y59.9055
G01 X204.1473 Y61.8607
G01 X205.7515 Y62.3569
G01 X207.3811 Y62.8607
G01 X210.7459 Y63.9002
G01 X217.9252 Y66.1137
G01 X221.6314 Y67.2534
G01 X222.0966 Y67.3963
G01 X225.9384 Y68.5743
G01 X229.9053 Y69.7865
G01 X231.9208 Y70.4003
G01 X233.9689 Y71.022
G01 X236.0502 Y71.6513
G01 X236.5727 Y71.8088
G01 X237.0973 Y71.9667
G01 X239.2299 Y72.6057
G01 X240.3052 Y72.9257
G01 X241.3895 Y73.2464
G01 X243.4571 Y73.8495
G01 X243.5951 Y73.889
G01 X244.1496 Y74.0472
G01 X244.7068 Y74.204
G01 X245.6595 Y74.4622
G01 X245.8335 Y74.5072
G01 X246.1175 Y74.5767
G01 X246.3904 Y74.6339
G01 X246.4043 Y74.6363
G01 X246.4772 Y74.6448
G01 X246.5141 Y74.6399
G01 X246.5085 Y74.6243
G01 X246.5072 Y74.6235
G01 X246.4326 Y74.578
G01 X246.3541 Y74.5397
G01 X246.3314 Y74.5292
G01 X246.2707 Y74.5019
G01 X246.0261 Y74.3979
G01 X245.8619 Y74.3311
G01 X245.818 Y74.3134
G01 X245.7712 Y74.2947
G01 X245.7213 Y74.2749
G01 X244.9193 Y73.965
G01 X244.3829 Y73.7631
G01 X243.6666 Y73.4972
G01 X242.7102 Y73.1464
G01 X239.7825 Y72.089
G01 X238.8769 Y71.7662
G01 X236.3176 Y70.857
G01 X235.9872 Y70.7401
G01 X232.4617 Y69.4975
G01 X230.4461 Y68.7903
G01 X228.1418 Y67.9841
G01 X225.5077 Y67.065
G01 X222.4963 Y66.0171
G01 X219.0539 Y64.8223
G01 X217.2176 Y64.1861
G01 X213.0194 Y62.7345
G01 X208.2202 Y61.0792
G01 X206.9815 Y60.6526
G01 X201.3179 Y58.7054
G01 X198.2967 Y57.6686
G01 X195.0736 Y56.5641
G01 X187.705 Y54.0443
G01 X185.803 Y53.3951
G01 X181.7451 Y52.0116
G01 X180.7143 Y51.6606
G01 X176.3161 Y50.1642
G01 X171.6239 Y48.5706
G01 X171.3295 Y48.4707
G01 X166.3037 Y46.7674
G01 X160.9416 Y44.9542
G01 X158.1736 Y44.0198
G01 X155.3159 Y43.0565
G01 X152.3656 Y42.0633
G01 X146.0702 Y39.9493
G01 X142.8199 Y38.8608
G01 X141.1688 Y38.3087
G01 X137.7595 Y37.1706
G01 X134.2392 Y35.9985
G01 X134.0187 Y35.9252
G01 X130.3766 Y34.7163
G01 X122.6025 Y32.1506
G01 X118.5872 Y30.8352
G01 X117.575 Y30.5049
G01 X115.5181 Y29.8357
G01 X113.4276 Y29.1584
G01 X111.3029 Y28.4735
G01 X110.7695 Y28.3022
G01 X108.601 Y27.6088
G01 X107.5076 Y27.2613
G01 X105.2846 Y26.5602
G01 X104.1634 Y26.2099
G01 X103.0324 Y25.8594
G01 X101.8917 Y25.5094
G01 X100.7406 Y25.1609
G01 X99.5788 Y24.8153
G01 X98.4052 Y24.4754
G01 X98.1107 Y24.3921
G01 X97.5185 Y24.228
G01 X96.7224 Y24.0175
G01 X96.3189 Y23.9187
G01 X96.0162 Y23.8501
G01 X95.7109 Y23.7899
G01 X95.4939 Y23.7595
G01 X95.4009 Y23.7526
G01 X95.3224 Y23.7577
G01 X95.2863 Y23.7734
G01 X95.2854 Y23.7741
G01 X95.2789 Y23.7954
G01 X95.28 Y23.7998
G01 X95.292 Y23.8231
G01 X95.3256 Y23.8595
G01 X95.3994 Y23.9181
G01 X95.5537 Y24.0176
G01 X95.8369 Y24.1767
G01 X95.8701 Y24.1939
G01 X95.9129 Y24.2164
G01 X96.1416 Y24.3334
G01 X96.9833 Y24.7377
G01 X97.0639 Y24.7752
G01 X97.1878 Y24.8324
G01 X97.3199 Y24.8931
G01 X98.0261 Y25.2118
G01 X98.2149 Y25.2959
G01 X99.2232 Y25.7383
G01 X99.3536 Y25.7949
G01 X99.9498 Y26.0522
G01 X100.1038 Y26.1183
G01 X100.2628 Y26.1865
G01 X100.6022 Y26.3314
G01 X101.3785 Y26.661
G01 X101.7929 Y26.836
G01 X102.235 Y27.022
G01 X103.2464 Y27.4453
G01 X104.4034 Y27.9262
G01 X105.7266 Y28.4729
G01 X107.2401 Y29.0946
G01 X108.9711 Y29.8017
G01 X114.8781 Y32.1922
G01 X120.7925 Y34.5643
G01 X122.8449 Y35.3824
G01 X126.8146 Y36.9623
G01 X127.0647 Y37.0617
G01 X129.1993 Y37.9091
G01 X130.3012 Y38.3461
G01 X132.6521 Y39.2775
G01 X138.0269 Y41.4028
G01 X138.1111 Y41.436
G01 X144.2676 Y43.8646
G01 X151.3055 Y46.6354
G01 X155.0597 Y48.1116
G01 X156.9974 Y48.8732
G01 X177.6687 Y56.9897
G01 X189.4804 Y61.6289
G01 X192.5282 Y62.8272
G01 X194.0762 Y63.4361
G01 X197.2717 Y64.6938
G01 X198.8948 Y65.333
G01 X205.8181 Y68.0638
G01 X209.3902 Y69.476
G01 X211.2043 Y70.1944
G01 X214.9485 Y71.6798
G01 X216.8497 Y72.4358
G01 X218.7807 Y73.2051
G01 X219.2652 Y73.3984
G01 X221.2337 Y74.1849
G01 X223.2326 Y74.9857
G01 X223.7342 Y75.1871
G01 X225.7716 Y76.0069
G01 X227.8401 Y76.843
G01 X229.9396 Y77.6967
G01 X230.4662 Y77.9118
G01 X231.5272 Y78.3467
G01 X232.0595 Y78.5657
G01 X233.1317 Y79.0088
G01 X233.6695 Y79.2323
G01 X234.2091 Y79.4575
G01 X235.2954 Y79.9143
G01 X235.84 Y80.1455
G01 X236.386 Y80.3793
G01 X237.5122 Y80.87
G01 X238.591 Y81.3607
G01 X238.6593 Y81.3929
G01 X238.9317 Y81.5244
G01 X238.9487 Y81.5328
G01 X239.219 Y81.6702
G01 X239.4562 Y81.8029
G01 X239.4836 Y81.8198
G01 X239.581 Y81.8883
G01 X239.6063 Y81.9105
G01 X239.6284 Y81.9427
G01 X239.6236 Y81.961
G01 X239.6174 Y81.9648
G01 X239.5615 Y81.974
G01 X239.5468 Y81.9731
G01 X239.4759 Y81.9672
G01 X239.3361 Y81.9451
G01 X239.2438 Y81.9268
G01 X239.1212 Y81.9
G01 X238.9586 Y81.8614
G01 X238.7429 Y81.8068
G01 X238.02 Y81.6085
G01 X237.8865 Y81.5696
G01 X237.3184 Y81.4026
G01 X237.167 Y81.3573
G01 X236.3617 Y81.112
G01 X235.9021 Y80.9696
G01 X234.6789 Y80.5843
G01 X233.051 Y80.0616
G01 X232.6172 Y79.921
G01 X232.1548 Y79.7705
G01 X231.0984 Y79.4249
G01 X230.5352 Y79.2398
G01 X229.2487 Y78.8149
G01 X228.9167 Y78.7048
G01 X227.4002 Y78.2003
G01 X225.668 Y77.6209
G01 X223.6895 Y76.9556
G01 X221.4294 Y76.1921
G01 X220.8462 Y75.9946
G01 X220.2444 Y75.7905
G01 X217.4941 Y74.8553
G01 X217.3208 Y74.7962
G01 X217.1462 Y74.7367
G01 X213.9548 Y73.6466
G01 X205.4501 Y70.724
G01 X203.1832 Y69.9415
G01 X202.0134 Y69.5372
G01 X199.518 Y68.6739
G01 X193.816 Y66.6964
G01 X193.7267 Y66.6654
G01 X187.1996 Y64.3947
G01 X179.7424 Y61.7927
G01 X175.7662 Y60.4024
G01 X173.7141 Y59.6841
G01 X171.596 Y58.9422
G01 X170.5203 Y58.5652
G01 X165.9307 Y56.9554
G01 X161.036 Y55.2361
G01 X160.4194 Y55.0194
G01 X155.1582 Y53.1684
G01 X149.5473 Y51.1913
G01 X148.1224 Y50.6888
G01 X142.0437 Y48.5427
G01 X138.9068 Y47.4338
G01 X138.1164 Y47.1543
G01 X131.3728 Y44.7667
G01 X130.9497 Y44.6167
G01 X127.4561 Y43.3777
G01 X120.0046 Y40.7306
G01 X116.1595 Y39.3618
G01 X114.2067 Y38.6659
G01 X110.1758 Y37.2274
G01 X106.0157 Y35.7397
G01 X103.9032 Y34.9828
G01 X99.543 Y33.4166
G01 X94.3026 Y31.5242
G01 X90.2516 Y30.0468
G01 X89.6697 Y29.8326
G01 X89.0857 Y29.6168
G01 X87.9098 Y29.1783
G01 X87.3206 Y28.9554
G01 X86.7307 Y28.7273
G01 X86.4366 Y28.6094
G01 X86.4 Y28.5942
G01 X86.2542 Y28.5317
G01 X86.2181 Y28.5152
G01 X86.1485 Y28.4766
G01 X86.1522 Y28.4692
G01 X86.1606 Y28.469
G01 X86.1748 Y28.4702
G01 X86.2015 Y28.4743
G01 X86.2536 Y28.4846
G01 X86.288 Y28.4922
G01 X86.4245 Y28.5255
G01 X86.6953 Y28.5973
G01 X86.8754 Y28.647
G01 X87.5932 Y28.8521
G01 X88.0708 Y28.9918
G01 X88.707 Y29.1802
G01 X88.8766 Y29.2308
G01 X89.0574 Y29.2848
G01 X90.0212 Y29.5745
G01 X91.3053 Y29.9639
G01 X96.4358 Y31.54
G01 X99.8531 Y32.6001
G01 X104.4072 Y34.0206
G01 X104.9947 Y34.2044
G01 X107.68 Y35.0456
G01 X109.112 Y35.495
G01 X112.3844 Y36.5238
G01 X114.1294 Y37.0734
G01 X114.5727 Y37.2131
G01 X115.0229 Y37.355
G01 X119.1381 Y38.6543
G01 X119.3974 Y38.7363
G01 X121.6091 Y39.436
G01 X122.7505 Y39.7975
G01 X125.1854 Y40.5692
G01 X130.7496 Y42.3367
G01 X137.107 Y44.3622
G01 X144.3702 Y46.6842
G01 X148.243 Y47.9257
G01 X150.2415 Y48.5674
G01 X154.5044 Y49.9382
G01 X159.0505 Y51.4035
G01 X163.8986 Y52.9703
G01 X169.0683 Y54.6459
G01 X171.736 Y55.5127
G01 X174.4893 Y56.4089
G01 X183.6344 Y59.3988
G01 X187.0685 Y60.527
G01 X193.7719 Y62.7402
G01 X197.2298 Y63.8881
G01 X198.9856 Y64.4729
G01 X200.7689 Y65.0682
G01 X201.6675 Y65.3687
G01 X203.4927 Y65.9804
G01 X207.259 Y67.2485
G01 X207.3768 Y67.2883
G01 X209.2907 Y67.9362
G01 X210.2549 Y68.2635
G01 X212.2132 Y68.9306
G01 X214.2016 Y69.6112
G01 X218.1773 Y70.9841
G01 X222.1464 Y72.3759
G01 X222.6696 Y72.561
G01 X222.9342 Y72.6549
G01 X224.0004 Y73.0352
G01 X224.5352 Y73.2269
G01 X225.6127 Y73.6154
G01 X225.8824 Y73.7132
G01 X226.4238 Y73.9101
G01 X227.514 Y74.3099
G01 X228.6112 Y74.7171
G01 X228.8858 Y74.8199
G01 X229.4366 Y75.0274
G01 X230.9171 Y75.5948
G01 X231.6674 Y75.8906
G01 X232.2246 Y76.1142
G01 X232.7823 Y76.3429
G01 X233.3399 Y76.5781
G01 X233.6181 Y76.6986
G01 X233.8959 Y76.8218
G01 X234.4493 Y77.0788
G01 X234.4836 Y77.0954
G01 X234.8744 Y77.2947
G01 X235.0273 Y77.379
G01 X235.0936 Y77.4177
G01 X235.2722 Y77.5316
G01 X235.3499 Y77.589
G01 X235.4339 Y77.6659
G01 X235.4613 Y77.6977
G01 X235.4848 Y77.7418
G01 X235.4899 Y77.7738
G01 X235.476 Y77.8091
G01 X235.4607 Y77.8241
G01 X235.4116 Y77.8518
G01 X235.4097 Y77.8524
G01 X235.3143 Y77.8786
G01 X235.3011 Y77.8806
G01 X235.1146 Y77.8992
G01 X235.085 Y77.9003
G01 X234.7558 Y77.8985
G01 X234.6608 Y77.8943
G01 X234.0951 Y77.8511
G01 X233.826 Y77.8235
G01 X232.938 Y77.7136
G01 X232.176 Y77.6032
G01 X231.9567 Y77.5697
G01 X231.456 Y77.491
G01 X230.8846 Y77.3977
G01 X230.7372 Y77.3731
G01 X230.5851 Y77.3475
G01 X229.8907 Y77.2283
G01 X229.7115 Y77.197
G01 X229.3297 Y77.1296
G01 X228.4575 Y76.9724
G01 X227.9928 Y76.887
G01 X225.8103 Y76.4746
G01 X225.5182 Y76.4178
G01 X224.1061 Y76.1414
G01 X222.4936 Y75.8199
G01 X220.6524 Y75.4464
G01 X220.1774 Y75.3491
G01 X219.6871 Y75.2484
G01 X217.4475 Y74.7836
G01 X216.8696 Y74.6626
G01 X216.2733 Y74.5374
G01 X213.5486 Y73.9603
G01 X213.3769 Y73.9237
G01 X210.2406 Y73.2505
G01 X208.5685 Y72.8884
G01 X204.7485 Y72.0543
G01 X202.7119 Y71.6061
G01 X200.5402 Y71.1257
G01 X198.2243 Y70.611
G01 X197.0292 Y70.3444
G01 X196.4221 Y70.2088
G01 X195.8055 Y70.0709
G01 X193.1752 Y69.4809
G01 X193.0928 Y69.4624
G01 X193.0103 Y69.4438
G01 X192.9276 Y69.4252
G01 X191.5623 Y69.1178
G01 X188.6501 Y68.4601
G01 X187.1473 Y68.1195
G01 X186.384 Y67.9463
G01 X184.8083 Y67.5881
G01 X181.4476 Y66.8218
G01 X179.7132 Y66.4251
G01 X177.9232 Y66.0149
G01 X174.105 Y65.1372
G01 X172.1346 Y64.683
G01 X167.9319 Y63.7112
G01 X165.763 Y63.2082
G01 X161.137 Y62.1322
G01 X156.2036 Y60.9802
G01 X155.5821 Y60.8348
G01 X144.3285 Y58.1883
G01 X133.0794 Y55.5223
G01 X129.0824 Y54.57
G01 X125.6651 Y53.7532
G01 X123.9295 Y53.3375
G01 X123.7121 Y53.2854
G01 X121.9456 Y52.8616
G01 X118.2993 Y51.9849
G01 X116.4474 Y51.5386
G01 X114.5664 Y51.0845
G01 X110.6835 Y50.1443
G01 X108.7116 Y49.6654
G01 X107.7179 Y49.4236
G01 X105.6994 Y48.9315
G01 X105.4465 Y48.8698
G01 X103.3923 Y48.3675
G01 X101.3057 Y47.8556
G01 X99.1866 Y47.3337
G01 X97.0344 Y46.8013
G01 X94.8487 Y46.2576
G01 X92.6294 Y45.7014
G01 X90.3761 Y45.1306
G01 X89.2415 Y44.8398
G01 X88.6722 Y44.6927
G01 X87.5256 Y44.3928
G01 X86.9506 Y44.2399
G01 X85.9024 Y43.953
G01 X85.7942 Y43.9222
G01 X85.5057 Y43.8386
G01 X85.3616 Y43.7954
G01 X85.0747 Y43.7031
G01 X84.9466 Y43.6518
G01 X84.935 Y43.6461
G01 X84.9234 Y43.6383
G01 X84.9181 Y43.6253
G01 X84.9279 Y43.6203
G01 X84.9544 Y43.6167
G01 X84.9897 Y43.6162
G01 X85.0521 Y43.6189
G01 X85.1718 Y43.6293
G01 X85.4075 Y43.6574
G01 X85.564 Y43.6786
G01 X85.7722 Y43.7086
G01 X86.6016 Y43.8391
G01 X87.1535 Y43.9311
G01 X87.8886 Y44.0572
G01 X88.3085 Y44.1305
G01 X89.4272 Y44.3291
G01 X89.5716 Y44.3549
G01 X89.8794 Y44.4104
G01 X91.5205 Y44.709
G01 X92.4579 Y44.8815
G01 X94.9565 Y45.3464
G01 X96.3839 Y45.6145
G01 X98.0148 Y45.9224
G01 X99.8783 Y46.2761
G01 X108.1224 Y47.8567
G01 X114.7772 Y49.1474
G01 X115.7381 Y49.3344
G01 X120.1303 Y50.191
G01 X134.0903 Y52.9315
G01 X148.0464 Y55.6915
G01 X155.2512 Y57.1244
G01 X159.9323 Y58.0574
G01 X161.1212 Y58.2946
G01 X166.1931 Y59.3082
G01 X171.6027 Y60.3918
G01 X174.3945 Y60.9521
G01 X174.5694 Y60.9873
G01 X180.5364 Y62.1876
G01 X186.9003 Y63.4721
G01 X193.6874 Y64.8477
G01 X194.5424 Y65.0215
G01 X198.0723 Y65.7402
G01 X198.5153 Y65.8306
G01 X202.1728 Y66.5782
G01 X203.0943 Y66.767
G01 X204.023 Y66.9576
G01 X207.8572 Y67.7468
G01 X213.8719 Y68.9964
G01 X216.0326 Y69.4504
G01 X216.0965 Y69.4639
G01 X218.1721 Y69.9044
G01 X218.302 Y69.9321
G01 X219.3486 Y70.1567
G01 X220.4029 Y70.3852
G01 X220.667 Y70.4429
G01 X221.7308 Y70.6778
G01 X222.8017 Y70.9205
G01 X223.7967 Y71.1605
G01 X223.8773 Y71.1808
G01 X223.9109 Y71.1896
G01 X223.9778 Y71.2075
G01 X224.2437 Y71.2871
G01 X224.307 Y71.3162
G01 X224.3104 Y71.325
G01 X224.2782 Y71.3315
G01 X224.2454 Y71.331
G01 X224.1803 Y71.3264
G01 X224.051 Y71.3118
G01 X223.794 Y71.2755
G01 X223.623 Y71.2488
G01 X223.3954 Y71.2117
G01 X223.3347 Y71.2015
G01 X222.3658 Y71.0317
G01 X221.7209 Y70.914
G01 X221.549 Y70.8822
G01 X220.6326 Y70.7109
G01 X219.4113 Y70.479
G01 X219.2538 Y70.4488
G01 X218.9177 Y70.3844
G01 X218.1498 Y70.2366
G01 X216.1024 Y69.8392
G01 X213.3737 Y69.3051
G01 X212.6461 Y69.162
G01 X211.8701 Y69.0093
G01 X207.7318 Y68.1921
G01 X207.1979 Y68.0864
G01 X190.114 Y64.7
G01 X185.2324 Y63.7348
G01 X182.6287 Y63.2209
G01 X176.6769 Y62.0494
G01 X169.8735 Y60.7166
G01 X166.2445 Y60.009
G01 X166.1308 Y59.9868
G01 X166.017 Y59.9647
G01 X165.9029 Y59.9425
G01 X162.0085 Y59.1862
G01 X161.0193 Y58.9946
G01 X158.9771 Y58.5997
G01 X154.6198 Y57.7606
G01 X152.3705 Y57.3293
G01 X150.0484 Y56.8855
G01 X145.0935 Y55.9438
G01 X144.4691 Y55.8257
G01 X141.891 Y55.3393
G01 X141.5674 Y55.2785
G01 X141.2425 Y55.2174
G01 X138.5598 Y54.7145
G01 X137.1969 Y54.4601
G01 X134.3827 Y53.9372
G01 X131.4772 Y53.401
G01 X128.4771 Y52.8516
G01 X128.1006 Y52.783
G01 X124.9905 Y52.2192
G01 X121.7792 Y51.6432
G01 X118.4629 Y51.0556
G01 X116.7778 Y50.7603
G01 X115.9285 Y50.6123
G01 X111.6546 Y49.8773
G01 X108.6764 Y49.3771
G01 X107.7621 Y49.2255
G01 X105.9039 Y48.921
G01 X104.0153 Y48.6167
G01 X102.0957 Y48.3136
G01 X100.1446 Y48.0128
G01 X99.1608 Y47.8644
G01 X98.169 Y47.7171
G01 X95.6956 Y47.3623
G01 X94.069 Y47.14
G01 X92.1619 Y46.8948
G01 X90.2524 Y46.6696
G01 X89.8259 Y46.622
G01 X89.5597 Y46.5936
G01 X89.025 Y46.5384
G01 X88.4879 Y46.4859
G01 X87.9484 Y46.4365
G01 X86.9076 Y46.3527
G01 X86.8597 Y46.3493
G01 X86.3125 Y46.3133
G01 X85.4476 Y46.2714
G01 X85.2079 Y46.2633
G01 X84.9309 Y46.2572
G01 X84.3749 Y46.2564
G01 X83.8192 Y46.2756
G01 X83.8131 Y46.2759
G01 X83.4443 Y46.3087
G01 X83.2535 Y46.3336
G01 X83.0259 Y46.3775
G01 X82.9764 Y46.3898
G01 X82.8225 Y46.4378
G01 X82.7079 Y46.4879
G01 X82.6225 Y46.5426
G01 X82.5885 Y46.5721
G01 X82.5452 Y46.6259
G01 X82.5192 Y46.6899
G01 X82.5149 Y46.7117
G01 X82.517 Y46.7826
G01 X82.5254 Y46.817
G01 X82.5656 Y46.9101
G01 X82.5677 Y46.914
G01 X82.6502 Y47.0329
G01 X82.6921 Y47.082
G01 X82.8591 Y47.2468
G01 X82.9933 Y47.3608
G01 X83.0361 Y47.3949
G01 X83.3639 Y47.6342
G01 X83.7032 Y47.857
G01 X83.7438 Y47.8821
G01 X83.9528 Y48.01
G01 X84.065 Y48.0769
G01 X84.6514 Y48.4104
G01 X84.6678 Y48.4194
G01 X85.0157 Y48.6076
G01 X85.2021 Y48.7062
G01 X85.4014 Y48.8101
G01 X85.6144 Y48.9196
G01 X86.1027 Y49.1657
G01 X86.663 Y49.4407
G01 X86.8081 Y49.5108
G01 X87.4722 Y49.8269
G01 X87.644 Y49.9075
G01 X88.0108 Y50.0783
G01 X89.5054 Y50.757
G01 X89.974 Y50.9653
G01 X90.0991 Y51.0206
G01 X90.2262 Y51.0766
G01 X91.988 Y51.8418
G01 X92.9442 Y52.248
G01 X93.6713 Y52.5544
G01 X95.3358 Y53.2467
G01 X95.766 Y53.4239
G01 X98.6992 Y54.6151
G01 X100.3625 Y55.2811
G01 X101.5912 Y55.7684
G01 X102.9029 Y56.2852
G01 X104.303 Y56.8332
G01 X105.026 Y57.1149
G01 X105.7726 Y57.4049
G01 X109.8907 Y58.9899
G01 X113.7484 Y60.4553
G01 X115.8791 Y61.2581
G01 X116.9793 Y61.671
G01 X117.5383 Y61.8804
G01 X119.924 Y62.7709
G01 X122.4702 Y63.7164
G01 X122.55 Y63.746
G01 X125.2728 Y64.7518
G01 X128.1785 Y65.8199
G01 X131.2796 Y66.9542
G01 X132.8809 Y67.5378
G01 X134.5341 Y68.139
G01 X138.0624 Y69.4175
G01 X139.8841 Y70.0753
G01 X143.7718 Y71.4743
G01 X145.779 Y72.1942
G01 X150.0626 Y73.7252
G01 X154.634 Y75.3516
G01 X162.9336 Y78.2868
G01 X171.2399 Y81.2031
G01 X179.0454 Y83.9243
G01 X179.4288 Y84.0575
G01 X182.595 Y85.1562
G01 X183.393 Y85.4327
G01 X184.1973 Y85.7111
G01 X187.5187 Y86.8591
G01 X190.9483 Y88.0409
G01 X191.3788 Y88.1889
G01 X194.9342 Y89.4097
G01 X198.6057 Y90.6659
G01 X202.3972 Y91.9578
G01 X203.3528 Y92.2825
G01 X207.2999 Y93.619
G01 X209.3058 Y94.2948
G01 X211.3443 Y94.9789
G01 X211.8561 Y95.1501
G01 X212.888 Y95.4946
G01 X213.9284 Y95.8407
G01 X214.1891 Y95.9273
G01 X216.3084 Y96.6271
G01 X217.3775 Y96.9767
G01 X217.9145 Y97.1511
G01 X218.454 Y97.3251
G01 X218.996 Y97.4985
G01 X219.5406 Y97.6706
G01 X220.3771 Y97.927
G01 X220.6429 Y98.0041
G01 X220.9223 Y98.0762
G01 X220.994 Y98.0863
G01 X221.0021 Y98.0807
G01 X220.9943 Y98.0726
G00 Z100.0
G00 Y98.6018
G01 F100.0 Z0.0
G01 F1000.0 X221.0021 Y98.6099
G01 X220.994 Y98.6155
G01 X220.9223 Y98.6054
G01 X220.6429 Y98.5333
G01 X219.8055 Y98.2833
G01 X219.5406 Y98.1998
G01 X218.996 Y98.0277
G01 X218.454 Y97.8543
G01 X217.9145 Y97.6802
G01 X217.3775 Y97.5059
G01 X216.3084 Y97.1563
G01 X214.1891 Y96.4565
G01 X213.9283 Y96.3699
G01 X212.888 Y96.0237
G01 X211.8561 Y95.6793
G01 X211.3443 Y95.5081
G01 X209.3058 Y94.824
G01 X207.2999 Y94.1481
G01 X203.3528 Y92.8117
G01 X202.3972 Y92.487
G01 X198.6057 Y91.195
G01 X194.9342 Y89.9389
G01 X191.3788 Y88.7181
G01 X190.9483 Y88.57
G01 X187.5187 Y87.3882
G01 X184.1973 Y86.2403
G01 X183.393 Y85.9619
G01 X182.595 Y85.6854
G01 X179.4288 Y84.5867
G01 X179.0454 Y84.4534
G01 X170.7378 Y81.5566
G01 X162.4368 Y78.6409
G01 X154.634 Y75.8808
G01 X150.0626 Y74.2543
G01 X145.779 Y72.7233
G01 X143.7718 Y72.0034
G01 X139.8841 Y70.6045
G01 X133.7736 Y68.393
G01 X127.6699 Y66.1627
G01 X125.3255 Y65.3004
G01 X122.5995 Y64.2935
G01 X117.5007 Y62.3948
G01 X112.4088 Y60.4774
G01 X112.393 Y60.4714
G01 X110.4822 Y59.7447
G01 X108.6919 Y59.0599
G01 X108.2725 Y58.8989
G01 X107.8596 Y58.7402
G01 X106.2348 Y58.1132
G01 X104.7128 Y57.5222
G01 X103.2868 Y56.965
G01 X101.9509 Y56.4396
G01 X101.7944 Y56.3779
G01 X100.5528 Y55.8859
G01 X97.839 Y54.7984
G01 X95.9081 Y54.0114
G01 X95.4735 Y53.8326
G01 X95.0526 Y53.6588
G01 X94.2378 Y53.3204
G01 X92.2712 Y52.4916
G01 X91.1917 Y52.0273
G01 X90.6221 Y51.7794
G01 X90.0886 Y51.5451
G01 X89.9637 Y51.4899
G01 X88.6035 Y50.8801
G01 X88.0032 Y50.6039
G01 X87.6368 Y50.4333
G01 X87.4652 Y50.3528
G01 X86.802 Y50.037
G01 X86.6572 Y49.967
G01 X86.0976 Y49.6923
G01 X85.61 Y49.4465
G01 X85.3973 Y49.3371
G01 X85.1982 Y49.2333
G01 X85.0121 Y49.1348
G01 X84.6646 Y48.9469
G01 X84.091 Y48.6213
G01 X84.0627 Y48.6047
G01 X83.9506 Y48.5379
G01 X83.7419 Y48.4101
G01 X83.4035 Y48.1907
G01 X83.0763 Y47.9548
G01 X83.0351 Y47.9233
G01 X82.9924 Y47.8893
G01 X82.8148 Y47.7348
G01 X82.6917 Y47.6107
G01 X82.6015 Y47.4959
G01 X82.5676 Y47.4429
G01 X82.5264 Y47.3493
G01 X82.5254 Y47.3461
G01 X82.5134 Y47.276
G01 X82.5149 Y47.2409
G01 X82.5349 Y47.1747
G01 X82.5729 Y47.1171
G01 X82.5885 Y47.1012
G01 X82.6687 Y47.0393
G01 X82.7079 Y47.0171
G01 X82.8564 Y46.9545
G01 X82.9764 Y46.919
G01 X83.2032 Y46.8707
G01 X83.2535 Y46.8627
G01 X83.6212 Y46.8196
G01 X83.8131 Y46.8051
G01 X84.3688 Y46.7857
G01 X84.9248 Y46.7862
G01 X84.9309 Y46.7863
G01 X85.2079 Y46.7925
G01 X86.0732 Y46.8289
G01 X86.3125 Y46.8425
G01 X86.8597 Y46.8785
G01 X87.9005 Y46.9614
G01 X87.9484 Y46.9657
G01 X88.4879 Y47.0151
G01 X89.025 Y47.0676
G01 X89.5597 Y47.1227
G01 X89.8259 Y47.1512
G01 X91.736 Y47.372
G01 X93.6437 Y47.6127
G01 X94.069 Y47.6691
G01 X96.5443 Y48.0109
G01 X98.169 Y48.2462
G01 X99.1608 Y48.3935
G01 X100.1446 Y48.542
G01 X102.0957 Y48.8428
G01 X104.0153 Y49.1459
G01 X105.9039 Y49.4501
G01 X107.7621 Y49.7547
G01 X108.6765 Y49.9062
G01 X112.9523 Y50.6275
G01 X115.9285 Y51.1415
G01 X116.7778 Y51.2895
G01 X118.4629 Y51.5848
G01 X121.7792 Y52.1723
G01 X124.9906 Y52.7484
G01 X128.1006 Y53.3121
G01 X128.4771 Y53.3808
G01 X131.4772 Y53.9301
G01 X134.3828 Y54.4664
G01 X137.1969 Y54.9892
G01 X138.5598 Y55.2437
G01 X141.2425 Y55.7465
G01 X141.5674 Y55.8076
G01 X141.8911 Y55.8685
G01 X144.4692 Y56.3548
G01 X145.0935 Y56.4729
G01 X150.0484 Y57.4146
G01 X152.3705 Y57.8584
G01 X154.6198 Y58.2897
G01 X158.9771 Y59.1289
G01 X161.0193 Y59.5238
G01 X162.0085 Y59.7154
G01 X165.9029 Y60.4716
G01 X166.017 Y60.4938
G01 X166.1309 Y60.516
G01 X166.2445 Y60.5381
G01 X169.8735 Y61.2458
G01 X176.6769 Y62.5785
G01 X182.6288 Y63.7501
G01 X185.2325 Y64.2639
G01 X190.1141 Y65.2292
G01 X207.1979 Y68.6156
G01 X207.7319 Y68.7212
G01 X211.8701 Y69.5385
G01 X212.6461 Y69.6912
G01 X213.3737 Y69.8342
G01 X216.1025 Y70.3684
G01 X218.1498 Y70.7657
G01 X218.9177 Y70.9136
G01 X219.2538 Y70.978
G01 X219.4114 Y71.0082
G01 X220.6326 Y71.2401
G01 X221.549 Y71.4114
G01 X221.7209 Y71.4432
G01 X222.3658 Y71.5609
G01 X223.3347 Y71.7307
G01 X223.3954 Y71.7408
G01 X223.623 Y71.778
G01 X223.794 Y71.8047
G01 X224.051 Y71.841
G01 X224.1803 Y71.8555
G01 X224.2454 Y71.8602
G01 X224.2782 Y71.8606
G01 X224.3104 Y71.8542
G01 X224.307 Y71.8454
G01 X224.2437 Y71.8162
G01 X223.9778 Y71.7367
G01 X223.9109 Y71.7188
G01 X223.8773 Y71.71
G01 X222.8827 Y71.4685
G01 X222.8017 Y71.4497
G01 X221.7308 Y71.2069
G01 X220.667 Y70.9721
G01 X220.4029 Y70.9144
G01 X219.3486 Y70.6859
G01 X218.302 Y70.4613
G01 X218.1721 Y70.4336
G01 X216.0965 Y69.993
G01 X216.0326 Y69.9795
G01 X210.0203 Y68.723
G01 X207.8572 Y68.2759
G01 X204.023 Y67.4867
G01 X203.0943 Y67.2962
G01 X202.1728 Y67.1073
G01 X198.5153 Y66.3597
G01 X198.0723 Y66.2694
G01 X194.5424 Y65.5506
G01 X193.6874 Y65.3768
G01 X186.9003 Y64.0012
G01 X180.5364 Y62.7167
G01 X174.5694 Y61.5164
G01 X174.3945 Y61.4813
G01 X171.6027 Y60.921
G01 X166.1931 Y59.8373
G01 X161.1212 Y58.8238
G01 X159.9323 Y58.5865
G01 X155.2512 Y57.6535
G01 X141.3202 Y54.8879
G01 X127.3854 Y52.1418
G01 X120.1303 Y50.7202
G01 X115.7381 Y49.8635
G01 X114.7772 Y49.6765
G01 X106.5491 Y48.0826
G01 X99.8783 Y46.8053
G01 X98.0148 Y46.4516
G01 X96.3839 Y46.1436
G01 X94.9565 Y45.8756
G01 X92.4579 Y45.4107
G01 X91.5205 Y45.2381
G01 X89.8794 Y44.9395
G01 X89.5716 Y44.8841
G01 X89.4272 Y44.8582
G01 X88.3085 Y44.6597
G01 X87.8886 Y44.5863
G01 X87.1535 Y44.4603
G01 X86.6016 Y44.3683
G01 X85.7722 Y44.2378
G01 X85.564 Y44.2077
G01 X85.4075 Y44.1865
G01 X85.1718 Y44.1585
G01 X85.0521 Y44.1481
G01 X84.9897 Y44.1453
G01 X84.9544 Y44.1459
G01 X84.9279 Y44.1495
G01 X84.9181 Y44.1545
G01 X84.9234 Y44.1675
G01 X84.935 Y44.1752
G01 X85.0624 Y44.2282
G01 X85.0747 Y44.2322
G01 X85.3616 Y44.3246
G01 X85.5057 Y44.3678
G01 X85.7942 Y44.4514
G01 X86.8419 Y44.7402
G01 X86.9506 Y44.769
G01 X87.5256 Y44.9219
G01 X88.6722 Y45.2218
G01 X89.2415 Y45.369
G01 X90.3761 Y45.6598
G01 X92.6294 Y46.2305
G01 X94.8487 Y46.7868
G01 X97.0344 Y47.3305
G01 X99.1866 Y47.8629
G01 X101.3057 Y48.3847
G01 X103.3923 Y48.8966
G01 X105.4465 Y49.399
G01 X105.6994 Y49.4607
G01 X107.7179 Y49.9528
G01 X108.7116 Y50.1945
G01 X110.6835 Y50.6735
G01 X114.5664 Y51.6136
G01 X116.4474 Y52.0678
G01 X118.2993 Y52.5141
G01 X121.9456 Y53.3908
G01 X123.7121 Y53.8146
G01 X123.9295 Y53.8667
G01 X125.6651 Y54.2824
G01 X129.0824 Y55.0992
G01 X140.3356 Y57.7735
G01 X151.5934 Y60.4283
G01 X155.5821 Y61.3639
G01 X156.2036 Y61.5094
G01 X161.137 Y62.6614
G01 X165.763 Y63.7374
G01 X167.9319 Y64.2403
G01 X172.1346 Y65.2121
G01 X174.105 Y65.6664
G01 X177.9232 Y66.5441
G01 X179.7132 Y66.9543
G01 X181.4476 Y67.351
G01 X184.8083 Y68.1173
G01 X186.384 Y68.4754
G01 X187.1473 Y68.6487
G01 X188.6501 Y68.9892
G01 X191.5623 Y69.647
G01 X192.9276 Y69.9544
G01 X193.0103 Y69.973
G01 X193.0928 Y69.9915
G01 X193.1752 Y70.0101
G01 X195.8055 Y70.6001
G01 X196.4221 Y70.738
G01 X197.0292 Y70.8736
G01 X198.2243 Y71.1401
G01 X200.5402 Y71.6549
G01 X202.7119 Y72.1352
G01 X204.7485 Y72.5834
G01 X208.5685 Y73.4176
G01 X210.2406 Y73.7796
G01 X213.3769 Y74.4528
G01 X213.5486 Y74.4894
G01 X216.2733 Y75.0665
G01 X216.8696 Y75.1918
G01 X217.4475 Y75.3127
G01 X219.6871 Y75.7775
G01 X220.1774 Y75.8783
G01 X220.6524 Y75.9756
G01 X222.4936 Y76.349
G01 X224.1061 Y76.6706
G01 X225.5182 Y76.947
G01 X227.7005 Y77.3621
G01 X227.9928 Y77.4161
G01 X228.4575 Y77.5015
G01 X229.3297 Y77.6587
G01 X229.7115 Y77.7262
G01 X229.8907 Y77.7575
G01 X230.5851 Y77.8767
G01 X230.7372 Y77.9022
G01 X230.8846 Y77.9268
G01 X231.456 Y78.0201
G01 X231.9567 Y78.0989
G01 X232.176 Y78.1323
G01 X233.0618 Y78.2593
G01 X233.826 Y78.3527
G01 X234.3909 Y78.4053
G01 X234.6608 Y78.4234
G01 X234.9899 Y78.431
G01 X235.085 Y78.4295
G01 X235.2717 Y78.414
G01 X235.3011 Y78.4098
G01 X235.3972 Y78.3862
G01 X235.4097 Y78.3816
G01 X235.4592 Y78.3545
G01 X235.4607 Y78.3533
G01 X235.4844 Y78.3237
G01 X235.4899 Y78.303
G01 X235.4785 Y78.2542
G01 X235.4613 Y78.2268
G01 X235.3823 Y78.1447
G01 X235.3499 Y78.1181
G01 X235.1763 Y77.9966
G01 X235.0936 Y77.9468
G01 X235.0273 Y77.9081
G01 X234.6402 Y77.7018
G01 X234.4836 Y77.6246
G01 X234.4493 Y77.6079
G01 X233.8959 Y77.3509
G01 X233.6181 Y77.2278
G01 X233.3399 Y77.1073
G01 X232.7823 Y76.8721
G01 X232.2246 Y76.6434
G01 X231.6674 Y76.4198
G01 X230.1907 Y75.8429
G01 X229.4366 Y75.5566
G01 X228.8858 Y75.3491
G01 X228.6112 Y75.2462
G01 X227.514 Y74.839
G01 X226.4238 Y74.4393
G01 X225.8824 Y74.2424
G01 X225.6127 Y74.1446
G01 X224.5352 Y73.7561
G01 X224.0004 Y73.5643
G01 X222.9342 Y73.1841
G01 X222.6696 Y73.0901
G01 X218.7016 Y71.6959
G01 X214.727 Y70.3206
G01 X214.2016 Y70.1404
G01 X212.2132 Y69.4597
G01 X210.2549 Y68.7927
G01 X209.2907 Y68.4653
G01 X207.3768 Y67.8174
G01 X207.259 Y67.7776
G01 X203.4927 Y66.5096
G01 X201.6675 Y65.8979
G01 X200.7689 Y65.5974
G01 X198.9856 Y65.002
G01 X197.2298 Y64.4173
G01 X193.7719 Y63.2693
G01 X187.0685 Y61.0561
G01 X177.9371 Y58.0628
G01 X174.4893 Y56.9381
G01 X171.736 Y56.0419
G01 X169.0683 Y55.1751
G01 X163.8986 Y53.4994
G01 X159.0505 Y51.9327
G01 X154.5044 Y50.4674
G01 X150.2415 Y49.0965
G01 X148.243 Y48.4549
G01 X144.3702 Y47.2134
G01 X137.107 Y44.8914
G01 X130.7496 Y42.8659
G01 X125.1854 Y41.0984
G01 X122.7505 Y40.3266
G01 X121.6091 Y39.9652
G01 X119.3974 Y39.2654
G01 X119.1381 Y39.1835
G01 X115.0229 Y37.8842
G01 X114.5727 Y37.7423
G01 X114.1294 Y37.6026
G01 X112.3844 Y37.053
G01 X109.112 Y36.0241
G01 X107.68 Y35.5748
G01 X104.9947 Y34.7335
G01 X104.4072 Y34.5498
G01 X99.8531 Y33.1293
G01 X96.4358 Y32.0692
G01 X91.3053 Y30.4931
G01 X90.0212 Y30.1037
G01 X89.0574 Y29.814
G01 X88.8766 Y29.76
G01 X88.707 Y29.7094
G01 X88.0708 Y29.521
G01 X87.5932 Y29.3812
G01 X86.8754 Y29.1761
G01 X86.6953 Y29.1264
G01 X86.4245 Y29.0546
G01 X86.288 Y29.0214
G01 X86.2536 Y29.0138
G01 X86.2015 Y29.0034
G01 X86.1748 Y28.9994
G01 X86.1606 Y28.9982
G01 X86.1522 Y28.9984
G01 X86.1485 Y29.0058
G01 X86.2181 Y29.0443
G01 X86.2542 Y29.0609
G01 X86.4 Y29.1234
G01 X86.4366 Y29.1386
G01 X86.7307 Y29.2565
G01 X87.3206 Y29.4845
G01 X87.9098 Y29.7075
G01 X89.0857 Y30.1459
G01 X89.6697 Y30.3618
G01 X90.2516 Y30.576
G01 X95.4869 Y32.4829
G01 X99.543 Y33.9458
G01 X103.9032 Y35.512
G01 X106.0157 Y36.2689
G01 X110.1758 Y37.7566
G01 X114.2067 Y39.1951
G01 X116.1595 Y39.891
G01 X120.0046 Y41.2597
G01 X127.4561 Y43.9069
G01 X130.9497 Y45.1459
G01 X131.3728 Y45.2958
G01 X138.1164 Y47.6835
G01 X138.9068 Y47.963
G01 X142.0437 Y49.0719
G01 X148.1224 Y51.218
G01 X149.5473 Y51.7205
G01 X155.1582 Y53.6975
G01 X160.4194 Y55.5485
G01 X161.036 Y55.7653
G01 X165.9307 Y57.4846
G01 X170.5203 Y59.0944
G01 X171.596 Y59.4714
G01 X173.7141 Y60.2133
G01 X175.7662 Y60.9315
G01 X179.7424 Y62.3219
G01 X187.1996 Y64.9238
G01 X193.7267 Y67.1945
G01 X193.816 Y67.2255
G01 X199.518 Y69.203
G01 X202.0134 Y70.0664
G01 X203.1832 Y70.4707
G01 X205.4501 Y71.2531
G01 X213.9548 Y74.1757
G01 X217.1462 Y75.2659
G01 X217.3208 Y75.3254
G01 X217.4941 Y75.3844
G01 X220.2444 Y76.3196
G01 X220.8462 Y76.5237
G01 X221.4294 Y76.7213
G01 X223.6895 Y77.4848
G01 X225.668 Y78.15
G01 X227.4002 Y78.7295
G01 X228.9167 Y79.234
G01 X229.2487 Y79.344
G01 X230.5352 Y79.769
G01 X231.0984 Y79.9541
G01 X232.1548 Y80.2997
G01 X232.6172 Y80.4502
G01 X233.051 Y80.5908
G01 X234.6789 Y81.1134
G01 X235.9021 Y81.4988
G01 X236.3617 Y81.6412
G01 X237.167 Y81.8864
G01 X237.3184 Y81.9317
G01 X237.8865 Y82.0988
G01 X238.6085 Y82.3006
G01 X238.7429 Y82.3359
G01 X238.9586 Y82.3906
G01 X239.1212 Y82.4291
G01 X239.2438 Y82.456
G01 X239.3361 Y82.4743
G01 X239.4759 Y82.4964
G01 X239.5468 Y82.5022
G01 X239.6034 Y82.4982
G01 X239.6174 Y82.494
G01 X239.6291 Y82.4791
G01 X239.6284 Y82.4718
G01 X239.6063 Y82.4397
G01 X239.5123 Y82.3666
G01 X239.4836 Y82.3489
G01 X239.2476 Y82.2141
G01 X239.219 Y82.1993
G01 X238.9487 Y82.0619
G01 X238.9317 Y82.0536
G01 X238.6593 Y81.9221
G01 X238.591 Y81.8898
G01 X237.4726 Y81.3815
G01 X236.386 Y80.9085
G01 X235.84 Y80.6747
G01 X235.2954 Y80.4435
G01 X234.2091 Y79.9866
G01 X233.6695 Y79.7615
G01 X233.1317 Y79.538
G01 X232.0595 Y79.0948
G01 X231.5272 Y78.8758
G01 X230.4662 Y78.441
G01 X229.9396 Y78.2259
G01 X227.8401 Y77.3722
G01 X225.7716 Y76.5361
G01 X223.7342 Y75.7162
G01 X223.2326 Y75.5149
G01 X221.2337 Y74.714
G01 X219.2652 Y73.9276
G01 X218.7807 Y73.7343
G01 X216.8497 Y72.965
G01 X214.9485 Y72.209
G01 X211.2043 Y70.7235
G01 X209.3902 Y70.0052
G01 X205.8181 Y68.5929
G01 X198.8948 Y65.8621
G01 X197.2717 Y65.2229
G01 X194.0762 Y63.9652
G01 X192.5282 Y63.3563
G01 X189.4804 Y62.158
G01 X177.6687 Y57.5189
G01 X156.9974 Y49.4024
G01 X155.0597 Y48.6408
G01 X151.3055 Y47.1646
G01 X144.2676 Y44.3938
G01 X138.1111 Y41.9652
G01 X138.0269 Y41.932
G01 X132.6521 Y39.8067
G01 X130.3012 Y38.8753
G01 X129.1993 Y38.4383
G01 X127.0647 Y37.5908
G01 X126.8146 Y37.4914
G01 X122.8449 Y35.9116
G01 X116.928 Y33.546
G01 X111.0186 Y31.1619
G01 X108.9711 Y30.3308
G01 X107.2401 Y29.6237
G01 X105.7266 Y29.0021
G01 X104.4034 Y28.4554
G01 X103.2464 Y27.9745
G01 X102.235 Y27.5512
G01 X101.7929 Y27.3651
G01 X101.3785 Y27.1902
G01 X100.6022 Y26.8606
G01 X100.2628 Y26.7156
G01 X100.1038 Y26.6475
G01 X99.9498 Y26.5814
G01 X99.3536 Y26.3241
G01 X99.2232 Y26.2675
G01 X98.2149 Y25.825
G01 X98.0261 Y25.741
G01 X97.3199 Y25.4222
G01 X97.1878 Y25.3616
G01 X97.0639 Y25.3044
G01 X96.2214 Y24.9019
G01 X96.1416 Y24.8626
G01 X95.9129 Y24.7456
G01 X95.8701 Y24.7231
G01 X95.5858 Y24.566
G01 X95.5537 Y24.5468
G01 X95.3994 Y24.4472
G01 X95.3256 Y24.3887
G01 X95.292 Y24.3523
G01 X95.28 Y24.329
G01 X95.2826 Y24.3068
G01 X95.2854 Y24.3033
G01 X95.3214 Y24.287
G01 X95.3224 Y24.2868
G01 X95.4009 Y24.2818
G01 X95.6189 Y24.3037
G01 X95.7109 Y24.319
G01 X96.0162 Y24.3792
G01 X96.3189 Y24.4478
G01 X97.1174 Y24.6485
G01 X97.5185 Y24.7572
G01 X98.1107 Y24.9213
G01 X98.4052 Y25.0045
G01 X99.5788 Y25.3445
G01 X100.7406 Y25.6901
G01 X101.8917 Y26.0386
G01 X103.0324 Y26.3886
G01 X104.1634 Y26.7391
G01 X105.2846 Y27.0894
G01 X107.5076 Y27.7905
G01 X108.601 Y28.138
G01 X110.7695 Y28.8314
G01 X111.3029 Y29.0027
G01 X113.4276 Y29.6876
G01 X115.518 Y30.3649
G01 X117.575 Y31.0341
G01 X118.5872 Y31.3644
G01 X122.6025 Y32.6798
G01 X130.3766 Y35.2455
G01 X134.0187 Y36.4544
G01 X134.2392 Y36.5277
G01 X137.7595 Y37.6998
G01 X141.1688 Y38.8379
G01 X142.8199 Y39.39
G01 X146.0702 Y40.4784
G01 X152.3656 Y42.5925
G01 X155.3159 Y43.5857
G01 X158.1736 Y44.549
G01 X160.9416 Y45.4834
G01 X166.3037 Y47.2966
G01 X171.3294 Y48.9999
G01 X171.6239 Y49.0998
G01 X176.3161 Y50.6934
G01 X180.7143 Y52.1898
G01 X181.7451 Y52.5408
G01 X185.803 Y53.9243
G01 X187.705 Y54.5735
G01 X195.0736 Y57.0933
G01 X198.2967 Y58.1978
G01 X201.3179 Y59.2346
G01 X206.9815 Y61.1818
G01 X208.2202 Y61.6084
G01 X213.0194 Y63.2637
G01 X217.2176 Y64.7153
G01 X219.0539 Y65.3515
G01 X222.4963 Y66.5463
G01 X225.5077 Y67.5942
G01 X228.1418 Y68.5133
G01 X230.4461 Y69.3194
G01 X232.4617 Y70.0266
G01 X235.9872 Y71.2693
G01 X236.3176 Y71.3862
G01 X238.8769 Y72.2954
G01 X241.8066 Y73.347
G01 X242.7102 Y73.6756
G01 X243.6666 Y74.0264
G01 X244.3829 Y74.2923
G01 X244.9193 Y74.4942
G01 X245.7213 Y74.8041
G01 X245.7712 Y74.8239
G01 X245.818 Y74.8426
G01 X245.8619 Y74.8602
G01 X246.0261 Y74.9271
G01 X246.2707 Y75.031
G01 X246.3314 Y75.0584
G01 X246.3541 Y75.0689
G01 X246.4326 Y75.1072
G01 X246.5072 Y75.1527
G01 X246.5145 Y75.1675
G01 X246.5141 Y75.1691
G01 X246.4772 Y75.174
G01 X246.4043 Y75.1655
G01 X246.1312 Y75.1093
G01 X246.1175 Y75.1059
G01 X245.8335 Y75.0364
G01 X244.8797 Y74.7816
G01 X244.7068 Y74.7332
G01 X244.1496 Y74.5764
G01 X243.5951 Y74.4182
G01 X241.5259 Y73.816
G01 X241.3895 Y73.7756
G01 X240.3052 Y73.4549
G01 X239.2299 Y73.1349
G01 X237.0974 Y72.4959
G01 X236.5727 Y72.338
G01 X236.0502 Y72.1805
G01 X233.9689 Y71.5512
G01 X231.9208 Y70.9295
G01 X229.9053 Y70.3157
G01 X225.9384 Y69.1035
G01 X222.0966 Y67.9255
G01 X221.6314 Y67.7826
G01 X217.9252 Y66.6429
G01 X210.7459 Y64.4293
G01 X207.3811 Y63.3899
G01 X205.7515 Y62.8861
G01 X204.1473 Y62.3899
G01 X197.8314 Y60.4347
G01 X185.9908 Y56.7634
G01 X165.2723 Y50.3303
G01 X149.7335 Y45.5053
G01 X146.8197 Y44.6011
G01 X141.3562 Y42.9067
G01 X131.7939 Y39.9454
G01 X131.3456 Y39.8067
G01 X124.2841 Y37.626
G01 X124.1185 Y37.575
G01 X118.8622 Y35.9574
G01 X117.8763 Y35.6548
G01 X116.952 Y35.3714
G01 X113.4852 Y34.3113
G01 X110.8839 Y33.5201
G01 X109.9079 Y33.2246
G01 X108.1994 Y32.71
G01 X107.8789 Y32.6139
G01 X106.6764 Y32.2553
G01 X105.7738 Y31.9887
G01 X105.0963 Y31.7908
G01 X104.078 Y31.5
G01 X103.5668 Y31.3606
G01 X103.3096 Y31.295
G01 X103.1797 Y31.265
G01 X103.1135 Y31.2519
G01 X103.0789 Y31.2465
G01 X103.059 Y31.2445
G01 X103.0434 Y31.2448
G01 X103.039 Y31.2537
G01 X103.0466 Y31.2601
G01 X103.1868 Y31.3289
G01 X103.3307 Y31.3891
G01 X103.3488 Y31.3965
G01 X103.4936 Y31.4541
G01 X103.5661 Y31.4825
G01 X103.8566 Y31.5939
G01 X104.0019 Y31.6488
G01 X104.2925 Y31.7573
G01 X104.5829 Y31.8646
G01 X104.6192 Y31.8779
G01 X105.1996 Y32.0898
G01 X105.4889 Y32.1946
G01 X105.7778 Y32.2988
G01 X105.922 Y32.3507
G01 X107.0753 Y32.7631
G01 X108.2205 Y33.1694
G01 X109.3575 Y33.5706
G01 X109.9218 Y33.769
G01 X110.2029 Y33.8677
G01 X111.3253 Y34.2611
G01 X112.4392 Y34.6504
G01 X112.992 Y34.8432
G01 X113.2673 Y34.9391
G01 X114.3666 Y35.3218
G01 X116.5484 Y36.0793
G01 X120.846 Y37.5651
G01 X120.9762 Y37.61
G01 X125.1373 Y39.0424
G01 X126.1453 Y39.3887
G01 X128.1458 Y40.0752
G01 X132.085 Y41.4243
G01 X139.72 Y44.0301
G01 X143.3001 Y45.2484
G01 X145.0344 Y45.8378
G01 X146.7418 Y46.4176
G01 X153.466 Y48.6965
G01 X159.7719 Y50.8273
G01 X165.6854 Y52.82
G01 X171.2308 Y54.6837
G01 X173.8307 Y55.5558
G01 X174.4605 Y55.7669
G01 X175.0853 Y55.9763
G01 X176.3253 Y56.3915
G01 X181.2084 Y58.0244
G01 X183.4978 Y58.7885
G01 X184.6069 Y59.1583
G01 X188.9744 Y60.6124
G01 X189.9982 Y60.9527
G01 X191.0061 Y61.2875
G01 X194.9752 Y62.604
G01 X196.8362 Y63.22
G01 X198.6392 Y63.8161
G01 X207.3816 Y66.6947
G01 X212.6212 Y68.4098
G01 X212.7032 Y68.4366
G01 X212.785 Y68.4633
G01 X220.543 Y70.983
G01 X223.2444 Y71.8555
G01 X225.2073 Y72.4865
G01 X230.3167 Y74.1188
G01 X232.5748 Y74.8335
G01 X232.7477 Y74.8881
G01 X235.4926 Y75.7513
G01 X237.8964 Y76.5007
G01 X238.9488 Y76.8266
G01 X240.9233 Y77.4338
G01 X242.6526 Y77.9602
G01 X244.1674 Y78.4163
G01 X244.499 Y78.5155
G01 X245.7848 Y78.897
G01 X245.9255 Y78.9384
G01 X246.0641 Y78.9792
G01 X247.1559 Y79.298
G01 X247.634 Y79.4361
G01 X248.0826 Y79.5648
G01 X248.9244 Y79.8035
G01 X249.2931 Y79.9068
G01 X249.466 Y79.955
G01 X249.6336 Y80.0014
G01 X250.2836 Y80.1796
G01 X250.426 Y80.2182
G01 X250.5639 Y80.2554
G01 X251.0988 Y80.3978
G01 X252.0375 Y80.6391
G01 X252.7445 Y80.8107
G01 X253.4104 Y80.9599
G01 X253.8126 Y81.0401
G01 X253.8801 Y81.0526
G01 X254.134 Y81.0958
G01 X254.3257 Y81.1232
G01 X254.6025 Y81.1486
G01 X254.6157 Y81.1493
G01 X254.6892 Y81.1505
G01 X254.7446 Y81.1486
G01 X254.7861 Y81.1449
G01 X254.8476 Y81.133
G01 X254.8949 Y81.1107
G01 X254.9033 Y81.104
G01 X254.9191 Y81.0702
G01 X254.9152 Y81.0329
G01 X254.9077 Y81.0188
G01 X254.8501 Y80.9398
G01 X254.811 Y80.9011
G01 X254.7547 Y80.8512
G01 X254.6963 Y80.804
G01 X254.4876 Y80.6538
G01 X254.4516 Y80.6303
G01 X254.0925 Y80.4052
G01 X253.9417 Y80.3175
G01 X253.4247 Y80.0275
G01 X253.4223 Y80.0262
G01 X252.4538 Y79.516
G01 X251.4761 Y79.0236
G01 X251.3122 Y78.9433
G01 X251.1812 Y78.8789
G01 X251.0503 Y78.8147
G01 X250.9849 Y78.7827
G01 X249.9366 Y78.2762
G01 X248.893 Y77.7809
G01 X248.3743 Y77.5373
G01 X248.1157 Y77.4164
G01 X247.0823 Y76.9366
G01 X246.0553 Y76.4641
G01 X243.3467 Y75.233
G01 X241.9677 Y74.6146
G01 X241.8437 Y74.5591
G01 X240.8525 Y74.1165
G01 X238.8839 Y73.2422
G01 X238.6415 Y73.135
G01 X238.3996 Y73.028
G01 X236.467 Y72.1762
G01 X234.563 Y71.3412
G01 X232.6875 Y70.5222
G01 X230.8402 Y69.7185
G01 X229.0208 Y68.9295
G01 X227.229 Y68.1547
G01 X223.6995 Y66.634
G01 X221.989 Y65.8994
G01 X215.3011 Y63.0398
G01 X215.2493 Y63.0177
G01 X213.6688 Y62.3445
G01 X212.1127 Y61.6824
G01 X205.9829 Y59.0816
G01 X200.233 Y56.651
G01 X197.5368 Y55.5138
G01 X197.2103 Y55.3762
G01 X196.885 Y55.2391
G01 X191.7002 Y53.0569
G01 X189.2693 Y52.0354
G01 X188.6804 Y51.7881
G01 X188.0962 Y51.5428
G01 X186.9368 Y51.0562
G01 X186.3661 Y50.8167
G01 X181.8361 Y48.9175
G01 X177.5882 Y47.1392
G01 X173.6052 Y45.4737
G01 X166.1354 Y42.3547
G01 X159.5978 Y39.629
G01 X153.8766 Y37.2462
G01 X133.8487 Y28.9148
G01 X128.842 Y26.8312
G01 X125.0877 Y25.2668
G01 X122.2727 Y24.0917
G01 X120.1622 Y23.2086
G01 X116.9989 Y21.878
G01 X116.6038 Y21.7107
G01 X115.2226 Y21.1217
G01 X115.1363 Y21.0846
G01 X114.4907 Y20.804
G01 X114.3297 Y20.7328
G01 X114.089 Y20.6241
G01 X114.029 Y20.5962
G01 X113.9841 Y20.575
G01 X113.9173 Y20.5422
G01 X113.884 Y20.5248
G01 X113.8675 Y20.5153
G01 X113.859 Y20.5098
G01 X113.8542 Y20.5062
G01 X113.851 Y20.5023
G01 X113.8557 Y20.5004
G01 X113.9309 Y20.5197
G01 X114.4391 Y20.7005
G01 X114.5145 Y20.7291
G01 X115.0921 Y20.9482
G01 X116.2396 Y21.3922
G01 X117.3764 Y21.8373
G01 X118.5035 Y22.2812
G01 X119.6211 Y22.7232
G01 X121.8376 Y23.6034
G01 X124.0183 Y24.4726
G01 X126.1643 Y25.3302
G01 X130.3874 Y27.0227
G01 X131.41 Y27.4333
G01 X131.5368 Y27.4843
G01 X133.5636 Y28.2989
G01 X133.813 Y28.3992
G01 X137.7945 Y30.0022
G01 X137.915 Y30.0508
G01 X141.7674 Y31.6047
G01 X154.8566 Y36.9006
G01 X167.9383 Y42.2152
G01 X181.0125 Y47.5482
G01 X194.0791 Y52.8998
G01 X201.3915 Y55.9041
G01 X205.1125 Y57.4369
G01 X208.6002 Y58.8759
G01 X211.8691 Y60.2268
G01 X213.4012 Y60.8608
G01 X214.1433 Y61.168
G01 X215.604 Y61.7732
G01 X221.2625 Y64.1225
G01 X226.2111 Y66.1847
G01 X230.5388 Y67.995
G01 X231.4852 Y68.3918
G01 X231.9435 Y68.5842
G01 X235.5517 Y70.1019
G01 X238.7069 Y71.4349
G01 X240.0866 Y72.0197
G01 X240.2483 Y72.0884
G01 X242.8135 Y73.1799
G01 X245.0564 Y74.1391
G01 X246.0371 Y74.5602
G01 X246.9562 Y74.9559
G01 X247.387 Y75.1417
G01 X249.055 Y75.8638
G01 X250.5131 Y76.4988
G01 X250.8319 Y76.6382
G01 X252.0664 Y77.1802
G01 X253.1455 Y77.6573
G01 X253.6172 Y77.8669
G01 X253.8382 Y77.9654
G01 X254.6939 Y78.3486
G01 X255.4418 Y78.6863
G01 X256.9357 Y79.3703
G01 X258.0475 Y79.8938
G01 X258.9368 Y80.3258
G01 X259.3371 Y80.5276
G01 X259.6562 Y80.6934
G01 X259.8938 Y80.8213
G01 X260.0704 Y80.9201
G01 X260.3311 Y81.0762
G01 X260.4573 Y81.1606
G01 X260.5759 Y81.2558
G01 X260.6179 Y81.3049
G01 X260.6322 Y81.3409
G01 X260.6327 Y81.3528
G01 X260.6189 Y81.3805
G01 X260.6136 Y81.3849
G01 X260.5623 Y81.4085
G01 X260.5511 Y81.411
G01 X260.5184 Y81.417
G01 X260.3577 Y81.4254
G01 X260.2537 Y81.4201
G01 X259.88 Y81.3809
G01 X259.7309 Y81.3596
G01 X259.6015 Y81.3393
G01 X259.3436 Y81.2954
G01 X258.4867 Y81.1277
G01 X258.3193 Y81.0926
G01 X257.3083 Y80.8675
G01 X257.1831 Y80.8385
G01 X256.1844 Y80.6011
G01 X254.3336 Y80.1395
G01 X254.2081 Y80.1075
G01 X253.2374 Y79.857
G01 X251.3139 Y79.3494
G01 X251.2547 Y79.3336
G01 X251.1956 Y79.3177
G01 X249.3069 Y78.8076
G01 X245.778 Y77.8328
G01 X242.2545 Y76.8387
G01 X241.8881 Y76.7341
G01 X241.454 Y76.6102
G01 X240.5894 Y76.3628
G01 X238.8746 Y75.8695
G01 X237.1873 Y75.3811
G01 X235.5272 Y74.8977
G01 X233.8937 Y74.4196
G01 X233.0898 Y74.1835
G01 X229.9011 Y73.2416
G01 X226.8141 Y72.3222
G01 X220.914 Y70.5452
G01 X215.0198 Y68.7491
G01 X214.8684 Y68.7027
G01 X212.2583 Y67.8997
G01 X210.9944 Y67.5094
G01 X209.7505 Y67.1243
G01 X207.3023 Y66.3635
G01 X204.9315 Y65.6233
G01 X202.6358 Y64.9032
G01 X200.4125 Y64.2027
G01 X198.2596 Y63.5213
G01 X196.1747 Y62.8586
G01 X195.6698 Y62.6977
G01 X195.4194 Y62.6178
G01 X195.1699 Y62.5382
G01 X193.1826 Y61.9025
G01 X192.2202 Y61.5937
G01 X190.3261 Y60.9841
G01 X190.2114 Y60.9471
G01 X190.097 Y60.9101
G01 X188.2699 Y60.3193
G01 X186.5005 Y59.7448
G01 X184.787 Y59.1862
G01 X184.3721 Y59.0506
G01 X181.0803 Y57.9697
G01 X177.9963 Y56.9488
G01 X175.1071 Y55.9845
G01 X172.4004 Y55.0736
G01 X169.8648 Y54.2131
G01 X165.9339 Y52.8638
G01 X162.0095 Y51.4957
G01 X160.3774 Y50.9204
G01 X159.9334 Y50.763
G01 X158.1861 Y50.14
G01 X156.5495 Y49.5511
G01 X156.1661 Y49.4123
G01 X155.7887 Y49.2754
G01 X154.304 Y48.7336
G01 X152.9134 Y48.2213
G01 X151.6109 Y47.7367
G01 X150.3911 Y47.2783
G01 X150.2482 Y47.2243
G01 X149.1149 Y46.7935
G01 X148.0536 Y46.3858
G01 X147.5565 Y46.1933
G01 X147.0751 Y46.006
G01 X146.1435 Y45.6404
G01 X145.2711 Y45.2942
G01 X143.501 Y44.5788
G01 X142.013 Y43.9607
G01 X141.7085 Y43.8321
G01 X141.4137 Y43.7068
G01 X141.1283 Y43.5848
G01 X139.8234 Y43.0162
G01 X138.9275 Y42.613
G01 X138.5167 Y42.4243
G01 X137.7492 Y42.0637
G01 X137.4145 Y41.9027
G01 X137.1015 Y41.7497
G01 X136.262 Y41.3254
G01 X135.9373 Y41.1552
G01 X135.8289 Y41.0973
G01 X135.6193 Y40.984
G01 X135.4236 Y40.8761
G01 X135.2407 Y40.7734
G01 X135.07 Y40.6757
G01 X134.9106 Y40.5827
G01 X134.7619 Y40.494
G01 X134.4851 Y40.3239
G01 X134.365 Y40.2476
G01 X134.253 Y40.1749
G01 X133.919 Y39.9474
G01 X133.5968 Y39.7036
G01 X133.4464 Y39.581
G01 X133.2623 Y39.4145
G01 X133.0922 Y39.2337
G01 X133.0858 Y39.2263
G01 X132.9766 Y39.0832
G01 X132.9359 Y39.0203
G01 X132.8789 Y38.9098
G01 X132.8402 Y38.7917
G01 X132.8386 Y38.7848
G01 X132.8276 Y38.6884
G01 X132.8366 Y38.5917
G01 X132.8625 Y38.5052
G01 X132.916 Y38.4057
G01 X132.9862 Y38.3173
G01 X133.005 Y38.2983
G01 X133.1208 Y38.1983
G01 X133.1938 Y38.1475
G01 X133.3807 Y38.0401
G01 X133.5769 Y37.9505
G01 X133.6186 Y37.9342
G01 X133.7284 Y37.8924
G01 X134.0451 Y37.7893
G01 X134.1757 Y37.7528
G01 X134.6118 Y37.6474
G01 X135.0522 Y37.5615
G01 X135.0856 Y37.5558
G01 X135.7576 Y37.4528
G01 X136.4324 Y37.3696
G01 X136.914 Y37.3225
G01 X137.1397 Y37.3024
G01 X138.1086 Y37.2301
G01 X138.9443 Y37.1838
G01 X140.2794 Y37.1319
G01 X140.7226 Y37.1192
G01 X142.2987 Y37.0913
G01 X142.4737 Y37.0895
G01 X144.3208 Y37.0853
G01 X145.9213 Y37.0979
G01 X147.5907 Y37.1252
G01 X147.7962 Y37.1294
G01 X148.6162 Y37.1478
G01 X149.0229 Y37.1579
G01 X151.7106 Y37.2384
G01 X154.3975 Y37.3388
G01 X155.5036 Y37.386
G01 X155.5985 Y37.3901
G01 X157.1152 Y37.4584
G01 X160.6078 Y37.6309
G01 X163.0856 Y37.7655
G01 X164.4845 Y37.8448
G01 X165.173 Y37.8847
G01 X167.9051 Y38.0482
G01 X168.5668 Y38.089
G01 X173.7601 Y38.4226
G01 X178.9521 Y38.7761
G01 X179.0668 Y38.7841
G01 X180.215 Y38.8646
G01 X181.3452 Y38.9445
G01 X183.5702 Y39.1036
G01 X187.8806 Y39.418
G01 X189.9011 Y39.5676
G01 X190.3904 Y39.604
G01 X192.3324 Y39.7493
G01 X196.0947 Y40.0334
G01 X210.203 Y41.1125
G01 X215.4949 Y41.5147
G01 X220.1263 Y41.861
G01 X220.1897 Y41.8657
G01 X220.2529 Y41.8704
G01 X225.5856 Y42.2582
G01 X228.3293 Y42.4499
G01 X228.7081 Y42.476
G01 X231.6916 Y42.6768
G01 X232.9974 Y42.7616
G01 X234.2219 Y42.8392
G01 X236.5184 Y42.9786
G01 X237.5236 Y43.0366
G01 X237.7593 Y43.05
G01 X237.9913 Y43.063
G01 X238.448 Y43.0882
G01 X239.3332 Y43.1358
G01 X240.9933 Y43.2194
G01 X241.72 Y43.2534
G01 X242.4015 Y43.2835
G01 X243.0407 Y43.3101
G01 X243.3404 Y43.322
G01 X244.5021 Y43.3639
G01 X246.3544 Y43.4136
G01 X246.5367 Y43.4175
G01 X247.7656 Y43.433
G01 X248.0656 Y43.4338
G01 X249.0907 Y43.4271
G01 X249.2148 Y43.4249
G01 X249.4309 Y43.4204
G01 X249.6336 Y43.4151
G01 X249.8238 Y43.4092
G01 X250.0021 Y43.4027
G01 X250.6224 Y43.371
G01 X251.2414 Y43.3193
G01 X251.3381 Y43.3095
G01 X251.6754 Y43.2648
G01 X251.9477 Y43.2165
G01 X252.1784 Y43.1593
G01 X252.3339 Y43.1064
G01 X252.4251 Y43.065
G01 X252.5118 Y43.0098
G01 X252.5372 Y42.9886
G01 X252.5774 Y42.9419
G01 X252.6004 Y42.8849
G01 X252.6032 Y42.87
G01 X252.5966 Y42.805
G01 X252.5714 Y42.7464
G01 X252.499 Y42.6518
G01 X252.4118 Y42.5707
G01 X252.4092 Y42.5687
G01 X252.2197 Y42.4319
G01 X252.2173 Y42.4304
G01 X251.9689 Y42.2831
G01 X251.8075 Y42.1994
G01 X251.5975 Y42.0967
G01 X251.3856 Y41.9994
G01 X251.3324 Y41.9757
G01 X251.119 Y41.8835
G01 X250.9047 Y41.7945
G01 X250.1327 Y41.4955
G01 X249.3536 Y41.2152
G01 X249.168 Y41.1516
G01 X248.7366 Y41.0053
G01 X248.3059 Y40.8628
G01 X247.0613 Y40.4659
G01 X246.5821 Y40.3187
G01 X244.8254 Y39.7949
G01 X243.1671 Y39.3196
G01 X242.3372 Y39.0873
G01 X241.9252 Y38.9732
G01 X239.2455 Y38.2478
G01 X236.5605 Y37.5418
G01 X235.3398 Y37.2276
G01 X234.5663 Y37.0301
G01 X233.0304 Y36.6414
G01 X231.5176 Y36.2629
G01 X230.7726 Y36.078
G01 X229.2937 Y35.7134
G01 X225.1285 Y34.7033
G01 X220.9587 Y33.7127
G01 X217.6249 Y32.9354
G01 X216.3465 Y32.6398
G01 X213.8289 Y32.062
G01 X211.3887 Y31.5072
G01 X206.0973 Y30.3203
G01 X200.8015 Y29.1529
G01 X195.5014 Y28.0051
G01 X190.1971 Y26.8768
G01 X184.8887 Y25.7681
G01 X179.5763 Y24.6789
G01 X174.2599 Y23.6094
G01 X173.4476 Y23.4478
G01 X172.2573 Y23.2127
G01 X169.9503 Y22.7607
G01 X167.7864 Y22.3415
G01 X165.7567 Y21.9527
G01 X163.853 Y21.5922
G01 X163.4065 Y21.5083
G01 X161.6485 Y21.1802
G01 X160.8241 Y21.0278
G01 X159.2262 Y20.7349
G01 X158.8515 Y20.6668
G01 X157.3759 Y20.4006
G01 X154.2337 Y19.8458
G01 X151.8354 Y19.4359
G01 X150.7943 Y19.262
G01 X149.8177 Y19.1015
G01 X149.5887 Y19.0642
G01 X149.1377 Y18.9913
G01 X148.2636 Y18.8517
G01 X147.4436 Y18.7231
G01 X147.0589 Y18.6635
G01 X146.6862 Y18.6064
G01 X145.2407 Y18.3903
G01 X144.6074 Y18.2987
G01 X144.3103 Y18.2565
G01 X143.1582 Y18.0974
G01 X142.1483 Y17.9652
G01 X141.2626 Y17.8561
G01 X140.8744 Y17.8107
G01 X140.1455 Y17.7298
G01 X139.9856 Y17.713
G01 X139.3657 Y17.6512
G01 X138.8217 Y17.6022
G01 X138.583 Y17.5826
G01 X137.8067 Y17.5282
G01 X137.6858 Y17.5215
G01 X137.3464 Y17.5052
G01 X136.7495 Y17.4891
G01 X136.2962 Y17.4925
G01 X136.1235 Y17.499
G01 X135.8329 Y17.5192
G01 X135.8189 Y17.5207
G01 X135.5866 Y17.5503
G01 X135.5857 Y17.5505
G01 X135.496 Y17.5666
G01 X135.3448 Y17.6028
G01 X135.1995 Y17.6581
G01 X135.1874 Y17.6637
G01 X135.1177 Y17.7065
G01 X135.1114 Y17.7117
G01 X135.0654 Y17.7583
G01 X135.0355 Y17.8166
G01 X135.0337 Y17.8225
G01 X135.0305 Y17.8871
G01 X135.0472 Y17.9497
G01 X135.0505 Y17.9568
G01 X135.1024 Y18.0445
G01 X135.1252 Y18.0735
G01 X135.25 Y18.2052
G01 X135.3184 Y18.2662
G01 X135.3704 Y18.3097
G01 X135.6256 Y18.5019
G01 X135.8094 Y18.6257
G01 X136.0363 Y18.7698
G01 X136.4981 Y19.0428
G01 X136.7309 Y19.1735
G01 X137.5274 Y19.598
G01 X138.3332 Y20.0048
G01 X138.6268 Y20.1475
G01 X139.0992 Y20.3752
G01 X139.5712 Y20.5989
G01 X140.9373 Y21.2302
G01 X141.4622 Y21.4669
G01 X142.3975 Y21.8838
G01 X142.8624 Y22.0887
G01 X144.9885 Y23.01
G01 X146.5819 Y23.6862
G01 X146.8078 Y23.7814
G01 X147.7101 Y24.1597
G01 X148.6063 Y24.5329
G01 X149.4963 Y24.9014
G01 X151.2642 Y25.6275
G01 X153.0069 Y26.3367
G01 X154.7242 Y27.0302
G01 X156.4162 Y27.7088
G01 X156.5204 Y27.7504
G01 X158.1858 Y28.4142
G01 X159.006 Y28.7398
G01 X160.6342 Y29.3839
G01 X161.436 Y29.7
G01 X163.0277 Y30.3256
G01 X163.4196 Y30.4792
G01 X169.0162 Y32.6593
G01 X169.6702 Y32.9127
G01 X172.6034 Y34.0449
G01 X175.4466 Y35.1375
G01 X176.1354 Y35.4016
G01 X178.8699 Y36.4474
G01 X180.1949 Y36.9528
G01 X182.8041 Y37.9459
G01 X184.0683 Y38.426
G01 X186.5578 Y39.3696
G01 X188.9702 Y40.2819
G01 X193.646 Y42.0445
G01 X198.0316 Y43.6919
G01 X200.0879 Y44.4625
G01 X204.0729 Y45.9531
G01 X205.9413 Y46.6507
G01 X209.562 Y48.0004
G01 X216.3529 Y50.5256
G01 X232.1299 Y56.3674
G01 X240.1362 Y59.3238
G01 X241.6231 Y59.8728
G01 X247.1985 Y61.9319
G01 X251.3792 Y63.4783
G01 X251.7712 Y63.6235
G01 X253.2896 Y64.1864
G01 X254.618 Y64.6796
G01 X256.9419 Y65.5447
G01 X257.3775 Y65.7073
G01 X258.1941 Y66.0127
G01 X259.6223 Y66.5491
G01 X260.6927 Y66.9536
