( AxiDraw CamBam Postprocessor )
( RepeatedSquig1 7/31/2017 7:12:50 PM )
N1 G21 G90
N2 G0 Z100.0
( Engrave1 )
N3 G64 G17
N4 G0 X220.9943 Y97.5435
N5 G1 F100.0 Z0.0
N6 G1 F1000.0 X221.0021 Y97.5516
N7 G1 X220.994 Y97.5572
N8 G1 X220.9223 Y97.547
N9 G1 X220.6429 Y97.4749
N10 G1 X219.8046 Y97.2246
N11 G1 X219.5406 Y97.1414
N12 G1 X218.996 Y96.9693
N13 G1 X218.454 Y96.7959
N14 G1 X217.9145 Y96.6219
N15 G1 X217.3775 Y96.4475
N16 G1 X216.3084 Y96.0979
N17 G1 X214.1891 Y95.3981
N18 G1 X213.9284 Y95.3116
N19 G1 X212.888 Y94.9654
N20 G1 X211.8561 Y94.6209
N21 G1 X211.3443 Y94.4497
N22 G1 X209.3058 Y93.7657
N23 G1 X207.2999 Y93.0898
N24 G1 X203.3528 Y91.7533
N25 G1 X202.3972 Y91.4286
N26 G1 X198.6057 Y90.1367
N27 G1 X194.9342 Y88.8805
N28 G1 X191.3788 Y87.6598
N29 G1 X190.9483 Y87.5117
N30 G1 X187.5187 Y86.3299
N31 G1 X184.1973 Y85.182
N32 G1 X183.393 Y84.9035
N33 G1 X182.595 Y84.6271
N34 G1 X179.4288 Y83.5283
N35 G1 X179.0454 Y83.3951
N36 G1 X170.7317 Y80.4961
N37 G1 X162.4247 Y77.5782
N38 G1 X154.634 Y74.8224
N39 G1 X150.0626 Y73.196
N40 G1 X145.779 Y71.665
N41 G1 X143.7718 Y70.9451
N42 G1 X139.8841 Y69.5461
N43 G1 X133.7731 Y67.3345
N44 G1 X127.6689 Y65.104
N45 G1 X125.3255 Y64.2421
N46 G1 X122.5995 Y63.2351
N47 G1 X117.5007 Y61.3365
N48 G1 X112.409 Y59.4192
N49 G1 X112.393 Y59.4131
N50 G1 X110.4822 Y58.6864
N51 G1 X108.6919 Y58.0016
N52 G1 X108.2725 Y57.8406
N53 G1 X107.8596 Y57.6818
N54 G1 X106.2348 Y57.0548
N55 G1 X104.7127 Y56.4638
N56 G1 X103.2868 Y55.9067
N57 G1 X101.9509 Y55.3813
N58 G1 X101.7944 Y55.3195
N59 G1 X100.5528 Y54.8276
N60 G1 X97.8391 Y53.7401
N61 G1 X95.9081 Y52.9531
N62 G1 X95.4735 Y52.7743
N63 G1 X95.0526 Y52.6005
N64 G1 X94.2378 Y52.2621
N65 G1 X92.2713 Y51.4333
N66 G1 X91.1917 Y50.969
N67 G1 X90.6221 Y50.7211
N68 G1 X90.0886 Y50.4867
N69 G1 X89.9637 Y50.4315
N70 G1 X88.6035 Y49.8217
N71 G1 X88.0032 Y49.5455
N72 G1 X87.6368 Y49.375
N73 G1 X87.4652 Y49.2945
N74 G1 X86.802 Y48.9787
N75 G1 X86.6572 Y48.9087
N76 G1 X86.0976 Y48.6339
N77 G1 X85.61 Y48.3882
N78 G1 X85.3972 Y48.2787
N79 G1 X85.1982 Y48.1749
N80 G1 X85.0121 Y48.0765
N81 G1 X84.6646 Y47.8885
N82 G1 X84.091 Y47.563
N83 G1 X84.0627 Y47.5463
N84 G1 X83.9506 Y47.4795
N85 G1 X83.7419 Y47.3518
N86 G1 X83.4035 Y47.1324
N87 G1 X83.0763 Y46.8965
N88 G1 X83.0351 Y46.865
N89 G1 X82.9924 Y46.8309
N90 G1 X82.8147 Y46.6764
N91 G1 X82.6917 Y46.5524
N92 G1 X82.6015 Y46.4376
N93 G1 X82.5676 Y46.3846
N94 G1 X82.5264 Y46.2909
N95 G1 X82.5254 Y46.2877
N96 G1 X82.5134 Y46.2176
N97 G1 X82.5149 Y46.1825
N98 G1 X82.5349 Y46.1164
N99 G1 X82.5729 Y46.0587
N100 G1 X82.5885 Y46.0429
N101 G1 X82.6687 Y45.9809
N102 G1 X82.7079 Y45.9587
N103 G1 X82.8564 Y45.8962
N104 G1 X82.9764 Y45.8606
N105 G1 X83.2032 Y45.8124
N106 G1 X83.2535 Y45.8044
N107 G1 X83.6212 Y45.7613
N108 G1 X83.8131 Y45.7467
N109 G1 X84.3688 Y45.7273
N110 G1 X84.9248 Y45.7279
N111 G1 X84.9309 Y45.728
N112 G1 X85.2079 Y45.7342
N113 G1 X86.0731 Y45.7705
N114 G1 X86.3125 Y45.7841
N115 G1 X86.8597 Y45.8201
N116 G1 X87.9005 Y45.903
N117 G1 X87.9484 Y45.9074
N118 G1 X88.4879 Y45.9567
N119 G1 X89.025 Y46.0092
N120 G1 X89.5597 Y46.0644
N121 G1 X89.8259 Y46.0928
N122 G1 X91.7359 Y46.3137
N123 G1 X93.6435 Y46.5543
N124 G1 X94.069 Y46.6108
N125 G1 X96.5441 Y46.9525
N126 G1 X98.169 Y47.1879
N127 G1 X99.1608 Y47.3352
N128 G1 X100.1446 Y47.4836
N129 G1 X102.0957 Y47.7844
N130 G1 X104.0153 Y48.0875
N131 G1 X105.9039 Y48.3918
N132 G1 X107.7621 Y48.6964
N133 G1 X108.6764 Y48.8479
N134 G1 X112.9522 Y49.5691
N135 G1 X115.9285 Y50.0832
N136 G1 X116.7778 Y50.2311
N137 G1 X118.4629 Y50.5265
N138 G1 X121.7792 Y51.114
N139 G1 X124.9905 Y51.69
N140 G1 X128.1006 Y52.2538
N141 G1 X128.4771 Y52.3224
N142 G1 X131.4772 Y52.8718
N143 G1 X134.3827 Y53.408
N144 G1 X137.1969 Y53.9309
N145 G1 X138.5598 Y54.1853
N146 G1 X141.2425 Y54.6882
N147 G1 X141.5674 Y54.7493
N148 G1 X141.891 Y54.8102
N149 G1 X144.4691 Y55.2965
N150 G1 X145.0935 Y55.4146
N151 G1 X150.0484 Y56.3563
N152 G1 X152.3705 Y56.8001
N153 G1 X154.6198 Y57.2314
N154 G1 X158.9771 Y58.0706
N155 G1 X161.0193 Y58.4654
N156 G1 X162.0085 Y58.657
N157 G1 X165.9029 Y59.4133
N158 G1 X166.017 Y59.4355
N159 G1 X166.1308 Y59.4577
N160 G1 X166.2445 Y59.4798
N161 G1 X169.8735 Y60.1874
N162 G1 X176.6769 Y61.5202
N163 G1 X182.6287 Y62.6917
N164 G1 X185.2324 Y63.2056
N165 G1 X190.114 Y64.1708
N166 G1 X207.1979 Y67.5572
N167 G1 X207.7318 Y67.6629
N168 G1 X211.8701 Y68.4801
N169 G1 X212.6461 Y68.6329
N170 G1 X213.3737 Y68.7759
N171 G1 X216.1024 Y69.3101
N172 G1 X218.1498 Y69.7074
N173 G1 X218.9177 Y69.8552
N174 G1 X219.2538 Y69.9197
N175 G1 X219.4113 Y69.9498
N176 G1 X220.6326 Y70.1817
N177 G1 X221.549 Y70.3531
N178 G1 X221.7209 Y70.3848
N179 G1 X222.3658 Y70.5026
N180 G1 X223.3347 Y70.6724
N181 G1 X223.3954 Y70.6825
N182 G1 X223.623 Y70.7197
N183 G1 X223.794 Y70.7463
N184 G1 X224.051 Y70.7827
N185 G1 X224.1803 Y70.7972
N186 G1 X224.2454 Y70.8018
N187 G1 X224.2782 Y70.8023
N188 G1 X224.3104 Y70.7958
N189 G1 X224.307 Y70.787
N190 G1 X224.2437 Y70.7579
N191 G1 X223.9778 Y70.6784
N192 G1 X223.9109 Y70.6605
N193 G1 X223.8773 Y70.6516
N194 G1 X222.8827 Y70.4101
N195 G1 X222.8017 Y70.3914
N196 G1 X221.7308 Y70.1486
N197 G1 X220.667 Y69.9137
N198 G1 X220.4029 Y69.8561
N199 G1 X219.3486 Y69.6276
N200 G1 X218.302 Y69.403
N201 G1 X218.1721 Y69.3752
N202 G1 X216.0965 Y68.9347
N203 G1 X216.0326 Y68.9212
N204 G1 X210.0203 Y67.6647
N205 G1 X207.8572 Y67.2176
N206 G1 X204.023 Y66.4284
N207 G1 X203.0943 Y66.2379
N208 G1 X202.1728 Y66.049
N209 G1 X198.5153 Y65.3014
N210 G1 X198.0723 Y65.211
N211 G1 X194.5424 Y64.4923
N212 G1 X193.6874 Y64.3185
N213 G1 X186.9003 Y62.9429
N214 G1 X180.5364 Y61.6584
N215 G1 X174.5694 Y60.4581
N216 G1 X174.3945 Y60.423
N217 G1 X171.6027 Y59.8626
N218 G1 X166.1931 Y58.779
N219 G1 X161.1212 Y57.7654
N220 G1 X159.9323 Y57.5282
N221 G1 X155.2512 Y56.5952
N222 G1 X141.3202 Y53.8295
N223 G1 X127.3854 Y51.0835
N224 G1 X120.1303 Y49.6618
N225 G1 X115.7381 Y48.8052
N226 G1 X114.7772 Y48.6182
N227 G1 X106.5491 Y47.0243
N228 G1 X99.8783 Y45.747
N229 G1 X98.0148 Y45.3933
N230 G1 X96.3839 Y45.0853
N231 G1 X94.9565 Y44.8173
N232 G1 X92.4579 Y44.3524
N233 G1 X91.5205 Y44.1798
N234 G1 X89.8794 Y43.8812
N235 G1 X89.5716 Y43.8258
N236 G1 X89.4272 Y43.7999
N237 G1 X88.3085 Y43.6013
N238 G1 X87.8886 Y43.528
N239 G1 X87.1535 Y43.4019
N240 G1 X86.6016 Y43.3099
N241 G1 X85.7722 Y43.1794
N242 G1 X85.564 Y43.1494
N243 G1 X85.4075 Y43.1282
N244 G1 X85.1718 Y43.1002
N245 G1 X85.0521 Y43.0898
N246 G1 X84.9897 Y43.087
N247 G1 X84.9544 Y43.0876
N248 G1 X84.9279 Y43.0911
N249 G1 X84.9181 Y43.0962
N250 G1 X84.9234 Y43.1091
N251 G1 X84.935 Y43.1169
N252 G1 X85.0624 Y43.1699
N253 G1 X85.0747 Y43.1739
N254 G1 X85.3616 Y43.2662
N255 G1 X85.5057 Y43.3094
N256 G1 X85.7942 Y43.393
N257 G1 X86.8419 Y43.6819
N258 G1 X86.9506 Y43.7107
N259 G1 X87.5256 Y43.8636
N260 G1 X88.6722 Y44.1635
N261 G1 X89.2415 Y44.3106
N262 G1 X90.3761 Y44.6015
N263 G1 X92.6294 Y45.1722
N264 G1 X94.8487 Y45.7284
N265 G1 X97.0344 Y46.2722
N266 G1 X99.1866 Y46.8045
N267 G1 X101.3057 Y47.3264
N268 G1 X103.3923 Y47.8383
N269 G1 X105.4465 Y48.3406
N270 G1 X105.6994 Y48.4024
N271 G1 X107.7179 Y48.8944
N272 G1 X108.7116 Y49.1362
N273 G1 X110.6835 Y49.6152
N274 G1 X114.5664 Y50.5553
N275 G1 X116.4474 Y51.0094
N276 G1 X118.2993 Y51.4558
N277 G1 X121.9456 Y52.3325
N278 G1 X123.7121 Y52.7562
N279 G1 X123.9295 Y52.8083
N280 G1 X125.6651 Y53.224
N281 G1 X129.0824 Y54.0409
N282 G1 X140.3356 Y56.7151
N283 G1 X151.5934 Y59.3699
N284 G1 X155.5821 Y60.3056
N285 G1 X156.2036 Y60.451
N286 G1 X161.137 Y61.6031
N287 G1 X165.763 Y62.679
N288 G1 X167.9319 Y63.182
N289 G1 X172.1346 Y64.1538
N290 G1 X174.105 Y64.6081
N291 G1 X177.9232 Y65.4857
N292 G1 X179.7132 Y65.8959
N293 G1 X181.4476 Y66.2926
N294 G1 X184.8083 Y67.0589
N295 G1 X186.384 Y67.4171
N296 G1 X187.1473 Y67.5903
N297 G1 X188.6501 Y67.9309
N298 G1 X191.5623 Y68.5887
N299 G1 X192.9276 Y68.896
N300 G1 X193.0103 Y68.9146
N301 G1 X193.0928 Y68.9332
N302 G1 X193.1752 Y68.9517
N303 G1 X195.8055 Y69.5417
N304 G1 X196.4221 Y69.6796
N305 G1 X197.0292 Y69.8153
N306 G1 X198.2243 Y70.0818
N307 G1 X200.5402 Y70.5965
N308 G1 X202.7119 Y71.0769
N309 G1 X204.7485 Y71.5251
N310 G1 X208.5685 Y72.3592
N311 G1 X210.2406 Y72.7213
N312 G1 X213.3769 Y73.3945
N313 G1 X213.5486 Y73.4311
N314 G1 X216.2733 Y74.0082
N315 G1 X216.8696 Y74.1334
N316 G1 X217.4475 Y74.2544
N317 G1 X219.6871 Y74.7192
N318 G1 X220.1774 Y74.82
N319 G1 X220.6524 Y74.9172
N320 G1 X222.4936 Y75.2907
N321 G1 X224.1061 Y75.6122
N322 G1 X225.5182 Y75.8886
N323 G1 X227.7005 Y76.3038
N324 G1 X227.9928 Y76.3578
N325 G1 X228.4575 Y76.4432
N326 G1 X229.3297 Y76.6004
N327 G1 X229.7115 Y76.6679
N328 G1 X229.8907 Y76.6992
N329 G1 X230.5851 Y76.8183
N330 G1 X230.7372 Y76.8439
N331 G1 X230.8846 Y76.8685
N332 G1 X231.456 Y76.9618
N333 G1 X231.9567 Y77.0405
N334 G1 X232.176 Y77.074
N335 G1 X233.0618 Y77.201
N336 G1 X233.826 Y77.2944
N337 G1 X234.3909 Y77.347
N338 G1 X234.6608 Y77.3651
N339 G1 X234.9899 Y77.3727
N340 G1 X235.085 Y77.3711
N341 G1 X235.2717 Y77.3557
N342 G1 X235.3011 Y77.3514
N343 G1 X235.3972 Y77.3279
N344 G1 X235.4097 Y77.3232
N345 G1 X235.4592 Y77.2962
N346 G1 X235.4607 Y77.295
N347 G1 X235.4844 Y77.2654
N348 G1 X235.4899 Y77.2446
N349 G1 X235.4785 Y77.1959
N350 G1 X235.4613 Y77.1685
N351 G1 X235.3823 Y77.0863
N352 G1 X235.3499 Y77.0598
N353 G1 X235.1763 Y76.9383
N354 G1 X235.0936 Y76.8885
N355 G1 X235.0273 Y76.8498
N356 G1 X234.6402 Y76.6435
N357 G1 X234.4836 Y76.5663
N358 G1 X234.4493 Y76.5496
N359 G1 X233.8959 Y76.2926
N360 G1 X233.6181 Y76.1695
N361 G1 X233.3399 Y76.0489
N362 G1 X232.7823 Y75.8138
N363 G1 X232.2246 Y75.5851
N364 G1 X231.6674 Y75.3614
N365 G1 X230.1907 Y74.7846
N366 G1 X229.4366 Y74.4983
N367 G1 X228.8858 Y74.2907
N368 G1 X228.6112 Y74.1879
N369 G1 X227.514 Y73.7807
N370 G1 X226.4238 Y73.381
N371 G1 X225.8824 Y73.184
N372 G1 X225.6127 Y73.0862
N373 G1 X224.5352 Y72.6977
N374 G1 X224.0004 Y72.506
N375 G1 X222.9342 Y72.1258
N376 G1 X222.6696 Y72.0318
N377 G1 X218.7013 Y70.6375
N378 G1 X214.7265 Y69.2621
N379 G1 X214.2016 Y69.0821
N380 G1 X212.2132 Y68.4014
N381 G1 X210.2549 Y67.7343
N382 G1 X209.2907 Y67.407
N383 G1 X207.3768 Y66.7591
N384 G1 X207.259 Y66.7193
N385 G1 X203.4927 Y65.4513
N386 G1 X201.6675 Y64.8396
N387 G1 X200.7689 Y64.539
N388 G1 X198.9856 Y63.9437
N389 G1 X197.2298 Y63.3589
N390 G1 X193.7719 Y62.211
N391 G1 X187.0685 Y59.9978
N392 G1 X177.9258 Y57.0008
N393 G1 X174.4893 Y55.8797
N394 G1 X171.736 Y54.9835
N395 G1 X169.0683 Y54.1167
N396 G1 X163.8986 Y52.4411
N397 G1 X159.0505 Y50.8744
N398 G1 X154.5044 Y49.409
N399 G1 X150.2415 Y48.0382
N400 G1 X148.243 Y47.3966
N401 G1 X144.3702 Y46.155
N402 G1 X137.107 Y43.8331
N403 G1 X130.7496 Y41.8075
N404 G1 X125.1854 Y40.0401
N405 G1 X122.7505 Y39.2683
N406 G1 X121.6091 Y38.9068
N407 G1 X119.3974 Y38.2071
N408 G1 X119.1381 Y38.1251
N409 G1 X115.0229 Y36.8259
N410 G1 X114.5727 Y36.6839
N411 G1 X114.1294 Y36.5442
N412 G1 X112.3844 Y35.9946
N413 G1 X109.112 Y34.9658
N414 G1 X107.68 Y34.5164
N415 G1 X104.9947 Y33.6752
N416 G1 X104.4072 Y33.4914
N417 G1 X99.8531 Y32.0709
N418 G1 X96.4358 Y31.0108
N419 G1 X91.3053 Y29.4347
N420 G1 X90.0212 Y29.0454
N421 G1 X89.0574 Y28.7556
N422 G1 X88.8766 Y28.7016
N423 G1 X88.707 Y28.6511
N424 G1 X88.0708 Y28.4626
N425 G1 X87.5932 Y28.3229
N426 G1 X86.8754 Y28.1178
N427 G1 X86.6953 Y28.0681
N428 G1 X86.4245 Y27.9963
N429 G1 X86.288 Y27.9631
N430 G1 X86.2536 Y27.9554
N431 G1 X86.2015 Y27.9451
N432 G1 X86.1748 Y27.9411
N433 G1 X86.1606 Y27.9399
N434 G1 X86.1522 Y27.9401
N435 G1 X86.1485 Y27.9474
N436 G1 X86.2181 Y27.986
N437 G1 X86.2542 Y28.0026
N438 G1 X86.4 Y28.0651
N439 G1 X86.4366 Y28.0802
N440 G1 X86.7307 Y28.1982
N441 G1 X87.3206 Y28.4262
N442 G1 X87.9098 Y28.6491
N443 G1 X89.0857 Y29.0876
N444 G1 X89.6697 Y29.3034
N445 G1 X90.2516 Y29.5176
N446 G1 X95.4869 Y31.4246
N447 G1 X99.543 Y32.8874
N448 G1 X103.9032 Y34.4536
N449 G1 X106.0157 Y35.2106
N450 G1 X110.1758 Y36.6982
N451 G1 X114.2067 Y38.1367
N452 G1 X116.1595 Y38.8327
N453 G1 X120.0046 Y40.2014
N454 G1 X127.4561 Y42.8486
N455 G1 X130.9497 Y44.0875
N456 G1 X131.3728 Y44.2375
N457 G1 X138.1164 Y46.6251
N458 G1 X138.9068 Y46.9047
N459 G1 X142.0437 Y48.0135
N460 G1 X148.1224 Y50.1596
N461 G1 X149.5473 Y50.6622
N462 G1 X155.1582 Y52.6392
N463 G1 X160.4194 Y54.4902
N464 G1 X161.036 Y54.707
N465 G1 X165.9307 Y56.4262
N466 G1 X170.5203 Y58.036
N467 G1 X171.596 Y58.413
N468 G1 X173.7141 Y59.1549
N469 G1 X175.7662 Y59.8732
N470 G1 X179.7424 Y61.2635
N471 G1 X187.1996 Y63.8655
N472 G1 X193.7267 Y66.1362
N473 G1 X193.816 Y66.1672
N474 G1 X199.518 Y68.1447
N475 G1 X202.0134 Y69.008
N476 G1 X203.1832 Y69.4123
N477 G1 X205.4501 Y70.1948
N478 G1 X213.9548 Y73.1174
N479 G1 X217.1462 Y74.2075
N480 G1 X217.3208 Y74.267
N481 G1 X217.4941 Y74.3261
N482 G1 X220.2444 Y75.2613
N483 G1 X220.8462 Y75.4654
N484 G1 X221.4294 Y75.6629
N485 G1 X223.6895 Y76.4264
N486 G1 X225.668 Y77.0917
N487 G1 X227.4002 Y77.6711
N488 G1 X228.9167 Y78.1757
N489 G1 X229.2487 Y78.2857
N490 G1 X230.5352 Y78.7106
N491 G1 X231.0984 Y78.8957
N492 G1 X232.1548 Y79.2413
N493 G1 X232.6172 Y79.3918
N494 G1 X233.051 Y79.5325
N495 G1 X234.6789 Y80.0551
N496 G1 X235.9021 Y80.4404
N497 G1 X236.3617 Y80.5828
N498 G1 X237.167 Y80.8281
N499 G1 X237.3184 Y80.8734
N500 G1 X237.8865 Y81.0404
N501 G1 X238.6085 Y81.2423
N502 G1 X238.7429 Y81.2776
N503 G1 X238.9586 Y81.3322
N504 G1 X239.1212 Y81.3708
N505 G1 X239.2438 Y81.3976
N506 G1 X239.3361 Y81.4159
N507 G1 X239.4759 Y81.438
N508 G1 X239.5468 Y81.4439
N509 G1 X239.6034 Y81.4399
N510 G1 X239.6174 Y81.4356
N511 G1 X239.6291 Y81.4207
N512 G1 X239.6284 Y81.4135
N513 G1 X239.6063 Y81.3813
N514 G1 X239.5123 Y81.3083
N515 G1 X239.4836 Y81.2906
N516 G1 X239.2476 Y81.1558
N517 G1 X239.219 Y81.141
N518 G1 X238.9487 Y81.0036
N519 G1 X238.9317 Y80.9952
N520 G1 X238.6593 Y80.8637
N521 G1 X238.591 Y80.8315
N522 G1 X237.4726 Y80.3232
N523 G1 X236.386 Y79.8501
N524 G1 X235.84 Y79.6164
N525 G1 X235.2954 Y79.3851
N526 G1 X234.2091 Y78.9283
N527 G1 X233.6695 Y78.7031
N528 G1 X233.1317 Y78.4796
N529 G1 X232.0595 Y78.0365
N530 G1 X231.5272 Y77.8175
N531 G1 X230.4662 Y77.3826
N532 G1 X229.9396 Y77.1675
N533 G1 X227.8401 Y76.3138
N534 G1 X225.7716 Y75.4777
N535 G1 X223.7342 Y74.6579
N536 G1 X223.2326 Y74.4565
N537 G1 X221.2337 Y73.6557
N538 G1 X219.2652 Y72.8692
N539 G1 X218.7807 Y72.6759
N540 G1 X216.8497 Y71.9066
N541 G1 X214.9485 Y71.1506
N542 G1 X211.2043 Y69.6652
N543 G1 X209.3902 Y68.9469
N544 G1 X205.8181 Y67.5346
N545 G1 X198.8948 Y64.8038
N546 G1 X197.2717 Y64.1646
N547 G1 X194.0762 Y62.9069
N548 G1 X192.5282 Y62.298
N549 G1 X189.4804 Y61.0997
N550 G1 X177.6687 Y56.4605
N551 G1 X156.9974 Y48.3441
N552 G1 X155.0597 Y47.5825
N553 G1 X151.3055 Y46.1062
N554 G1 X144.2676 Y43.3354
N555 G1 X138.1111 Y40.9069
N556 G1 X138.0269 Y40.8736
N557 G1 X132.6521 Y38.7483
N558 G1 X130.3012 Y37.8169
N559 G1 X129.1993 Y37.3799
N560 G1 X127.0647 Y36.5325
N561 G1 X126.8146 Y36.4331
N562 G1 X122.8449 Y34.8532
N563 G1 X116.928 Y32.4877
N564 G1 X111.0186 Y30.1036
N565 G1 X108.9711 Y29.2725
N566 G1 X107.2401 Y28.5654
N567 G1 X105.7266 Y27.9438
N568 G1 X104.4034 Y27.3971
N569 G1 X103.2464 Y26.9161
N570 G1 X102.235 Y26.4928
N571 G1 X101.7929 Y26.3068
N572 G1 X101.3785 Y26.1318
N573 G1 X100.6022 Y25.8022
N574 G1 X100.2628 Y25.6573
N575 G1 X100.1038 Y25.5892
N576 G1 X99.9498 Y25.523
N577 G1 X99.3536 Y25.2657
N578 G1 X99.2232 Y25.2092
N579 G1 X98.2149 Y24.7667
N580 G1 X98.0261 Y24.6827
N581 G1 X97.3199 Y24.3639
N582 G1 X97.1878 Y24.3032
N583 G1 X97.0639 Y24.246
N584 G1 X96.2214 Y23.8435
N585 G1 X96.1416 Y23.8042
N586 G1 X95.9129 Y23.6872
N587 G1 X95.8701 Y23.6647
N588 G1 X95.5858 Y23.5076
N589 G1 X95.5537 Y23.4884
N590 G1 X95.3994 Y23.3889
N591 G1 X95.3256 Y23.3303
N592 G1 X95.292 Y23.2939
N593 G1 X95.28 Y23.2706
N594 G1 X95.2826 Y23.2485
N595 G1 X95.2854 Y23.2449
N596 G1 X95.3214 Y23.2287
N597 G1 X95.3224 Y23.2285
N598 G1 X95.4009 Y23.2235
N599 G1 X95.6189 Y23.2454
N600 G1 X95.7109 Y23.2607
N601 G1 X96.0162 Y23.3209
N602 G1 X96.3189 Y23.3895
N603 G1 X97.1174 Y23.5902
N604 G1 X97.5185 Y23.6988
N605 G1 X98.1107 Y23.8629
N606 G1 X98.4052 Y23.9462
N607 G1 X99.5788 Y24.2861
N608 G1 X100.7406 Y24.6317
N609 G1 X101.8917 Y24.9803
N610 G1 X103.0324 Y25.3303
N611 G1 X104.1634 Y25.6808
N612 G1 X105.2846 Y26.031
N613 G1 X107.5076 Y26.7322
N614 G1 X108.601 Y27.0797
N615 G1 X110.7695 Y27.773
N616 G1 X111.3029 Y27.9444
N617 G1 X113.4276 Y28.6292
N618 G1 X115.518 Y29.3065
N619 G1 X117.575 Y29.9758
N620 G1 X118.5872 Y30.306
N621 G1 X122.6025 Y31.6214
N622 G1 X130.3766 Y34.1872
N623 G1 X134.0187 Y35.396
N624 G1 X134.2392 Y35.4694
N625 G1 X137.7595 Y36.6415
N626 G1 X141.1688 Y37.7795
N627 G1 X142.8199 Y38.3316
N628 G1 X146.0702 Y39.4201
N629 G1 X152.3656 Y41.5342
N630 G1 X155.3159 Y42.5273
N631 G1 X158.1736 Y43.4907
N632 G1 X160.9416 Y44.425
N633 G1 X166.3037 Y46.2383
N634 G1 X171.3294 Y47.9415
N635 G1 X171.6239 Y48.0414
N636 G1 X176.3161 Y49.635
N637 G1 X180.7143 Y51.1314
N638 G1 X181.7451 Y51.4825
N639 G1 X185.803 Y52.866
N640 G1 X187.705 Y53.5152
N641 G1 X195.0736 Y56.0349
N642 G1 X198.2967 Y57.1395
N643 G1 X201.3179 Y58.1762
N644 G1 X206.9815 Y60.1235
N645 G1 X208.2202 Y60.5501
N646 G1 X213.0194 Y62.2053
N647 G1 X217.2176 Y63.657
N648 G1 X219.0539 Y64.2932
N649 G1 X222.4963 Y65.488
N650 G1 X225.5077 Y66.5359
N651 G1 X228.1418 Y67.455
N652 G1 X230.4461 Y68.2611
N653 G1 X232.4617 Y68.9683
N654 G1 X235.9872 Y70.2109
N655 G1 X236.3176 Y70.3279
N656 G1 X238.8769 Y71.2371
N657 G1 X241.8066 Y72.2887
N658 G1 X242.7102 Y72.6173
N659 G1 X243.6666 Y72.968
N660 G1 X244.3829 Y73.2339
N661 G1 X244.9193 Y73.4358
N662 G1 X245.7213 Y73.7457
N663 G1 X245.7712 Y73.7656
N664 G1 X245.818 Y73.7843
N665 G1 X245.8619 Y73.8019
N666 G1 X246.0261 Y73.8687
N667 G1 X246.2707 Y73.9727
N668 G1 X246.3314 Y74.0001
N669 G1 X246.3541 Y74.0106
N670 G1 X246.4326 Y74.0489
N671 G1 X246.5072 Y74.0943
N672 G1 X246.5145 Y74.1092
N673 G1 X246.5141 Y74.1107
N674 G1 X246.4772 Y74.1156
N675 G1 X246.4043 Y74.1071
N676 G1 X246.1312 Y74.051
N677 G1 X246.1175 Y74.0476
N678 G1 X245.8335 Y73.978
N679 G1 X244.88 Y73.7233
N680 G1 X244.7068 Y73.6748
N681 G1 X244.1496 Y73.5181
N682 G1 X243.5951 Y73.3599
N683 G1 X241.5283 Y72.7584
N684 G1 X241.3895 Y72.7172
N685 G1 X240.3052 Y72.3966
N686 G1 X239.2299 Y72.0765
N687 G1 X237.0973 Y71.4375
N688 G1 X236.5727 Y71.2796
N689 G1 X236.0502 Y71.1221
N690 G1 X233.9689 Y70.4929
N691 G1 X231.9208 Y69.8711
N692 G1 X229.9053 Y69.2574
N693 G1 X225.9384 Y68.0452
N694 G1 X222.0966 Y66.8671
N695 G1 X221.6314 Y66.7243
N696 G1 X217.9252 Y65.5845
N697 G1 X210.7459 Y63.371
N698 G1 X207.3811 Y62.3316
N699 G1 X205.7515 Y61.8277
N700 G1 X204.1473 Y61.3316
N701 G1 X197.8314 Y59.3763
N702 G1 X185.9908 Y55.705
N703 G1 X144.5536 Y42.8398
N704 G1 X139.3732 Y41.2337
N705 G1 X138.2399 Y40.8826
N706 G1 X129.4562 Y38.1643
N707 G1 X127.8089 Y37.6554
N708 G1 X121.6309 Y35.7504
N709 G1 X116.9958 Y34.3265
N710 G1 X116.5611 Y34.1933
N711 G1 X114.8766 Y33.6778
N712 G1 X111.9279 Y32.7787
N713 G1 X109.7152 Y32.1081
N714 G1 X109.3002 Y31.9828
N715 G1 X107.7432 Y31.5149
N716 G1 X105.405 Y30.8223
N717 G1 X105.2586 Y30.7796
N718 G1 X105.1213 Y30.7397
N719 G1 X104.6063 Y30.5912
N720 G1 X104.2195 Y30.4813
N721 G1 X104.1468 Y30.4609
N722 G1 X103.6014 Y30.3114
N723 G1 X103.4643 Y30.2755
N724 G1 X103.258 Y30.2243
N725 G1 X103.1535 Y30.2012
N726 G1 X103.1 Y30.1912
N727 G1 X103.0715 Y30.1872
N728 G1 X103.054 Y30.186
N729 G1 X103.0381 Y30.1881
N730 G1 X103.04 Y30.1964
N731 G1 X103.0465 Y30.2017
N732 G1 X103.1868 Y30.2706
N733 G1 X103.3307 Y30.3308
N734 G1 X103.3488 Y30.3381
N735 G1 X103.4936 Y30.3958
N736 G1 X103.5661 Y30.4242
N737 G1 X103.8566 Y30.5356
N738 G1 X104.0018 Y30.5904
N739 G1 X104.2925 Y30.6989
N740 G1 X104.5829 Y30.8062
N741 G1 X104.6192 Y30.8195
N742 G1 X105.1996 Y31.0314
N743 G1 X105.4889 Y31.1362
N744 G1 X105.7778 Y31.2404
N745 G1 X105.922 Y31.2923
N746 G1 X107.0752 Y31.7048
N747 G1 X108.2205 Y32.1111
N748 G1 X109.3575 Y32.5122
N749 G1 X109.9218 Y32.7107
N750 G1 X110.2029 Y32.8094
N751 G1 X111.3253 Y33.2027
N752 G1 X112.4392 Y33.592
N753 G1 X112.992 Y33.7848
N754 G1 X113.2673 Y33.8808
N755 G1 X114.3665 Y34.2634
N756 G1 X116.5484 Y35.0209
N757 G1 X120.846 Y36.5067
N758 G1 X120.9762 Y36.5516
N759 G1 X125.1372 Y37.9841
N760 G1 X126.1453 Y38.3304
N761 G1 X128.1458 Y39.0168
N762 G1 X132.085 Y40.3659
N763 G1 X139.72 Y42.9718
N764 G1 X143.3001 Y44.1901
N765 G1 X145.0344 Y44.7795
N766 G1 X146.7418 Y45.3593
N767 G1 X153.466 Y47.6382
N768 G1 X159.7718 Y49.769
N769 G1 X165.6854 Y51.7617
N770 G1 X171.2308 Y53.6254
N771 G1 X173.8307 Y54.4975
N772 G1 X174.4605 Y54.7085
N773 G1 X175.0853 Y54.9179
N774 G1 X176.3253 Y55.3332
N775 G1 X181.2084 Y56.966
N776 G1 X183.4978 Y57.7301
N777 G1 X184.6069 Y58.0999
N778 G1 X188.9744 Y59.554
N779 G1 X189.9982 Y59.8943
N780 G1 X191.0061 Y60.2291
N781 G1 X194.9752 Y61.5456
N782 G1 X196.8362 Y62.1617
N783 G1 X198.6392 Y62.7578
N784 G1 X207.3874 Y65.6382
N785 G1 X212.6212 Y67.3515
N786 G1 X212.7032 Y67.3782
N787 G1 X212.785 Y67.405
N788 G1 X220.5609 Y69.9304
N789 G1 X223.2444 Y70.7971
N790 G1 X225.2073 Y71.4282
N791 G1 X230.3242 Y73.0628
N792 G1 X232.5748 Y73.7752
N793 G1 X232.7477 Y73.8298
N794 G1 X235.4926 Y74.6929
N795 G1 X237.8964 Y75.4424
N796 G1 X238.9488 Y75.7683
N797 G1 X240.9232 Y76.3755
N798 G1 X242.6526 Y76.9019
N799 G1 X244.1673 Y77.358
N800 G1 X244.499 Y77.4571
N801 G1 X245.7848 Y77.8386
N802 G1 X245.9255 Y77.8801
N803 G1 X246.0641 Y77.9208
N804 G1 X247.1559 Y78.2396
N805 G1 X247.634 Y78.3777
N806 G1 X248.0826 Y78.5064
N807 G1 X248.9244 Y78.7452
N808 G1 X249.2931 Y78.8484
N809 G1 X249.466 Y78.8966
N810 G1 X249.6336 Y78.9431
N811 G1 X250.2836 Y79.1213
N812 G1 X250.426 Y79.1598
N813 G1 X250.5639 Y79.197
N814 G1 X251.0988 Y79.3394
N815 G1 X252.0375 Y79.5808
N816 G1 X252.7445 Y79.7523
N817 G1 X253.4105 Y79.9016
N818 G1 X253.8126 Y79.9818
N819 G1 X253.8801 Y79.9942
N820 G1 X254.134 Y80.0374
N821 G1 X254.3257 Y80.0648
N822 G1 X254.6026 Y80.0902
N823 G1 X254.6157 Y80.0909
N824 G1 X254.6892 Y80.0921
N825 G1 X254.7446 Y80.0902
N826 G1 X254.7861 Y80.0865
N827 G1 X254.8476 Y80.0746
N828 G1 X254.8949 Y80.0523
N829 G1 X254.9033 Y80.0457
N830 G1 X254.9191 Y80.0118
N831 G1 X254.9152 Y79.9746
N832 G1 X254.9077 Y79.9604
N833 G1 X254.8501 Y79.8815
N834 G1 X254.811 Y79.8428
N835 G1 X254.7547 Y79.7928
N836 G1 X254.6963 Y79.7456
N837 G1 X254.4876 Y79.5954
N838 G1 X254.4516 Y79.5719
N839 G1 X254.0924 Y79.3468
N840 G1 X253.9417 Y79.2591
N841 G1 X253.4246 Y78.9691
N842 G1 X253.4223 Y78.9679
N843 G1 X252.4536 Y78.4576
N844 G1 X251.4758 Y77.9651
N845 G1 X251.3122 Y77.8849
N846 G1 X251.1812 Y77.8205
N847 G1 X251.0503 Y77.7563
N848 G1 X250.9849 Y77.7243
N849 G1 X249.9366 Y77.2178
N850 G1 X248.893 Y76.7225
N851 G1 X248.3743 Y76.4789
N852 G1 X248.1157 Y76.358
N853 G1 X247.0823 Y75.8782
N854 G1 X246.0553 Y75.4057
N855 G1 X243.3464 Y74.1745
N856 G1 X241.9677 Y73.5563
N857 G1 X241.8437 Y73.5008
N858 G1 X240.8525 Y73.0581
N859 G1 X238.8839 Y72.1839
N860 G1 X238.6415 Y72.0766
N861 G1 X238.3996 Y71.9696
N862 G1 X236.467 Y71.1178
N863 G1 X234.563 Y70.2829
N864 G1 X232.6875 Y69.4639
N865 G1 X230.8402 Y68.6601
N866 G1 X229.0208 Y67.8711
N867 G1 X227.229 Y67.0963
N868 G1 X223.6995 Y65.5756
N869 G1 X221.989 Y64.8411
N870 G1 X215.2973 Y61.9798
N871 G1 X215.2493 Y61.9594
N872 G1 X213.6688 Y61.2861
N873 G1 X212.1127 Y60.624
N874 G1 X205.9829 Y58.0233
N875 G1 X200.233 Y55.5926
N876 G1 X197.5368 Y54.4555
N877 G1 X197.2103 Y54.3178
N878 G1 X196.885 Y54.1807
N879 G1 X191.7002 Y51.9986
N880 G1 X189.2693 Y50.977
N881 G1 X188.6804 Y50.7297
N882 G1 X188.0962 Y50.4844
N883 G1 X186.9368 Y49.9978
N884 G1 X186.3661 Y49.7583
N885 G1 X181.8361 Y47.8592
N886 G1 X177.5882 Y46.0808
N887 G1 X173.6052 Y44.4153
N888 G1 X166.1353 Y41.2963
N889 G1 X159.5978 Y38.5706
N890 G1 X153.8765 Y36.1878
N891 G1 X133.8487 Y27.8565
N892 G1 X128.842 Y25.7728
N893 G1 X125.0877 Y24.2085
N894 G1 X122.2727 Y23.0334
N895 G1 X120.1622 Y22.1502
N896 G1 X116.9989 Y20.8196
N897 G1 X116.6038 Y20.6523
N898 G1 X115.2226 Y20.0634
N899 G1 X115.1363 Y20.0262
N900 G1 X114.4907 Y19.7456
N901 G1 X114.3297 Y19.6744
N902 G1 X114.089 Y19.5657
N903 G1 X114.029 Y19.5379
N904 G1 X113.9841 Y19.5166
N905 G1 X113.9173 Y19.4838
N906 G1 X113.884 Y19.4664
N907 G1 X113.8675 Y19.4569
N908 G1 X113.859 Y19.4515
N909 G1 X113.8542 Y19.4478
N910 G1 X113.851 Y19.4439
N911 G1 X113.8557 Y19.442
N912 G1 X113.9309 Y19.4613
N913 G1 X114.4391 Y19.6421
N914 G1 X114.5145 Y19.6707
N915 G1 X115.0921 Y19.8898
N916 G1 X116.2396 Y20.3338
N917 G1 X117.3764 Y20.7789
N918 G1 X118.5035 Y21.2228
N919 G1 X119.6211 Y21.6648
N920 G1 X121.8376 Y22.545
N921 G1 X124.0183 Y23.4142
N922 G1 X126.1643 Y24.2718
N923 G1 X130.3874 Y25.9643
N924 G1 X131.41 Y26.3749
N925 G1 X131.5368 Y26.4259
N926 G1 X133.5636 Y27.2405
N927 G1 X133.813 Y27.3408
N928 G1 X137.7945 Y28.9438
N929 G1 X137.915 Y28.9924
N930 G1 X141.7674 Y30.5463
N931 G1 X154.8462 Y35.838
N932 G1 X167.9175 Y41.1482
N933 G1 X180.9813 Y46.477
N934 G1 X194.0375 Y51.8243
N935 G1 X201.3915 Y54.8457
N936 G1 X205.1125 Y56.3785
N937 G1 X208.6002 Y57.8175
N938 G1 X211.8691 Y59.1684
N939 G1 X213.4012 Y59.8024
N940 G1 X214.1433 Y60.1096
N941 G1 X215.604 Y60.7148
N942 G1 X221.2625 Y63.0641
N943 G1 X226.2111 Y65.1263
N944 G1 X230.5388 Y66.9366
N945 G1 X231.4852 Y67.3335
N946 G1 X231.9435 Y67.5258
N947 G1 X235.5517 Y69.0435
N948 G1 X238.7069 Y70.3765
N949 G1 X240.0866 Y70.9613
N950 G1 X240.2483 Y71.03
N951 G1 X242.8135 Y72.1215
N952 G1 X245.0564 Y73.0807
N953 G1 X246.0371 Y73.5018
N954 G1 X246.9562 Y73.8975
N955 G1 X247.387 Y74.0833
N956 G1 X249.055 Y74.8054
N957 G1 X250.5131 Y75.4404
N958 G1 X250.8319 Y75.5798
N959 G1 X252.0664 Y76.1218
N960 G1 X253.1455 Y76.5989
N961 G1 X253.6172 Y76.8085
N962 G1 X253.8382 Y76.907
N963 G1 X254.6939 Y77.2903
N964 G1 X255.4418 Y77.6279
N965 G1 X256.9352 Y78.3117
N966 G1 X258.0475 Y78.8354
N967 G1 X258.9366 Y79.2673
N968 G1 X259.3371 Y79.4693
N969 G1 X259.6562 Y79.6351
N970 G1 X259.8938 Y79.7629
N971 G1 X260.0704 Y79.8617
N972 G1 X260.3311 Y80.0178
N973 G1 X260.4573 Y80.1023
N974 G1 X260.5759 Y80.1974
N975 G1 X260.6179 Y80.2465
N976 G1 X260.6322 Y80.2825
N977 G1 X260.6327 Y80.2944
N978 G1 X260.6189 Y80.3221
N979 G1 X260.6136 Y80.3265
N980 G1 X260.5623 Y80.3501
N981 G1 X260.5511 Y80.3526
N982 G1 X260.5184 Y80.3586
N983 G1 X260.3577 Y80.367
N984 G1 X260.2537 Y80.3617
N985 G1 X259.88 Y80.3225
N986 G1 X259.7309 Y80.3012
N987 G1 X259.6015 Y80.2809
N988 G1 X259.3436 Y80.2371
N989 G1 X258.4867 Y80.0693
N990 G1 X258.3193 Y80.0342
N991 G1 X257.3083 Y79.8091
N992 G1 X257.1831 Y79.7801
N993 G1 X256.1844 Y79.5427
N994 G1 X254.3336 Y79.0811
N995 G1 X254.2081 Y79.0491
N996 G1 X253.2374 Y78.7986
N997 G1 X251.3139 Y78.291
N998 G1 X251.2547 Y78.2752
N999 G1 X251.1956 Y78.2593
N1000 G1 X249.3069 Y77.7492
N1001 G1 X245.778 Y76.7743
N1002 G1 X242.2544 Y75.7803
N1003 G1 X241.8881 Y75.6757
N1004 G1 X241.454 Y75.5518
N1005 G1 X240.5894 Y75.3044
N1006 G1 X238.8746 Y74.8111
N1007 G1 X237.1873 Y74.3227
N1008 G1 X235.5272 Y73.8393
N1009 G1 X233.8937 Y73.3612
N1010 G1 X233.0898 Y73.1251
N1011 G1 X229.9011 Y72.1832
N1012 G1 X226.8141 Y71.2638
N1013 G1 X220.9132 Y69.4866
N1014 G1 X215.0181 Y67.6902
N1015 G1 X214.8684 Y67.6443
N1016 G1 X212.2583 Y66.8413
N1017 G1 X210.9944 Y66.451
N1018 G1 X209.7505 Y66.0659
N1019 G1 X207.3023 Y65.3051
N1020 G1 X204.9315 Y64.5649
N1021 G1 X202.6358 Y63.8448
N1022 G1 X200.4125 Y63.1443
N1023 G1 X198.2596 Y62.4629
N1024 G1 X196.1747 Y61.8002
N1025 G1 X195.6698 Y61.6393
N1026 G1 X195.4194 Y61.5594
N1027 G1 X195.1699 Y61.4798
N1028 G1 X193.1826 Y60.8441
N1029 G1 X192.2202 Y60.5353
N1030 G1 X190.3261 Y59.9257
N1031 G1 X190.2114 Y59.8887
N1032 G1 X190.097 Y59.8517
N1033 G1 X188.2699 Y59.2609
N1034 G1 X186.5005 Y58.6864
N1035 G1 X184.787 Y58.1278
N1036 G1 X184.3721 Y57.9922
N1037 G1 X181.0803 Y56.9113
N1038 G1 X177.9963 Y55.8904
N1039 G1 X175.1071 Y54.9261
N1040 G1 X172.4004 Y54.0152
N1041 G1 X169.8648 Y53.1547
N1042 G1 X165.9333 Y51.8052
N1043 G1 X162.0083 Y50.4368
N1044 G1 X160.3774 Y49.862
N1045 G1 X159.9334 Y49.7046
N1046 G1 X158.1861 Y49.0816
N1047 G1 X156.5495 Y48.4926
N1048 G1 X156.1661 Y48.3539
N1049 G1 X155.7887 Y48.217
N1050 G1 X154.304 Y47.6752
N1051 G1 X152.9134 Y47.1629
N1052 G1 X151.6109 Y46.6783
N1053 G1 X150.3911 Y46.2199
N1054 G1 X150.2482 Y46.1659
N1055 G1 X149.1149 Y45.7351
N1056 G1 X148.0536 Y45.3274
N1057 G1 X147.5565 Y45.1349
N1058 G1 X147.0751 Y44.9476
N1059 G1 X146.1435 Y44.582
N1060 G1 X145.2711 Y44.2358
N1061 G1 X143.5008 Y43.5204
N1062 G1 X142.013 Y42.9023
N1063 G1 X141.7085 Y42.7737
N1064 G1 X141.4137 Y42.6484
N1065 G1 X141.1283 Y42.5263
N1066 G1 X139.8233 Y41.9577
N1067 G1 X138.9275 Y41.5546
N1068 G1 X138.5167 Y41.3659
N1069 G1 X137.7492 Y41.0053
N1070 G1 X137.4145 Y40.8443
N1071 G1 X137.1015 Y40.6913
N1072 G1 X136.2619 Y40.2669
N1073 G1 X135.9373 Y40.0968
N1074 G1 X135.8289 Y40.0389
N1075 G1 X135.6193 Y39.9256
N1076 G1 X135.4236 Y39.8177
N1077 G1 X135.2407 Y39.715
N1078 G1 X135.07 Y39.6173
N1079 G1 X134.9106 Y39.5242
N1080 G1 X134.7619 Y39.4356
N1081 G1 X134.4851 Y39.2655
N1082 G1 X134.365 Y39.1892
N1083 G1 X134.253 Y39.1165
N1084 G1 X133.919 Y38.889
N1085 G1 X133.5967 Y38.6452
N1086 G1 X133.4464 Y38.5226
N1087 G1 X133.2623 Y38.3561
N1088 G1 X133.0922 Y38.1753
N1089 G1 X133.0858 Y38.1679
N1090 G1 X132.9766 Y38.0248
N1091 G1 X132.9359 Y37.9619
N1092 G1 X132.8789 Y37.8514
N1093 G1 X132.8402 Y37.7332
N1094 G1 X132.8386 Y37.7264
N1095 G1 X132.8276 Y37.63
N1096 G1 X132.8366 Y37.5333
N1097 G1 X132.8625 Y37.4468
N1098 G1 X132.916 Y37.3473
N1099 G1 X132.9862 Y37.2588
N1100 G1 X133.005 Y37.2399
N1101 G1 X133.1208 Y37.1399
N1102 G1 X133.1938 Y37.089
N1103 G1 X133.3807 Y36.9817
N1104 G1 X133.5769 Y36.8921
N1105 G1 X133.6186 Y36.8757
N1106 G1 X133.7284 Y36.834
N1107 G1 X134.0451 Y36.7309
N1108 G1 X134.1757 Y36.6944
N1109 G1 X134.6118 Y36.589
N1110 G1 X135.0522 Y36.5031
N1111 G1 X135.0856 Y36.4974
N1112 G1 X135.7576 Y36.3944
N1113 G1 X136.4324 Y36.3112
N1114 G1 X136.914 Y36.2641
N1115 G1 X137.1397 Y36.244
N1116 G1 X138.1086 Y36.1717
N1117 G1 X138.9443 Y36.1254
N1118 G1 X140.2794 Y36.0735
N1119 G1 X140.7226 Y36.0607
N1120 G1 X142.2987 Y36.0329
N1121 G1 X142.4737 Y36.0311
N1122 G1 X144.3208 Y36.0269
N1123 G1 X145.9213 Y36.0395
N1124 G1 X147.5907 Y36.0668
N1125 G1 X147.7962 Y36.071
N1126 G1 X148.6162 Y36.0894
N1127 G1 X149.0229 Y36.0995
N1128 G1 X151.7106 Y36.18
N1129 G1 X154.3975 Y36.2804
N1130 G1 X155.5036 Y36.3276
N1131 G1 X155.5985 Y36.3317
N1132 G1 X157.1152 Y36.4
N1133 G1 X160.6078 Y36.5725
N1134 G1 X163.0856 Y36.7071
N1135 G1 X164.4845 Y36.7864
N1136 G1 X165.173 Y36.8263
N1137 G1 X167.9051 Y36.9898
N1138 G1 X168.5668 Y37.0306
N1139 G1 X173.7601 Y37.3642
N1140 G1 X178.9521 Y37.7177
N1141 G1 X179.0668 Y37.7257
N1142 G1 X180.215 Y37.8062
N1143 G1 X181.3452 Y37.8861
N1144 G1 X183.5702 Y38.0452
N1145 G1 X187.8806 Y38.3595
N1146 G1 X189.9011 Y38.5092
N1147 G1 X190.3904 Y38.5456
N1148 G1 X192.3324 Y38.6909
N1149 G1 X196.0947 Y38.9749
N1150 G1 X210.203 Y40.054
N1151 G1 X215.4949 Y40.4563
N1152 G1 X220.1263 Y40.8026
N1153 G1 X220.1897 Y40.8073
N1154 G1 X220.2529 Y40.8119
N1155 G1 X225.5856 Y41.1998
N1156 G1 X228.3293 Y41.3915
N1157 G1 X228.7081 Y41.4176
N1158 G1 X231.6916 Y41.6184
N1159 G1 X232.9974 Y41.7032
N1160 G1 X234.2219 Y41.7808
N1161 G1 X236.5184 Y41.9202
N1162 G1 X237.5236 Y41.9782
N1163 G1 X237.7593 Y41.9916
N1164 G1 X237.9913 Y42.0046
N1165 G1 X238.448 Y42.0298
N1166 G1 X239.3332 Y42.0774
N1167 G1 X240.9933 Y42.161
N1168 G1 X241.72 Y42.1949
N1169 G1 X242.4015 Y42.2251
N1170 G1 X243.0407 Y42.2517
N1171 G1 X243.3404 Y42.2636
N1172 G1 X244.5021 Y42.3055
N1173 G1 X246.3544 Y42.3552
N1174 G1 X246.5367 Y42.359
N1175 G1 X247.7656 Y42.3746
N1176 G1 X248.0656 Y42.3754
N1177 G1 X249.0907 Y42.3687
N1178 G1 X249.2148 Y42.3665
N1179 G1 X249.4309 Y42.362
N1180 G1 X249.6336 Y42.3567
N1181 G1 X249.8238 Y42.3508
N1182 G1 X250.0021 Y42.3442
N1183 G1 X250.6224 Y42.3126
N1184 G1 X251.2414 Y42.2609
N1185 G1 X251.3381 Y42.251
N1186 G1 X251.6754 Y42.2064
N1187 G1 X251.9477 Y42.158
N1188 G1 X252.1784 Y42.1009
N1189 G1 X252.3339 Y42.0479
N1190 G1 X252.4251 Y42.0066
N1191 G1 X252.5118 Y41.9514
N1192 G1 X252.5372 Y41.9302
N1193 G1 X252.5774 Y41.8835
N1194 G1 X252.6004 Y41.8264
N1195 G1 X252.6032 Y41.8116
N1196 G1 X252.5966 Y41.7466
N1197 G1 X252.5714 Y41.6879
N1198 G1 X252.499 Y41.5934
N1199 G1 X252.4118 Y41.5123
N1200 G1 X252.4092 Y41.5103
N1201 G1 X252.2197 Y41.3735
N1202 G1 X252.2173 Y41.372
N1203 G1 X251.9689 Y41.2247
N1204 G1 X251.8075 Y41.141
N1205 G1 X251.5975 Y41.0383
N1206 G1 X251.3856 Y40.941
N1207 G1 X251.3324 Y40.9173
N1208 G1 X251.119 Y40.8251
N1209 G1 X250.9047 Y40.7361
N1210 G1 X250.1327 Y40.4371
N1211 G1 X249.3536 Y40.1568
N1212 G1 X249.168 Y40.0932
N1213 G1 X248.7366 Y39.9469
N1214 G1 X248.3059 Y39.8044
N1215 G1 X247.0613 Y39.4075
N1216 G1 X246.5821 Y39.2603
N1217 G1 X244.8254 Y38.7365
N1218 G1 X243.1671 Y38.2612
N1219 G1 X242.3372 Y38.0289
N1220 G1 X241.9252 Y37.9148
N1221 G1 X239.2455 Y37.1894
N1222 G1 X236.5605 Y36.4834
N1223 G1 X235.3398 Y36.1692
N1224 G1 X234.5663 Y35.9717
N1225 G1 X233.0304 Y35.583
N1226 G1 X231.5176 Y35.2045
N1227 G1 X230.7726 Y35.0196
N1228 G1 X229.2937 Y34.655
N1229 G1 X225.1285 Y33.6449
N1230 G1 X220.9587 Y32.6543
N1231 G1 X217.6249 Y31.877
N1232 G1 X216.3465 Y31.5814
N1233 G1 X213.8289 Y31.0036
N1234 G1 X211.3887 Y30.4488
N1235 G1 X206.0973 Y29.2619
N1236 G1 X200.8015 Y28.0945
N1237 G1 X195.5014 Y26.9467
N1238 G1 X190.1971 Y25.8184
N1239 G1 X184.8887 Y24.7097
N1240 G1 X179.5763 Y23.6205
N1241 G1 X174.2599 Y22.551
N1242 G1 X173.4476 Y22.3894
N1243 G1 X172.2573 Y22.1543
N1244 G1 X169.9503 Y21.7023
N1245 G1 X167.7864 Y21.2831
N1246 G1 X165.7567 Y20.8943
N1247 G1 X163.853 Y20.5338
N1248 G1 X163.4065 Y20.4499
N1249 G1 X161.6485 Y20.1218
N1250 G1 X160.8241 Y19.9694
N1251 G1 X159.2262 Y19.6765
N1252 G1 X158.8515 Y19.6084
N1253 G1 X157.3759 Y19.3422
N1254 G1 X154.2337 Y18.7874
N1255 G1 X151.8354 Y18.3775
N1256 G1 X150.7943 Y18.2036
N1257 G1 X149.8177 Y18.0431
N1258 G1 X149.5887 Y18.0058
N1259 G1 X149.1377 Y17.9329
N1260 G1 X148.2636 Y17.7933
N1261 G1 X147.4436 Y17.6646
N1262 G1 X147.0589 Y17.6051
N1263 G1 X146.6862 Y17.548
N1264 G1 X145.2407 Y17.3319
N1265 G1 X144.6074 Y17.2403
N1266 G1 X144.3103 Y17.198
N1267 G1 X143.1582 Y17.039
N1268 G1 X142.1483 Y16.9068
N1269 G1 X141.2626 Y16.7977
N1270 G1 X140.8744 Y16.7522
N1271 G1 X140.1455 Y16.6714
N1272 G1 X139.9856 Y16.6546
N1273 G1 X139.3657 Y16.5927
N1274 G1 X138.8217 Y16.5438
N1275 G1 X138.583 Y16.5242
N1276 G1 X137.8067 Y16.4698
N1277 G1 X137.6858 Y16.4631
N1278 G1 X137.3464 Y16.4467
N1279 G1 X136.7495 Y16.4307
N1280 G1 X136.2962 Y16.4341
N1281 G1 X136.1235 Y16.4406
N1282 G1 X135.8329 Y16.4608
N1283 G1 X135.8189 Y16.4623
N1284 G1 X135.5866 Y16.4919
N1285 G1 X135.5857 Y16.4921
N1286 G1 X135.496 Y16.5082
N1287 G1 X135.3448 Y16.5444
N1288 G1 X135.1995 Y16.5997
N1289 G1 X135.1874 Y16.6053
N1290 G1 X135.1177 Y16.6481
N1291 G1 X135.1114 Y16.6533
N1292 G1 X135.0654 Y16.6999
N1293 G1 X135.0355 Y16.7582
N1294 G1 X135.0337 Y16.7641
N1295 G1 X135.0305 Y16.8287
N1296 G1 X135.0472 Y16.8913
N1297 G1 X135.0505 Y16.8984
N1298 G1 X135.1024 Y16.9861
N1299 G1 X135.1252 Y17.0151
N1300 G1 X135.25 Y17.1467
N1301 G1 X135.3184 Y17.2078
N1302 G1 X135.3704 Y17.2513
N1303 G1 X135.6256 Y17.4435
N1304 G1 X135.8094 Y17.5672
N1305 G1 X136.0363 Y17.7114
N1306 G1 X136.4981 Y17.9844
N1307 G1 X136.7309 Y18.1151
N1308 G1 X137.5274 Y18.5396
N1309 G1 X138.3332 Y18.9464
N1310 G1 X138.6268 Y19.0891
N1311 G1 X139.0992 Y19.3168
N1312 G1 X139.5712 Y19.5405
N1313 G1 X140.9373 Y20.1718
N1314 G1 X141.4622 Y20.4085
N1315 G1 X142.3975 Y20.8254
N1316 G1 X142.8624 Y21.0302
N1317 G1 X144.9885 Y21.9515
N1318 G1 X146.5819 Y22.6278
N1319 G1 X146.8078 Y22.7229
N1320 G1 X147.7101 Y23.1013
N1321 G1 X148.6063 Y23.4745
N1322 G1 X149.4963 Y23.843
N1323 G1 X151.2642 Y24.5691
N1324 G1 X153.0069 Y25.2783
N1325 G1 X154.7242 Y25.9718
N1326 G1 X156.4162 Y26.6504
N1327 G1 X156.5204 Y26.692
N1328 G1 X158.1858 Y27.3558
N1329 G1 X159.006 Y27.6814
N1330 G1 X160.6342 Y28.3255
N1331 G1 X161.436 Y28.6416
N1332 G1 X163.0277 Y29.2672
N1333 G1 X163.4196 Y29.4208
N1334 G1 X169.0162 Y31.6009
N1335 G1 X169.6702 Y31.8543
N1336 G1 X172.6034 Y32.9865
N1337 G1 X175.4466 Y34.0791
N1338 G1 X176.1354 Y34.3432
N1339 G1 X178.8699 Y35.389
N1340 G1 X180.1949 Y35.8944
N1341 G1 X182.8041 Y36.8874
N1342 G1 X184.0683 Y37.3676
N1343 G1 X186.5578 Y38.3112
N1344 G1 X188.9702 Y39.2235
N1345 G1 X193.646 Y40.9861
N1346 G1 X198.0316 Y42.6335
N1347 G1 X200.0879 Y43.4041
N1348 G1 X204.0729 Y44.8946
N1349 G1 X205.9413 Y45.5922
N1350 G1 X209.562 Y46.942
N1351 G1 X216.3529 Y49.4672
N1352 G1 X232.1299 Y55.309
N1353 G1 X240.1362 Y58.2654
N1354 G1 X241.6231 Y58.8144
N1355 G1 X247.1985 Y60.8735
N1356 G1 X251.3792 Y62.4199
N1357 G1 X251.7712 Y62.5651
N1358 G1 X253.2896 Y63.128
N1359 G1 X254.618 Y63.6211
N1360 G1 X256.9419 Y64.4863
N1361 G1 X257.3775 Y64.6489
N1362 G1 X258.1941 Y64.9543
N1363 G1 X259.6223 Y65.4907
N1364 G1 X260.6927 Y65.8952
N1365 G1 X261.0938 Y66.0477
N1366 G1 X261.7952 Y66.316
N1367 G1 X262.3206 Y66.519
N1368 G1 X262.4191 Y66.5573
N1369 G1 X262.5113 Y66.5933
N1370 G1 X262.5978 Y66.6271
N1371 G1 X262.6788 Y66.6589
N1372 G1 X263.2851 Y66.9007
N1373 G1 X263.5865 Y67.026
N1374 G1 X263.736 Y67.0917
N1375 G1 X263.8098 Y67.1265
N1376 G1 X263.8815 Y67.1657
N1377 G1 X263.8907 Y67.1726
N1378 G1 X263.8965 Y67.1797
N1379 G1 X263.8893 Y67.1842
N1380 G1 X263.77 Y67.1585
N1381 G1 X263.7678 Y67.1579
N1382 G1 X263.2946 Y67.0075
N1383 G1 X262.8267 Y66.8475
N1384 G1 X262.5941 Y66.7664
N1385 G1 X261.6674 Y66.4377
N1386 G1 X260.7495 Y66.1073
N1387 G1 X260.2945 Y65.9423
N1388 G1 X258.4832 Y65.2812
N1389 G1 X256.7017 Y64.6262
N1390 G1 X253.1968 Y63.3302
N1391 G1 X249.8034 Y62.0696
N1392 G1 X246.517 Y60.8455
N1393 G1 X240.1514 Y58.4691
N1394 G1 X228.2191 Y54.0047
N1395 G1 X217.7792 Y50.0959
N1396 G1 X208.6438 Y46.677
N1397 G1 X200.6492 Y43.6883
N1398 G1 X186.6543 Y38.4691
N1399 G1 X181.4041 Y36.5174
N1400 G1 X179.1066 Y35.6648
N1401 G1 X178.0295 Y35.2655
N1402 G1 X177.9642 Y35.2413
N1403 G1 X177.8991 Y35.2172
N1404 G1 X170.2699 Y32.3964
N1405 G1 X169.5813 Y32.1429
N1406 G1 X166.4602 Y30.9948
N1407 G1 X163.7281 Y29.9931
N1408 G1 X161.3365 Y29.1194
N1409 G1 X159.2428 Y28.3575
N1410 G1 X158.7847 Y28.1912
N1411 G1 X157.0089 Y27.5483
N1412 G1 X156.2316 Y27.2678
N1413 G1 X152.9225 Y26.0816
N1414 G1 X150.3931 Y25.1892
N1415 G1 X148.9289 Y24.6808
N1416 G1 X147.8284 Y24.3052
N1417 G1 X147.001 Y24.0286
N1418 G1 X146.8456 Y23.9774
N1419 G1 X146.6998 Y23.9296
N1420 G1 X145.8027 Y23.6433
N1421 G1 X145.6026 Y23.5823
N1422 G1 X145.3261 Y23.5003
N1423 G1 X144.9081 Y23.386
N1424 G1 X144.8815 Y23.3794
N1425 G1 X144.8566 Y23.3733
N1426 G1 X144.8098 Y23.3622
N1427 G1 X144.6447 Y23.3282
N1428 G1 X144.559 Y23.317
N1429 G1 X144.5133 Y23.3162
N1430 G1 X144.4883 Y23.321
N1431 G1 X144.4756 Y23.3339
N1432 G1 X144.4768 Y23.3437
N1433 G0 Z100.0
N1434 G0 Y22.8145
N1435 G1 F100.0 Z0.0
N1436 G1 F1000.0 X144.4797 Y22.7967
N1437 G1 X144.4883 Y22.7919
N1438 G1 X144.5133 Y22.787
N1439 G1 X144.559 Y22.7878
N1440 G1 X144.6447 Y22.799
N1441 G1 X144.8098 Y22.833
N1442 G1 X144.8566 Y22.8441
N1443 G1 X144.8815 Y22.8502
N1444 G1 X144.9081 Y22.8568
N1445 G1 X145.3261 Y22.9711
N1446 G1 X145.6026 Y23.0531
N1447 G1 X146.5015 Y23.3353
N1448 G1 X146.6998 Y23.4004
N1449 G1 X146.8456 Y23.4482
N1450 G1 X147.001 Y23.4994
N1451 G1 X147.8284 Y23.7761
N1452 G1 X148.9289 Y24.1516
N1453 G1 X150.3931 Y24.66
N1454 G1 X153.7128 Y25.8338
N1455 G1 X156.2316 Y26.7386
N1456 G1 X157.0089 Y27.0191
N1457 G1 X158.7847 Y27.662
N1458 G1 X159.2428 Y27.8283
N1459 G1 X161.3365 Y28.5903
N1460 G1 X163.7281 Y29.464
N1461 G1 X166.4602 Y30.4656
N1462 G1 X169.5813 Y31.6137
N1463 G1 X177.2562 Y34.4495
N1464 G1 X177.8991 Y34.688
N1465 G1 X177.9642 Y34.7122
N1466 G1 X178.0295 Y34.7363
N1467 G1 X179.1066 Y35.1357
N1468 G1 X181.4041 Y35.9883
N1469 G1 X186.6543 Y37.94
N1470 G1 X200.6492 Y43.1591
N1471 G1 X208.6438 Y46.1479
N1472 G1 X217.7792 Y49.5668
N1473 G1 X228.2191 Y53.4756
N1474 G1 X240.1514 Y57.9399
N1475 G1 X246.517 Y60.3164
N1476 G1 X249.8034 Y61.5405
N1477 G1 X253.1968 Y62.801
N1478 G1 X256.7017 Y64.0971
N1479 G1 X258.4832 Y64.752
N1480 G1 X260.2945 Y65.4132
N1481 G1 X260.7495 Y65.5781
N1482 G1 X261.6674 Y65.9085
N1483 G1 X262.5941 Y66.2372
N1484 G1 X262.8267 Y66.3183
N1485 G1 X263.2946 Y66.4784
N1486 G1 X263.7678 Y66.6287
N1487 G1 X263.887 Y66.6547
N1488 G1 X263.8893 Y66.655
N1489 G1 X263.8965 Y66.6506
N1490 G1 X263.8907 Y66.6435
N1491 G1 X263.8815 Y66.6366
N1492 G1 X263.8098 Y66.5973
N1493 G1 X263.736 Y66.5626
N1494 G1 X263.5865 Y66.4968
N1495 G1 X263.2851 Y66.3715
N1496 G1 X262.6788 Y66.1297
N1497 G1 X262.5978 Y66.098
N1498 G1 X262.5113 Y66.0641
N1499 G1 X262.4191 Y66.0282
N1500 G1 X262.3206 Y65.9899
N1501 G1 X261.7952 Y65.7869
N1502 G1 X261.0938 Y65.5186
N1503 G1 X260.6927 Y65.3661
N1504 G1 X259.6223 Y64.9615
N1505 G1 X258.1941 Y64.4252
N1506 G1 X257.3775 Y64.1198
N1507 G1 X256.9419 Y63.9571
N1508 G1 X254.618 Y63.092
N1509 G1 X253.2896 Y62.5988
N1510 G1 X251.7712 Y62.0359
N1511 G1 X251.3792 Y61.8907
N1512 G1 X247.1985 Y60.3443
N1513 G1 X241.6231 Y58.2852
N1514 G1 X240.1362 Y57.7363
N1515 G1 X224.1629 Y51.8324
N1516 G1 X216.3529 Y48.938
N1517 G1 X209.562 Y46.4129
N1518 G1 X205.9413 Y45.0631
N1519 G1 X204.0729 Y44.3655
N1520 G1 X200.0879 Y42.875
N1521 G1 X198.0316 Y42.1043
N1522 G1 X193.646 Y40.457
N1523 G1 X188.9702 Y38.6943
N1524 G1 X186.5578 Y37.782
N1525 G1 X184.0683 Y36.8384
N1526 G1 X182.8041 Y36.3583
N1527 G1 X180.1949 Y35.3652
N1528 G1 X178.8699 Y34.8598
N1529 G1 X176.1354 Y33.814
N1530 G1 X175.4466 Y33.55
N1531 G1 X172.6034 Y32.4574
N1532 G1 X169.6702 Y31.3251
N1533 G1 X164.0752 Y29.1481
N1534 G1 X163.4196 Y28.8916
N1535 G1 X163.0277 Y28.738
N1536 G1 X161.436 Y28.1124
N1537 G1 X160.6342 Y27.7963
N1538 G1 X159.006 Y27.1523
N1539 G1 X158.1858 Y26.8266
N1540 G1 X156.5204 Y26.1629
N1541 G1 X156.4162 Y26.1212
N1542 G1 X154.7242 Y25.4426
N1543 G1 X153.0069 Y24.7491
N1544 G1 X151.2642 Y24.0399
N1545 G1 X149.4963 Y23.3138
N1546 G1 X148.6063 Y22.9453
N1547 G1 X147.7101 Y22.5721
N1548 G1 X146.8078 Y22.1938
N1549 G1 X146.5819 Y22.0986
N1550 G1 X144.4499 Y21.191
N1551 G1 X142.8624 Y20.5011
N1552 G1 X142.3975 Y20.2962
N1553 G1 X141.4622 Y19.8793
N1554 G1 X140.0928 Y19.255
N1555 G1 X139.5712 Y19.0113
N1556 G1 X139.0992 Y18.7876
N1557 G1 X138.6268 Y18.5599
N1558 G1 X137.8179 Y18.1596
N1559 G1 X137.018 Y17.7415
N1560 G1 X136.7309 Y17.5859
N1561 G1 X136.4981 Y17.4552
N1562 G1 X136.0363 Y17.1822
N1563 G1 X135.8094 Y17.0381
N1564 G1 X135.5461 Y16.8571
N1565 G1 X135.3704 Y16.7221
N1566 G1 X135.3184 Y16.6786
N1567 G1 X135.1864 Y16.5541
N1568 G1 X135.1252 Y16.4859
N1569 G1 X135.0673 Y16.4021
N1570 G1 X135.0505 Y16.3693
N1571 G1 X135.0315 Y16.3074
N1572 G1 X135.0322 Y16.2426
N1573 G1 X135.0337 Y16.2349
N1574 G1 X135.0618 Y16.1757
N1575 G1 X135.1065 Y16.1278
N1576 G1 X135.1114 Y16.1241
N1577 G1 X135.18 Y16.0796
N1578 G1 X135.1874 Y16.0761
N1579 G1 X135.3321 Y16.0192
N1580 G1 X135.4829 Y15.9814
N1581 G1 X135.496 Y15.9791
N1582 G1 X135.5857 Y15.9629
N1583 G1 X135.818 Y15.9332
N1584 G1 X135.8189 Y15.9331
N1585 G1 X136.1094 Y15.9119
N1586 G1 X136.1235 Y15.9114
N1587 G1 X136.2962 Y15.9049
N1588 G1 X136.7495 Y15.9015
N1589 G1 X137.3464 Y15.9176
N1590 G1 X137.6858 Y15.934
N1591 G1 X138.4623 Y15.9852
N1592 G1 X138.583 Y15.995
N1593 G1 X138.8217 Y16.0146
N1594 G1 X139.3657 Y16.0636
N1595 G1 X139.9856 Y16.1254
N1596 G1 X140.1455 Y16.1422
N1597 G1 X140.8744 Y16.2231
N1598 G1 X141.2626 Y16.2686
N1599 G1 X142.1483 Y16.3777
N1600 G1 X143.1582 Y16.5098
N1601 G1 X144.3103 Y16.6689
N1602 G1 X144.6074 Y16.7111
N1603 G1 X145.2407 Y16.8027
N1604 G1 X146.6862 Y17.0188
N1605 G1 X147.0589 Y17.076
N1606 G1 X147.4436 Y17.1355
N1607 G1 X148.2636 Y17.2641
N1608 G1 X149.1377 Y17.4037
N1609 G1 X149.5887 Y17.4766
N1610 G1 X149.8177 Y17.5139
N1611 G1 X150.7943 Y17.6745
N1612 G1 X151.8354 Y17.8484
N1613 G1 X154.9801 Y18.3882
N1614 G1 X157.3759 Y18.813
N1615 G1 X158.8515 Y19.0792
N1616 G1 X159.2262 Y19.1474
N1617 G1 X160.8241 Y19.4402
N1618 G1 X161.6485 Y19.5927
N1619 G1 X163.4065 Y19.9207
N1620 G1 X163.853 Y20.0046
N1621 G1 X165.7567 Y20.3651
N1622 G1 X167.7864 Y20.754
N1623 G1 X169.9503 Y21.1732
N1624 G1 X172.2573 Y21.6251
N1625 G1 X173.4475 Y21.8602
N1626 G1 X178.7645 Y22.9267
N1627 G1 X184.0774 Y24.0128
N1628 G1 X189.3863 Y25.1185
N1629 G1 X194.6911 Y26.2438
N1630 G1 X199.9917 Y27.3886
N1631 G1 X205.288 Y28.553
N1632 G1 X210.5801 Y29.7369
N1633 G1 X211.3887 Y29.9196
N1634 G1 X213.8289 Y30.4745
N1635 G1 X216.3465 Y31.0523
N1636 G1 X217.6249 Y31.3478
N1637 G1 X221.7983 Y32.3229
N1638 G1 X225.9671 Y33.3175
N1639 G1 X229.2937 Y34.1258
N1640 G1 X230.7726 Y34.4904
N1641 G1 X231.5176 Y34.6754
N1642 G1 X233.0304 Y35.0539
N1643 G1 X234.5663 Y35.4425
N1644 G1 X235.3398 Y35.6401
N1645 G1 X238.0272 Y36.3373
N1646 G1 X240.7094 Y37.0539
N1647 G1 X241.9252 Y37.3856
N1648 G1 X242.3372 Y37.4997
N1649 G1 X243.1671 Y37.732
N1650 G1 X244.9291 Y38.2377
N1651 G1 X246.5821 Y38.7311
N1652 G1 X247.8291 Y39.1207
N1653 G1 X248.3059 Y39.2752
N1654 G1 X248.7366 Y39.4177
N1655 G1 X249.168 Y39.564
N1656 G1 X249.9487 Y39.8398
N1657 G1 X250.7226 Y40.1345
N1658 G1 X250.9047 Y40.207
N1659 G1 X251.119 Y40.2959
N1660 G1 X251.3324 Y40.3881
N1661 G1 X251.3856 Y40.4118
N1662 G1 X251.5975 Y40.5091
N1663 G1 X251.8075 Y40.6118
N1664 G1 X252.0621 Y40.7481
N1665 G1 X252.2173 Y40.8428
N1666 G1 X252.4071 Y40.9794
N1667 G1 X252.4092 Y40.9812
N1668 G1 X252.4968 Y41.0618
N1669 G1 X252.5697 Y41.156
N1670 G1 X252.5714 Y41.1588
N1671 G1 X252.5969 Y41.2189
N1672 G1 X252.6032 Y41.2824
N1673 G1 X252.5847 Y41.3412
N1674 G1 X252.5484 Y41.3909
N1675 G1 X252.5372 Y41.401
N1676 G1 X252.4541 Y41.4615
N1677 G1 X252.4251 Y41.4774
N1678 G1 X252.2739 Y41.5417
N1679 G1 X252.1784 Y41.5717
N1680 G1 X251.9096 Y41.6369
N1681 G1 X251.6754 Y41.6772
N1682 G1 X251.3381 Y41.7219
N1683 G1 X250.7194 Y41.7766
N1684 G1 X250.0992 Y41.8114
N1685 G1 X250.0021 Y41.8151
N1686 G1 X249.8238 Y41.8216
N1687 G1 X249.6336 Y41.8275
N1688 G1 X249.4309 Y41.8328
N1689 G1 X249.2148 Y41.8373
N1690 G1 X248.1898 Y41.8464
N1691 G1 X248.0656 Y41.8462
N1692 G1 X246.8366 Y41.8355
N1693 G1 X246.5367 Y41.8299
N1694 G1 X244.6843 Y41.7821
N1695 G1 X244.5021 Y41.7763
N1696 G1 X243.3404 Y41.7344
N1697 G1 X243.0407 Y41.7225
N1698 G1 X242.4015 Y41.6959
N1699 G1 X241.72 Y41.6658
N1700 G1 X240.9933 Y41.6318
N1701 G1 X239.3332 Y41.5482
N1702 G1 X238.448 Y41.5007
N1703 G1 X237.9913 Y41.4754
N1704 G1 X237.7593 Y41.4624
N1705 G1 X237.5236 Y41.4491
N1706 G1 X236.5184 Y41.391
N1707 G1 X234.2219 Y41.2516
N1708 G1 X232.9974 Y41.174
N1709 G1 X231.6916 Y41.0892
N1710 G1 X228.7081 Y40.8884
N1711 G1 X228.3293 Y40.8623
N1712 G1 X222.9959 Y40.4848
N1713 G1 X220.2529 Y40.2828
N1714 G1 X220.1897 Y40.2781
N1715 G1 X220.1263 Y40.2734
N1716 G1 X215.4949 Y39.9271
N1717 G1 X210.203 Y39.5249
N1718 G1 X196.0947 Y38.4458
N1719 G1 X192.3324 Y38.1617
N1720 G1 X190.3904 Y38.0165
N1721 G1 X189.9011 Y37.98
N1722 G1 X187.8806 Y37.8304
N1723 G1 X183.5702 Y37.516
N1724 G1 X181.3452 Y37.3569
N1725 G1 X180.215 Y37.277
N1726 G1 X179.0668 Y37.1965
N1727 G1 X173.8748 Y36.8426
N1728 G1 X168.6815 Y36.5086
N1729 G1 X168.5668 Y36.5014
N1730 G1 X167.9051 Y36.4607
N1731 G1 X165.173 Y36.2971
N1732 G1 X164.4845 Y36.2572
N1733 G1 X163.0856 Y36.1779
N1734 G1 X159.5938 Y35.9912
N1735 G1 X157.1152 Y35.8708
N1736 G1 X155.5985 Y35.8025
N1737 G1 X155.5036 Y35.7984
N1738 G1 X152.8169 Y35.6897
N1739 G1 X150.1295 Y35.601
N1740 G1 X149.0229 Y35.5703
N1741 G1 X148.6162 Y35.5603
N1742 G1 X147.7962 Y35.5418
N1743 G1 X147.5907 Y35.5376
N1744 G1 X145.9213 Y35.5103
N1745 G1 X144.0743 Y35.4972
N1746 G1 X142.4737 Y35.5019
N1747 G1 X140.8975 Y35.5275
N1748 G1 X140.7226 Y35.5316
N1749 G1 X139.3873 Y35.5768
N1750 G1 X138.9443 Y35.5962
N1751 G1 X137.9743 Y35.6513
N1752 G1 X137.1397 Y35.7148
N1753 G1 X136.914 Y35.7349
N1754 G1 X136.2376 Y35.804
N1755 G1 X135.5636 Y35.8929
N1756 G1 X135.0856 Y35.9682
N1757 G1 X134.6449 Y36.0526
N1758 G1 X134.2085 Y36.1566
N1759 G1 X134.1757 Y36.1652
N1760 G1 X133.8566 Y36.2605
N1761 G1 X133.7284 Y36.3048
N1762 G1 X133.6186 Y36.3466
N1763 G1 X133.4208 Y36.4324
N1764 G1 X133.2318 Y36.5361
N1765 G1 X133.1938 Y36.5599
N1766 G1 X133.0707 Y36.6508
N1767 G1 X133.005 Y36.7107
N1768 G1 X132.9311 Y36.7962
N1769 G1 X132.8735 Y36.8933
N1770 G1 X132.8625 Y36.9176
N1771 G1 X132.8353 Y37.0108
N1772 G1 X132.8277 Y37.1076
N1773 G1 X132.8386 Y37.1973
N1774 G1 X132.8762 Y37.3158
N1775 G1 X132.9323 Y37.4267
N1776 G1 X132.9359 Y37.4327
N1777 G1 X133.0384 Y37.5806
N1778 G1 X133.0858 Y37.6387
N1779 G1 X133.2553 Y37.82
N1780 G1 X133.4388 Y37.9871
N1781 G1 X133.4464 Y37.9934
N1782 G1 X133.7628 Y38.2448
N1783 G1 X134.0913 Y38.4802
N1784 G1 X134.253 Y38.5873
N1785 G1 X134.365 Y38.66
N1786 G1 X134.4851 Y38.7364
N1787 G1 X134.7619 Y38.9065
N1788 G1 X134.9106 Y38.9951
N1789 G1 X135.07 Y39.0881
N1790 G1 X135.2407 Y39.1859
N1791 G1 X135.4236 Y39.2885
N1792 G1 X135.6193 Y39.3964
N1793 G1 X135.8289 Y39.5098
N1794 G1 X135.9373 Y39.5677
N1795 G1 X136.7734 Y39.9989
N1796 G1 X137.1015 Y40.1621
N1797 G1 X137.4145 Y40.3151
N1798 G1 X137.7492 Y40.4761
N1799 G1 X138.5167 Y40.8367
N1800 G1 X138.9275 Y41.0254
N1801 G1 X140.2269 Y41.6067
N1802 G1 X141.1283 Y41.9972
N1803 G1 X141.4137 Y42.1192
N1804 G1 X141.7085 Y42.2445
N1805 G1 X142.013 Y42.3732
N1806 G1 X143.777 Y43.1042
N1807 G1 X145.2711 Y43.7066
N1808 G1 X146.1435 Y44.0528
N1809 G1 X147.0751 Y44.4184
N1810 G1 X147.5565 Y44.6058
N1811 G1 X148.0536 Y44.7982
N1812 G1 X149.1149 Y45.2059
N1813 G1 X150.2482 Y45.6367
N1814 G1 X150.3911 Y45.6907
N1815 G1 X151.6109 Y46.1491
N1816 G1 X152.9134 Y46.6337
N1817 G1 X154.304 Y47.146
N1818 G1 X155.7887 Y47.6878
N1819 G1 X156.1661 Y47.8247
N1820 G1 X156.5495 Y47.9635
N1821 G1 X158.1861 Y48.5524
N1822 G1 X159.9334 Y49.1754
N1823 G1 X160.3774 Y49.3329
N1824 G1 X164.2997 Y50.7091
N1825 G1 X168.2286 Y52.0665
N1826 G1 X169.8648 Y52.6255
N1827 G1 X172.4004 Y53.486
N1828 G1 X175.1071 Y54.3969
N1829 G1 X177.9963 Y55.3613
N1830 G1 X181.0803 Y56.3822
N1831 G1 X184.3721 Y57.463
N1832 G1 X184.787 Y57.5986
N1833 G1 X186.5005 Y58.1572
N1834 G1 X188.2699 Y58.7317
N1835 G1 X190.0969 Y59.3226
N1836 G1 X190.2114 Y59.3595
N1837 G1 X190.3261 Y59.3965
N1838 G1 X192.2202 Y60.0062
N1839 G1 X193.1826 Y60.315
N1840 G1 X195.1699 Y60.9507
N1841 G1 X195.4194 Y61.0303
N1842 G1 X195.6698 Y61.1101
N1843 G1 X196.1747 Y61.271
N1844 G1 X198.2596 Y61.9337
N1845 G1 X200.4125 Y62.6151
N1846 G1 X202.6358 Y63.3156
N1847 G1 X204.9315 Y64.0357
N1848 G1 X207.3023 Y64.776
N1849 G1 X209.7505 Y65.5367
N1850 G1 X210.9944 Y65.9218
N1851 G1 X212.2583 Y66.3122
N1852 G1 X214.8684 Y67.1152
N1853 G1 X220.7628 Y68.9119
N1854 G1 X226.663 Y70.6894
N1855 G1 X226.8141 Y70.7347
N1856 G1 X229.9011 Y71.6541
N1857 G1 X233.0898 Y72.596
N1858 G1 X233.8937 Y72.8321
N1859 G1 X235.5272 Y73.3102
N1860 G1 X237.1873 Y73.7935
N1861 G1 X238.8746 Y74.282
N1862 G1 X240.5894 Y74.7753
N1863 G1 X241.454 Y75.0227
N1864 G1 X241.8881 Y75.1466
N1865 G1 X245.4107 Y76.1426
N1866 G1 X248.9388 Y77.1193
N1867 G1 X249.3069 Y77.22
N1868 G1 X251.1956 Y77.7302
N1869 G1 X251.2547 Y77.746
N1870 G1 X251.3139 Y77.7618
N1871 G1 X253.2374 Y78.2694
N1872 G1 X254.2081 Y78.5199
N1873 G1 X256.0583 Y78.9827
N1874 G1 X256.1844 Y79.0135
N1875 G1 X257.1831 Y79.251
N1876 G1 X257.3083 Y79.2799
N1877 G1 X258.3193 Y79.505
N1878 G1 X259.1754 Y79.6766
N1879 G1 X259.3436 Y79.7079
N1880 G1 X259.6015 Y79.7518
N1881 G1 X259.7309 Y79.772
N1882 G1 X260.1037 Y79.8192
N1883 G1 X260.2537 Y79.8326
N1884 G1 X260.4145 Y79.8372
N1885 G1 X260.5184 Y79.8295
N1886 G1 X260.5511 Y79.8235
N1887 G1 X260.6039 Y79.8036
N1888 G1 X260.6136 Y79.7974
N1889 G1 X260.6313 Y79.772
N1890 G1 X260.6327 Y79.7652
N1891 G1 X260.6242 Y79.7275
N1892 G1 X260.6179 Y79.7174
N1893 G1 X260.5759 Y79.6682
N1894 G1 X260.4573 Y79.5731
N1895 G1 X260.3311 Y79.4886
N1896 G1 X260.0704 Y79.3326
N1897 G1 X259.8938 Y79.2337
N1898 G1 X259.6562 Y79.1059
N1899 G1 X259.3371 Y78.9401
N1900 G1 X258.4515 Y78.4998
N1901 G1 X258.0475 Y78.3062
N1902 G1 X256.5593 Y77.6083
N1903 G1 X255.4418 Y77.0987
N1904 G1 X254.6939 Y76.7611
N1905 G1 X253.8382 Y76.3779
N1906 G1 X253.6172 Y76.2794
N1907 G1 X253.1455 Y76.0697
N1908 G1 X252.0665 Y75.5927
N1909 G1 X250.832 Y75.0507
N1910 G1 X250.5131 Y74.9113
N1911 G1 X249.055 Y74.2762
N1912 G1 X247.387 Y73.5541
N1913 G1 X246.9562 Y73.3683
N1914 G1 X246.0371 Y72.9727
N1915 G1 X245.0564 Y72.5516
N1916 G1 X242.8135 Y71.5924
N1917 G1 X240.2483 Y70.5008
N1918 G1 X240.0866 Y70.4322
N1919 G1 X238.7069 Y69.8473
N1920 G1 X235.5517 Y68.5144
N1921 G1 X231.9435 Y66.9966
N1922 G1 X231.4852 Y66.8043
N1923 G1 X230.5388 Y66.4074
N1924 G1 X226.2111 Y64.5971
N1925 G1 X221.2625 Y62.535
N1926 G1 X215.604 Y60.1856
N1927 G1 X214.1433 Y59.5805
N1928 G1 X213.4012 Y59.2732
N1929 G1 X211.8691 Y58.6393
N1930 G1 X208.6002 Y57.2883
N1931 G1 X205.1125 Y55.8493
N1932 G1 X201.3915 Y54.3165
N1933 G1 X188.3187 Y48.9504
N1934 G1 X175.2383 Y43.6027
N1935 G1 X162.1503 Y38.2736
N1936 G1 X149.0548 Y32.963
N1937 G1 X141.7674 Y30.0171
N1938 G1 X137.915 Y28.4633
N1939 G1 X137.7945 Y28.4147
N1940 G1 X133.813 Y26.8117
N1941 G1 X133.5636 Y26.7114
N1942 G1 X131.5368 Y25.8967
N1943 G1 X131.41 Y25.8458
N1944 G1 X130.3874 Y25.4352
N1945 G1 X126.1643 Y23.7426
N1946 G1 X124.0183 Y22.885
N1947 G1 X121.8376 Y22.0158
N1948 G1 X119.6211 Y21.1356
N1949 G1 X118.5035 Y20.6936
N1950 G1 X117.3764 Y20.2497
N1951 G1 X116.2396 Y19.8047
N1952 G1 X115.0921 Y19.3606
N1953 G1 X114.5145 Y19.1415
N1954 G1 X114.0073 Y18.958
N1955 G1 X113.9309 Y18.9322
N1956 G1 X113.8557 Y18.9128
N1957 G1 X113.8511 Y18.9149
N1958 G1 X113.8543 Y18.9187
N1959 G1 X113.8591 Y18.9224
N1960 G1 X113.8677 Y18.9279
N1961 G1 X113.8845 Y18.9375
N1962 G1 X113.9181 Y18.9551
N1963 G1 X113.986 Y18.9883
N1964 G1 X114.0314 Y19.0098
N1965 G1 X114.214 Y19.0934
N1966 G1 X114.5809 Y19.2561
N1967 G1 X115.3172 Y19.5749
N1968 G1 X116.7935 Y20.2035
N1969 G1 X117.2157 Y20.3821
N1970 G1 X117.6985 Y20.5858
N1971 G1 X118.9862 Y21.1277
N1972 G1 X120.7042 Y21.848
N1973 G1 X121.6862 Y22.259
N1974 G1 X122.8087 Y22.7281
N1975 G1 X124.0917 Y23.2638
N1976 G1 X124.4229 Y23.402
N1977 G1 X127.9553 Y24.8744
N1978 G1 X132.6662 Y26.8353
N1979 G1 X133.9226 Y27.358
N1980 G1 X140.6233 Y30.1449
N1981 G1 X141.0488 Y30.3218
N1982 G1 X142.8641 Y31.0768
N1983 G1 X152.545 Y35.1044
N1984 G1 X158.0762 Y37.4075
N1985 G1 X164.3967 Y40.0419
N1986 G1 X167.7672 Y41.448
N1987 G1 X169.5067 Y42.1741
N1988 G1 X171.3021 Y42.9239
N1989 G1 X173.1554 Y43.6982
N1990 G1 X174.0967 Y44.0916
N1991 G1 X178.1124 Y45.771
N1992 G1 X182.3951 Y47.5642
N1993 G1 X184.6052 Y48.4906
N1994 G1 X185.1621 Y48.7241
N1995 G1 X186.2934 Y49.1986
N1996 G1 X186.8635 Y49.4379
N1997 G1 X188.0217 Y49.924
N1998 G1 X188.6054 Y50.1691
N1999 G1 X191.015 Y51.1813
N2000 G1 X191.3174 Y51.3085
N2001 G1 X192.546 Y51.825
N2002 G1 X195.0821 Y52.8922
N2003 G1 X196.3701 Y53.4347
N2004 G1 X197.6785 Y53.986
N2005 G1 X203.2593 Y56.3418
N2006 G1 X212.6289 Y60.3153
N2007 G1 X216.0046 Y61.7522
N2008 G1 X217.6217 Y62.4424
N2009 G1 X219.2641 Y63.1445
N2010 G1 X220.0916 Y63.4987
N2011 G1 X225.8716 Y65.9808
N2012 G1 X231.6436 Y68.4812
N2013 G1 X235.1986 Y70.032
N2014 G1 X236.148 Y70.4485
N2015 G1 X236.6245 Y70.658
N2016 G1 X238.5595 Y71.5112
N2017 G1 X240.5234 Y72.3823
N2018 G1 X240.5847 Y72.4097
N2019 G1 X241.574 Y72.8509
N2020 G1 X243.5816 Y73.7524
N2021 G1 X244.5921 Y74.2095
N2022 G1 X246.6417 Y75.1459
N2023 G1 X247.6724 Y75.6224
N2024 G1 X247.9304 Y75.7425
N2025 G1 X248.9688 Y76.2291
N2026 G1 X250.0127 Y76.7251
N2027 G1 X250.2737 Y76.8504
N2028 G1 X250.535 Y76.9765
N2029 G1 X251.5853 Y77.4908
N2030 G1 X252.1103 Y77.7537
N2031 G1 X252.3726 Y77.8869
N2032 G1 X253.2976 Y78.3716
N2033 G1 X253.4223 Y78.4387
N2034 G1 X253.9417 Y78.73
N2035 G1 X254.306 Y78.9487
N2036 G1 X254.4516 Y79.0428
N2037 G1 X254.6625 Y79.1905
N2038 G1 X254.6963 Y79.2165
N2039 G1 X254.7547 Y79.2637
N2040 G1 X254.811 Y79.3136
N2041 G1 X254.8773 Y79.3855
N2042 G1 X254.9077 Y79.4313
N2043 G1 X254.92 Y79.4666
N2044 G1 X254.9122 Y79.5032
N2045 G1 X254.9033 Y79.5165
N2046 G1 X254.8578 Y79.5424
N2047 G1 X254.8476 Y79.5454
N2048 G1 X254.7861 Y79.5574
N2049 G1 X254.7446 Y79.5611
N2050 G1 X254.6892 Y79.5629
N2051 G1 X254.6157 Y79.5618
N2052 G1 X254.3387 Y79.5373
N2053 G1 X254.3257 Y79.5357
N2054 G1 X254.134 Y79.5083
N2055 G1 X253.8801 Y79.4651
N2056 G1 X253.8126 Y79.4526
N2057 G1 X253.1442 Y79.3152
N2058 G1 X252.7445 Y79.2232
N2059 G1 X252.0375 Y79.0516
N2060 G1 X251.0988 Y78.8103
N2061 G1 X250.5639 Y78.6679
N2062 G1 X250.426 Y78.6307
N2063 G1 X250.2836 Y78.5921
N2064 G1 X249.6336 Y78.4139
N2065 G1 X249.466 Y78.3674
N2066 G1 X249.2931 Y78.3193
N2067 G1 X248.9244 Y78.216
N2068 G1 X248.0826 Y77.9773
N2069 G1 X247.634 Y77.8486
N2070 G1 X247.1559 Y77.7105
N2071 G1 X246.0641 Y77.3917
N2072 G1 X245.9255 Y77.3509
N2073 G1 X245.7848 Y77.3095
N2074 G1 X244.499 Y76.928
N2075 G1 X244.1674 Y76.8288
N2076 G1 X242.6526 Y76.3727
N2077 G1 X240.9233 Y75.8463
N2078 G1 X238.9488 Y75.2391
N2079 G1 X237.8964 Y74.9132
N2080 G1 X235.4926 Y74.1637
N2081 G1 X232.7477 Y73.3006
N2082 G1 X232.5748 Y73.246
N2083 G1 X227.4637 Y71.6225
N2084 G1 X225.2073 Y70.899
N2085 G1 X223.2444 Y70.268
N2086 G1 X215.4902 Y67.7568
N2087 G1 X212.7851 Y66.8758
N2088 G1 X212.7032 Y66.8491
N2089 G1 X212.6212 Y66.8223
N2090 G1 X203.8844 Y63.9582
N2091 G1 X198.6392 Y62.2286
N2092 G1 X196.8362 Y61.6325
N2093 G1 X194.9752 Y61.0165
N2094 G1 X191.0061 Y59.7
N2095 G1 X189.9982 Y59.3652
N2096 G1 X188.9744 Y59.0248
N2097 G1 X184.6069 Y57.5708
N2098 G1 X183.4978 Y57.201
N2099 G1 X181.2084 Y56.4369
N2100 G1 X176.3253 Y54.804
N2101 G1 X175.0853 Y54.3888
N2102 G1 X174.4605 Y54.1794
N2103 G1 X173.8307 Y53.9683
N2104 G1 X171.2308 Y53.0962
N2105 G1 X165.6854 Y51.2325
N2106 G1 X159.7719 Y49.2398
N2107 G1 X153.466 Y47.109
N2108 G1 X146.7418 Y44.8301
N2109 G1 X145.0344 Y44.2503
N2110 G1 X143.3001 Y43.6609
N2111 G1 X139.72 Y42.4426
N2112 G1 X132.085 Y39.8368
N2113 G1 X128.1458 Y38.4877
N2114 G1 X126.1453 Y37.8012
N2115 G1 X125.1373 Y37.4549
N2116 G1 X120.9762 Y36.0225
N2117 G1 X120.846 Y35.9776
N2118 G1 X116.5484 Y34.4918
N2119 G1 X114.3666 Y33.7343
N2120 G1 X113.2673 Y33.3516
N2121 G1 X112.992 Y33.2557
N2122 G1 X112.4392 Y33.0628
N2123 G1 X111.3253 Y32.6736
N2124 G1 X110.2029 Y32.2802
N2125 G1 X109.9218 Y32.1815
N2126 G1 X109.3575 Y31.9831
N2127 G1 X108.2205 Y31.5819
N2128 G1 X107.0753 Y31.1756
N2129 G1 X105.922 Y30.7632
N2130 G1 X105.7778 Y30.7113
N2131 G1 X105.4889 Y30.607
N2132 G1 X105.1996 Y30.5022
N2133 G1 X104.6192 Y30.2904
N2134 G1 X104.5829 Y30.277
N2135 G1 X104.2925 Y30.1697
N2136 G1 X104.0019 Y30.0612
N2137 G1 X103.8566 Y30.0064
N2138 G1 X103.5661 Y29.895
N2139 G1 X103.4936 Y29.8666
N2140 G1 X103.3488 Y29.809
N2141 G1 X103.3307 Y29.8016
N2142 G1 X103.1868 Y29.7414
N2143 G1 X103.0466 Y29.6725
N2144 G1 X103.04 Y29.6672
N2145 G1 X103.0381 Y29.6589
N2146 G1 X103.054 Y29.6568
N2147 G1 X103.0715 Y29.6581
N2148 G1 X103.1 Y29.662
N2149 G1 X103.1535 Y29.672
N2150 G1 X103.258 Y29.6951
N2151 G1 X103.4644 Y29.7463
N2152 G1 X103.6014 Y29.7822
N2153 G1 X104.1469 Y29.9317
N2154 G1 X104.2195 Y29.9521
N2155 G1 X104.6063 Y30.062
N2156 G1 X105.1213 Y30.2105
N2157 G1 X105.2586 Y30.2504
N2158 G1 X105.405 Y30.2931
N2159 G1 X107.7432 Y30.9858
N2160 G1 X109.3002 Y31.4536
N2161 G1 X109.7152 Y31.5789
N2162 G1 X111.9279 Y32.2496
N2163 G1 X114.8766 Y33.1486
N2164 G1 X116.5611 Y33.6641
N2165 G1 X116.9958 Y33.7973
N2166 G1 X121.6309 Y35.2212
N2167 G1 X127.809 Y37.1262
N2168 G1 X129.4562 Y37.6351
N2169 G1 X138.2399 Y40.3534
N2170 G1 X139.3732 Y40.7045
N2171 G1 X144.5536 Y42.3106
N2172 G1 X185.9908 Y55.1759
N2173 G1 X197.8314 Y58.8472
N2174 G1 X204.1473 Y60.8024
N2175 G1 X205.7515 Y61.2986
N2176 G1 X207.3811 Y61.8024
N2177 G1 X210.7459 Y62.8418
N2178 G1 X217.9252 Y65.0554
N2179 G1 X221.6314 Y66.1951
N2180 G1 X222.0966 Y66.338
N2181 G1 X225.9384 Y67.516
N2182 G1 X229.9053 Y68.7282
N2183 G1 X231.9208 Y69.342
N2184 G1 X233.9689 Y69.9637
N2185 G1 X236.0502 Y70.593
N2186 G1 X236.5727 Y70.7504
N2187 G1 X237.0973 Y70.9084
N2188 G1 X239.2299 Y71.5474
N2189 G1 X240.3052 Y71.8674
N2190 G1 X241.3895 Y72.1881
N2191 G1 X243.4571 Y72.7912
N2192 G1 X243.5951 Y72.8307
N2193 G1 X244.1496 Y72.9889
N2194 G1 X244.7068 Y73.1456
N2195 G1 X245.6595 Y73.4039
N2196 G1 X245.8335 Y73.4489
N2197 G1 X246.1175 Y73.5184
N2198 G1 X246.3904 Y73.5756
N2199 G1 X246.4043 Y73.578
N2200 G1 X246.4772 Y73.5865
N2201 G1 X246.5141 Y73.5816
N2202 G1 X246.5085 Y73.5659
N2203 G1 X246.5072 Y73.5651
N2204 G1 X246.4326 Y73.5197
N2205 G1 X246.3541 Y73.4814
N2206 G1 X246.3314 Y73.4709
N2207 G1 X246.2707 Y73.4435
N2208 G1 X246.0261 Y73.3396
N2209 G1 X245.8619 Y73.2727
N2210 G1 X245.818 Y73.2551
N2211 G1 X245.7712 Y73.2364
N2212 G1 X245.7213 Y73.2166
N2213 G1 X244.9193 Y72.9066
N2214 G1 X244.3829 Y72.7048
N2215 G1 X243.6666 Y72.4389
N2216 G1 X242.7102 Y72.0881
N2217 G1 X239.7825 Y71.0307
N2218 G1 X238.8769 Y70.7079
N2219 G1 X236.3176 Y69.7987
N2220 G1 X235.9872 Y69.6818
N2221 G1 X232.4617 Y68.4391
N2222 G1 X230.4461 Y67.7319
N2223 G1 X228.1418 Y66.9258
N2224 G1 X225.5077 Y66.0067
N2225 G1 X222.4963 Y64.9588
N2226 G1 X219.0539 Y63.764
N2227 G1 X217.2176 Y63.1278
N2228 G1 X213.0194 Y61.6762
N2229 G1 X208.2202 Y60.0209
N2230 G1 X206.9815 Y59.5943
N2231 G1 X201.3179 Y57.647
N2232 G1 X198.2967 Y56.6103
N2233 G1 X195.0736 Y55.5058
N2234 G1 X187.705 Y52.986
N2235 G1 X185.803 Y52.3368
N2236 G1 X181.7451 Y50.9533
N2237 G1 X180.7143 Y50.6023
N2238 G1 X176.3161 Y49.1059
N2239 G1 X171.6239 Y47.5123
N2240 G1 X171.3295 Y47.4124
N2241 G1 X166.3037 Y45.7091
N2242 G1 X160.9416 Y43.8958
N2243 G1 X158.1736 Y42.9615
N2244 G1 X155.3159 Y41.9982
N2245 G1 X152.3656 Y41.005
N2246 G1 X146.0702 Y38.8909
N2247 G1 X142.8199 Y37.8025
N2248 G1 X141.1688 Y37.2504
N2249 G1 X137.7595 Y36.1123
N2250 G1 X134.2392 Y34.9402
N2251 G1 X134.0187 Y34.8669
N2252 G1 X130.3766 Y33.658
N2253 G1 X122.6025 Y31.0923
N2254 G1 X118.5872 Y29.7769
N2255 G1 X117.575 Y29.4466
N2256 G1 X115.5181 Y28.7773
N2257 G1 X113.4276 Y28.1001
N2258 G1 X111.3029 Y27.4152
N2259 G1 X110.7695 Y27.2439
N2260 G1 X108.601 Y26.5505
N2261 G1 X107.5076 Y26.203
N2262 G1 X105.2846 Y25.5019
N2263 G1 X104.1634 Y25.1516
N2264 G1 X103.0324 Y24.8011
N2265 G1 X101.8917 Y24.4511
N2266 G1 X100.7406 Y24.1025
N2267 G1 X99.5788 Y23.757
N2268 G1 X98.4052 Y23.417
N2269 G1 X98.1107 Y23.3338
N2270 G1 X97.5185 Y23.1697
N2271 G1 X96.7224 Y22.9592
N2272 G1 X96.3189 Y22.8603
N2273 G1 X96.0162 Y22.7917
N2274 G1 X95.7109 Y22.7315
N2275 G1 X95.4939 Y22.7012
N2276 G1 X95.4009 Y22.6943
N2277 G1 X95.3224 Y22.6993
N2278 G1 X95.2863 Y22.7151
N2279 G1 X95.2854 Y22.7158
N2280 G1 X95.2789 Y22.7371
N2281 G1 X95.28 Y22.7415
N2282 G1 X95.292 Y22.7648
N2283 G1 X95.3256 Y22.8012
N2284 G1 X95.3994 Y22.8597
N2285 G1 X95.5537 Y22.9593
N2286 G1 X95.8368 Y23.1184
N2287 G1 X95.8701 Y23.1356
N2288 G1 X95.9129 Y23.1581
N2289 G1 X96.1416 Y23.2751
N2290 G1 X96.9824 Y23.6789
N2291 G1 X97.0639 Y23.7169
N2292 G1 X97.1878 Y23.7741
N2293 G1 X97.3199 Y23.8347
N2294 G1 X98.0261 Y24.1535
N2295 G1 X98.2149 Y24.2375
N2296 G1 X99.2232 Y24.68
N2297 G1 X99.3536 Y24.7366
N2298 G1 X99.9498 Y24.9939
N2299 G1 X100.1038 Y25.06
N2300 G1 X100.2628 Y25.1281
N2301 G1 X100.6022 Y25.2731
N2302 G1 X101.3785 Y25.6027
N2303 G1 X101.7929 Y25.7776
N2304 G1 X102.235 Y25.9637
N2305 G1 X103.2464 Y26.3869
N2306 G1 X104.4034 Y26.8679
N2307 G1 X105.7266 Y27.4146
N2308 G1 X107.2401 Y28.0362
N2309 G1 X108.9711 Y28.7433
N2310 G1 X114.8697 Y31.1306
N2311 G1 X120.7758 Y33.4993
N2312 G1 X122.8449 Y34.3241
N2313 G1 X126.8146 Y35.9039
N2314 G1 X127.0647 Y36.0033
N2315 G1 X129.1993 Y36.8508
N2316 G1 X130.3012 Y37.2878
N2317 G1 X132.6521 Y38.2192
N2318 G1 X138.0269 Y40.3444
N2319 G1 X138.1111 Y40.3777
N2320 G1 X144.2676 Y42.8063
N2321 G1 X151.3055 Y45.5771
N2322 G1 X155.0597 Y47.0533
N2323 G1 X156.9974 Y47.8149
N2324 G1 X177.6688 Y55.9314
N2325 G1 X189.4804 Y60.5705
N2326 G1 X192.5282 Y61.7688
N2327 G1 X194.0762 Y62.3777
N2328 G1 X197.2717 Y63.6354
N2329 G1 X198.8948 Y64.2746
N2330 G1 X205.8181 Y67.0054
N2331 G1 X209.3902 Y68.4177
N2332 G1 X211.2043 Y69.136
N2333 G1 X214.9485 Y70.6215
N2334 G1 X216.8497 Y71.3775
N2335 G1 X218.7807 Y72.1468
N2336 G1 X219.2652 Y72.3401
N2337 G1 X221.2337 Y73.1265
N2338 G1 X223.2326 Y73.9274
N2339 G1 X223.7342 Y74.1288
N2340 G1 X225.7716 Y74.9486
N2341 G1 X227.8401 Y75.7847
N2342 G1 X229.9396 Y76.6384
N2343 G1 X230.4662 Y76.8535
N2344 G1 X231.5272 Y77.2883
N2345 G1 X232.0595 Y77.5073
N2346 G1 X233.1317 Y77.9505
N2347 G1 X233.6695 Y78.174
N2348 G1 X234.2091 Y78.3991
N2349 G1 X235.2954 Y78.856
N2350 G1 X235.84 Y79.0872
N2351 G1 X236.386 Y79.321
N2352 G1 X237.5122 Y79.8117
N2353 G1 X238.591 Y80.3023
N2354 G1 X238.6593 Y80.3346
N2355 G1 X238.9317 Y80.4661
N2356 G1 X238.9487 Y80.4745
N2357 G1 X239.219 Y80.6118
N2358 G1 X239.4562 Y80.7446
N2359 G1 X239.4836 Y80.7614
N2360 G1 X239.581 Y80.8299
N2361 G1 X239.6063 Y80.8522
N2362 G1 X239.6284 Y80.8843
N2363 G1 X239.6236 Y80.9026
N2364 G1 X239.6174 Y80.9065
N2365 G1 X239.5615 Y80.9156
N2366 G1 X239.5468 Y80.9147
N2367 G1 X239.4759 Y80.9089
N2368 G1 X239.3361 Y80.8868
N2369 G1 X239.2438 Y80.8685
N2370 G1 X239.1212 Y80.8416
N2371 G1 X238.9586 Y80.8031
N2372 G1 X238.7429 Y80.7484
N2373 G1 X238.02 Y80.5501
N2374 G1 X237.8865 Y80.5113
N2375 G1 X237.3184 Y80.3442
N2376 G1 X237.167 Y80.299
N2377 G1 X236.3617 Y80.0537
N2378 G1 X235.9021 Y79.9113
N2379 G1 X234.6789 Y79.5259
N2380 G1 X233.051 Y79.0033
N2381 G1 X232.6172 Y78.8627
N2382 G1 X232.1548 Y78.7122
N2383 G1 X231.0984 Y78.3666
N2384 G1 X230.5352 Y78.1815
N2385 G1 X229.2487 Y77.7565
N2386 G1 X228.9167 Y77.6465
N2387 G1 X227.4002 Y77.142
N2388 G1 X225.668 Y76.5625
N2389 G1 X223.6895 Y75.8973
N2390 G1 X221.4294 Y75.1338
N2391 G1 X220.8462 Y74.9362
N2392 G1 X220.2444 Y74.7321
N2393 G1 X217.4941 Y73.7969
N2394 G1 X217.3208 Y73.7379
N2395 G1 X217.1462 Y73.6784
N2396 G1 X213.9548 Y72.5882
N2397 G1 X205.4501 Y69.6656
N2398 G1 X203.1832 Y68.8832
N2399 G1 X202.0134 Y68.4789
N2400 G1 X199.518 Y67.6155
N2401 G1 X193.816 Y65.638
N2402 G1 X193.7267 Y65.607
N2403 G1 X187.1996 Y63.3363
N2404 G1 X179.7424 Y60.7344
N2405 G1 X175.7661 Y59.344
N2406 G1 X173.7141 Y58.6258
N2407 G1 X171.596 Y57.8839
N2408 G1 X170.5202 Y57.5069
N2409 G1 X165.9307 Y55.8971
N2410 G1 X161.036 Y54.1778
N2411 G1 X160.4194 Y53.961
N2412 G1 X155.1582 Y52.11
N2413 G1 X149.5473 Y50.133
N2414 G1 X148.1224 Y49.6305
N2415 G1 X142.0437 Y47.4844
N2416 G1 X138.9068 Y46.3755
N2417 G1 X138.1164 Y46.096
N2418 G1 X131.3728 Y43.7083
N2419 G1 X130.9497 Y43.5584
N2420 G1 X127.4561 Y42.3194
N2421 G1 X120.0046 Y39.6722
N2422 G1 X116.1595 Y38.3035
N2423 G1 X114.2067 Y37.6076
N2424 G1 X110.1757 Y36.1691
N2425 G1 X106.0157 Y34.6814
N2426 G1 X103.9032 Y33.9245
N2427 G1 X99.543 Y32.3583
N2428 G1 X94.3071 Y30.4676
N2429 G1 X90.2516 Y28.9885
N2430 G1 X89.6697 Y28.7742
N2431 G1 X89.0857 Y28.5584
N2432 G1 X87.9098 Y28.12
N2433 G1 X87.3206 Y27.897
N2434 G1 X86.7307 Y27.669
N2435 G1 X86.4366 Y27.5511
N2436 G1 X86.4 Y27.5359
N2437 G1 X86.2542 Y27.4734
N2438 G1 X86.2181 Y27.4568
N2439 G1 X86.1485 Y27.4183
N2440 G1 X86.1522 Y27.4109
N2441 G1 X86.1606 Y27.4107
N2442 G1 X86.1748 Y27.4119
N2443 G1 X86.2015 Y27.4159
N2444 G1 X86.2536 Y27.4262
N2445 G1 X86.288 Y27.4339
N2446 G1 X86.4245 Y27.4671
N2447 G1 X86.6953 Y27.5389
N2448 G1 X86.8754 Y27.5886
N2449 G1 X87.5932 Y27.7937
N2450 G1 X88.0708 Y27.9335
N2451 G1 X88.707 Y28.1219
N2452 G1 X88.8766 Y28.1724
N2453 G1 X89.0574 Y28.2265
N2454 G1 X90.0212 Y28.5162
N2455 G1 X91.3053 Y28.9056
N2456 G1 X96.4358 Y30.4816
N2457 G1 X99.8531 Y31.5417
N2458 G1 X104.4072 Y32.9623
N2459 G1 X104.9947 Y33.146
N2460 G1 X107.68 Y33.9872
N2461 G1 X109.112 Y34.4366
N2462 G1 X112.3844 Y35.4654
N2463 G1 X114.1294 Y36.0151
N2464 G1 X114.5727 Y36.1547
N2465 G1 X115.0229 Y36.2967
N2466 G1 X119.1381 Y37.596
N2467 G1 X119.3974 Y37.6779
N2468 G1 X121.6091 Y38.3776
N2469 G1 X122.7505 Y38.7391
N2470 G1 X125.1854 Y39.5109
N2471 G1 X130.7496 Y41.2784
N2472 G1 X137.107 Y43.3039
N2473 G1 X144.3702 Y45.6259
N2474 G1 X148.243 Y46.8674
N2475 G1 X150.2415 Y47.509
N2476 G1 X154.5044 Y48.8799
N2477 G1 X159.0505 Y50.3452
N2478 G1 X163.8986 Y51.9119
N2479 G1 X169.0683 Y53.5876
N2480 G1 X171.736 Y54.4543
N2481 G1 X174.4893 Y55.3506
N2482 G1 X183.6344 Y58.3404
N2483 G1 X187.0685 Y59.4686
N2484 G1 X193.7719 Y61.6818
N2485 G1 X197.2298 Y62.8298
N2486 G1 X198.9856 Y63.4145
N2487 G1 X200.7689 Y64.0099
N2488 G1 X201.6675 Y64.3104
N2489 G1 X203.4927 Y64.9221
N2490 G1 X207.259 Y66.1901
N2491 G1 X207.3768 Y66.2299
N2492 G1 X209.2907 Y66.8778
N2493 G1 X210.2549 Y67.2052
N2494 G1 X212.2132 Y67.8722
N2495 G1 X214.2016 Y68.5529
N2496 G1 X218.1773 Y69.9258
N2497 G1 X222.1464 Y71.3176
N2498 G1 X222.6696 Y71.5026
N2499 G1 X222.9342 Y71.5966
N2500 G1 X224.0004 Y71.9768
N2501 G1 X224.5352 Y72.1685
N2502 G1 X225.6127 Y72.5571
N2503 G1 X225.8824 Y72.6549
N2504 G1 X226.4238 Y72.8518
N2505 G1 X227.514 Y73.2515
N2506 G1 X228.6112 Y73.6587
N2507 G1 X228.8858 Y73.7616
N2508 G1 X229.4366 Y73.9691
N2509 G1 X230.9171 Y74.5365
N2510 G1 X231.6674 Y74.8323
N2511 G1 X232.2246 Y75.0559
N2512 G1 X232.7823 Y75.2846
N2513 G1 X233.3399 Y75.5198
N2514 G1 X233.6181 Y75.6403
N2515 G1 X233.8959 Y75.7634
N2516 G1 X234.4493 Y76.0204
N2517 G1 X234.4836 Y76.0371
N2518 G1 X234.8744 Y76.2364
N2519 G1 X235.0273 Y76.3206
N2520 G1 X235.0936 Y76.3593
N2521 G1 X235.2722 Y76.4732
N2522 G1 X235.3499 Y76.5306
N2523 G1 X235.4339 Y76.6075
N2524 G1 X235.4613 Y76.6393
N2525 G1 X235.4848 Y76.6835
N2526 G1 X235.4899 Y76.7154
N2527 G1 X235.476 Y76.7507
N2528 G1 X235.4607 Y76.7658
N2529 G1 X235.4116 Y76.7935
N2530 G1 X235.4097 Y76.7941
N2531 G1 X235.3143 Y76.8202
N2532 G1 X235.3011 Y76.8223
N2533 G1 X235.1146 Y76.8408
N2534 G1 X235.085 Y76.842
N2535 G1 X234.7558 Y76.8402
N2536 G1 X234.6608 Y76.8359
N2537 G1 X234.0951 Y76.7928
N2538 G1 X233.826 Y76.7652
N2539 G1 X232.938 Y76.6553
N2540 G1 X232.176 Y76.5448
N2541 G1 X231.9567 Y76.5114
N2542 G1 X231.456 Y76.4326
N2543 G1 X230.8846 Y76.3393
N2544 G1 X230.7372 Y76.3147
N2545 G1 X230.5851 Y76.2892
N2546 G1 X229.8907 Y76.17
N2547 G1 X229.7115 Y76.1387
N2548 G1 X229.3297 Y76.0712
N2549 G1 X228.4575 Y75.914
N2550 G1 X227.9928 Y75.8286
N2551 G1 X225.8107 Y75.4163
N2552 G1 X225.5182 Y75.3595
N2553 G1 X224.1061 Y75.0831
N2554 G1 X222.4936 Y74.7615
N2555 G1 X220.6524 Y74.3881
N2556 G1 X220.1774 Y74.2908
N2557 G1 X219.6871 Y74.19
N2558 G1 X217.4475 Y73.7252
N2559 G1 X216.8696 Y73.6043
N2560 G1 X216.2733 Y73.479
N2561 G1 X213.5486 Y72.9019
N2562 G1 X213.3769 Y72.8653
N2563 G1 X210.2406 Y72.1921
N2564 G1 X208.5685 Y71.8301
N2565 G1 X204.7485 Y70.9959
N2566 G1 X202.7119 Y70.5477
N2567 G1 X200.5402 Y70.0674
N2568 G1 X198.2243 Y69.5527
N2569 G1 X197.0292 Y69.2861
N2570 G1 X196.4221 Y69.1505
N2571 G1 X195.8055 Y69.0126
N2572 G1 X193.1752 Y68.4226
N2573 G1 X193.0928 Y68.404
N2574 G1 X193.0103 Y68.3855
N2575 G1 X192.9276 Y68.3669
N2576 G1 X191.5623 Y68.0595
N2577 G1 X188.6501 Y67.4017
N2578 G1 X187.1473 Y67.0612
N2579 G1 X186.384 Y66.8879
N2580 G1 X184.8083 Y66.5298
N2581 G1 X181.4476 Y65.7635
N2582 G1 X179.7132 Y65.3668
N2583 G1 X177.9232 Y64.9566
N2584 G1 X174.105 Y64.0789
N2585 G1 X172.1346 Y63.6246
N2586 G1 X167.9319 Y62.6528
N2587 G1 X165.763 Y62.1499
N2588 G1 X161.137 Y61.0739
N2589 G1 X156.2036 Y59.9219
N2590 G1 X155.5821 Y59.7764
N2591 G1 X144.3343 Y57.1313
N2592 G1 X133.0911 Y54.4667
N2593 G1 X129.0824 Y53.5117
N2594 G1 X125.6651 Y52.6949
N2595 G1 X123.9295 Y52.2792
N2596 G1 X123.7121 Y52.2271
N2597 G1 X121.9456 Y51.8033
N2598 G1 X118.2993 Y50.9266
N2599 G1 X116.4474 Y50.4803
N2600 G1 X114.5664 Y50.0261
N2601 G1 X110.6835 Y49.086
N2602 G1 X108.7116 Y48.607
N2603 G1 X107.7179 Y48.3653
N2604 G1 X105.6994 Y47.8732
N2605 G1 X105.4465 Y47.8115
N2606 G1 X103.3923 Y47.3091
N2607 G1 X101.3057 Y46.7972
N2608 G1 X99.1866 Y46.2754
N2609 G1 X97.0344 Y45.743
N2610 G1 X94.8487 Y45.1993
N2611 G1 X92.6294 Y44.643
N2612 G1 X90.3761 Y44.0723
N2613 G1 X89.2415 Y43.7814
N2614 G1 X88.6722 Y43.6343
N2615 G1 X87.5256 Y43.3344
N2616 G1 X86.9506 Y43.1815
N2617 G1 X85.9024 Y42.8946
N2618 G1 X85.7942 Y42.8638
N2619 G1 X85.5057 Y42.7803
N2620 G1 X85.3616 Y42.7371
N2621 G1 X85.0747 Y42.6447
N2622 G1 X84.9466 Y42.5935
N2623 G1 X84.935 Y42.5877
N2624 G1 X84.9234 Y42.58
N2625 G1 X84.9181 Y42.567
N2626 G1 X84.9279 Y42.5619
N2627 G1 X84.9544 Y42.5584
N2628 G1 X84.9897 Y42.5578
N2629 G1 X85.0521 Y42.5606
N2630 G1 X85.1718 Y42.571
N2631 G1 X85.4075 Y42.599
N2632 G1 X85.564 Y42.6202
N2633 G1 X85.7722 Y42.6503
N2634 G1 X86.6016 Y42.7808
N2635 G1 X87.1535 Y42.8728
N2636 G1 X87.8886 Y42.9988
N2637 G1 X88.3085 Y43.0721
N2638 G1 X89.4272 Y43.2707
N2639 G1 X89.5716 Y43.2966
N2640 G1 X89.8794 Y43.352
N2641 G1 X91.5205 Y43.6506
N2642 G1 X92.4579 Y43.8232
N2643 G1 X94.9565 Y44.2881
N2644 G1 X96.3839 Y44.5561
N2645 G1 X98.0148 Y44.8641
N2646 G1 X99.8783 Y45.2178
N2647 G1 X108.1224 Y46.7984
N2648 G1 X114.7772 Y48.089
N2649 G1 X115.7381 Y48.276
N2650 G1 X120.1303 Y49.1327
N2651 G1 X134.0903 Y51.8731
N2652 G1 X148.0464 Y54.6332
N2653 G1 X155.2512 Y56.066
N2654 G1 X159.9323 Y56.999
N2655 G1 X161.1212 Y57.2363
N2656 G1 X166.1931 Y58.2498
N2657 G1 X171.6027 Y59.3335
N2658 G1 X174.3945 Y59.8938
N2659 G1 X174.5694 Y59.9289
N2660 G1 X180.5364 Y61.1292
N2661 G1 X186.9003 Y62.4137
N2662 G1 X193.6874 Y63.7893
N2663 G1 X194.5424 Y63.9631
N2664 G1 X198.0723 Y64.6819
N2665 G1 X198.5153 Y64.7722
N2666 G1 X202.1728 Y65.5198
N2667 G1 X203.0943 Y65.7087
N2668 G1 X204.023 Y65.8992
N2669 G1 X207.8572 Y66.6884
N2670 G1 X213.8719 Y67.9381
N2671 G1 X216.0326 Y68.392
N2672 G1 X216.0965 Y68.4055
N2673 G1 X218.1721 Y68.8461
N2674 G1 X218.302 Y68.8738
N2675 G1 X219.3486 Y69.0984
N2676 G1 X220.4029 Y69.3269
N2677 G1 X220.667 Y69.3846
N2678 G1 X221.7308 Y69.6194
N2679 G1 X222.8017 Y69.8622
N2680 G1 X223.7967 Y70.1021
N2681 G1 X223.8773 Y70.1225
N2682 G1 X223.9109 Y70.1313
N2683 G1 X223.9778 Y70.1492
N2684 G1 X224.2437 Y70.2287
N2685 G1 X224.307 Y70.2579
N2686 G1 X224.3104 Y70.2667
N2687 G1 X224.2782 Y70.2731
N2688 G1 X224.2454 Y70.2727
N2689 G1 X224.1803 Y70.268
N2690 G1 X224.051 Y70.2535
N2691 G1 X223.794 Y70.2172
N2692 G1 X223.623 Y70.1905
N2693 G1 X223.3954 Y70.1533
N2694 G1 X223.3347 Y70.1432
N2695 G1 X222.3658 Y69.9734
N2696 G1 X221.7209 Y69.8557
N2697 G1 X221.549 Y69.8239
N2698 G1 X220.6326 Y69.6526
N2699 G1 X219.4113 Y69.4206
N2700 G1 X219.2538 Y69.3905
N2701 G1 X218.9177 Y69.3261
N2702 G1 X218.1498 Y69.1782
N2703 G1 X216.1024 Y68.7809
N2704 G1 X213.3737 Y68.2467
N2705 G1 X212.6461 Y68.1037
N2706 G1 X211.8701 Y67.9509
N2707 G1 X207.7318 Y67.1337
N2708 G1 X207.1979 Y67.0281
N2709 G1 X190.114 Y63.6417
N2710 G1 X185.2324 Y62.6764
N2711 G1 X182.6287 Y62.1625
N2712 G1 X176.6769 Y60.991
N2713 G1 X169.8735 Y59.6583
N2714 G1 X166.2445 Y58.9506
N2715 G1 X166.1308 Y58.9285
N2716 G1 X166.017 Y58.9063
N2717 G1 X165.9028 Y58.8841
N2718 G1 X162.0085 Y58.1278
N2719 G1 X161.0193 Y57.9363
N2720 G1 X158.9771 Y57.5414
N2721 G1 X154.6198 Y56.7022
N2722 G1 X152.3705 Y56.2709
N2723 G1 X150.0484 Y55.8271
N2724 G1 X145.0935 Y54.8854
N2725 G1 X144.4691 Y54.7673
N2726 G1 X141.891 Y54.281
N2727 G1 X141.5674 Y54.2201
N2728 G1 X141.2425 Y54.159
N2729 G1 X138.5598 Y53.6562
N2730 G1 X137.1968 Y53.4017
N2731 G1 X134.3827 Y52.8788
N2732 G1 X131.4772 Y52.3426
N2733 G1 X128.4771 Y51.7933
N2734 G1 X128.1005 Y51.7246
N2735 G1 X124.9905 Y51.1609
N2736 G1 X121.7792 Y50.5848
N2737 G1 X118.4628 Y49.9973
N2738 G1 X116.7778 Y49.702
N2739 G1 X115.9285 Y49.554
N2740 G1 X111.6497 Y48.8181
N2741 G1 X108.6764 Y48.3187
N2742 G1 X107.7621 Y48.1672
N2743 G1 X105.9039 Y47.8626
N2744 G1 X104.0153 Y47.5584
N2745 G1 X102.0957 Y47.2553
N2746 G1 X100.1446 Y46.9545
N2747 G1 X99.1608 Y46.806
N2748 G1 X98.169 Y46.6587
N2749 G1 X95.6867 Y46.3028
N2750 G1 X94.069 Y46.0816
N2751 G1 X92.1661 Y45.837
N2752 G1 X90.2607 Y45.6122
N2753 G1 X89.8259 Y45.5637
N2754 G1 X89.5597 Y45.5352
N2755 G1 X89.025 Y45.4801
N2756 G1 X88.4879 Y45.4276
N2757 G1 X87.9484 Y45.3782
N2758 G1 X86.9078 Y45.2944
N2759 G1 X86.8597 Y45.291
N2760 G1 X86.3125 Y45.255
N2761 G1 X85.4477 Y45.2131
N2762 G1 X85.2079 Y45.205
N2763 G1 X84.9309 Y45.1988
N2764 G1 X84.3748 Y45.1981
N2765 G1 X83.8189 Y45.2173
N2766 G1 X83.8131 Y45.2176
N2767 G1 X83.4443 Y45.2504
N2768 G1 X83.2535 Y45.2752
N2769 G1 X83.0259 Y45.3192
N2770 G1 X82.9764 Y45.3315
N2771 G1 X82.8225 Y45.3794
N2772 G1 X82.7079 Y45.4296
N2773 G1 X82.6225 Y45.4843
N2774 G1 X82.5885 Y45.5137
N2775 G1 X82.5452 Y45.5676
N2776 G1 X82.5192 Y45.6316
N2777 G1 X82.5149 Y45.6534
N2778 G1 X82.517 Y45.7243
N2779 G1 X82.5254 Y45.7587
N2780 G1 X82.5656 Y45.8518
N2781 G1 X82.5677 Y45.8556
N2782 G1 X82.6502 Y45.9745
N2783 G1 X82.6921 Y46.0236
N2784 G1 X82.8591 Y46.1885
N2785 G1 X82.9933 Y46.3025
N2786 G1 X83.0361 Y46.3366
N2787 G1 X83.3639 Y46.5759
N2788 G1 X83.7032 Y46.7987
N2789 G1 X83.7438 Y46.8238
N2790 G1 X83.9528 Y46.9517
N2791 G1 X84.065 Y47.0186
N2792 G1 X84.6514 Y47.3521
N2793 G1 X84.6678 Y47.3611
N2794 G1 X85.0157 Y47.5493
N2795 G1 X85.2021 Y47.6478
N2796 G1 X85.4014 Y47.7517
N2797 G1 X85.6144 Y47.8613
N2798 G1 X86.1027 Y48.1073
N2799 G1 X86.663 Y48.3824
N2800 G1 X86.8081 Y48.4525
N2801 G1 X87.4722 Y48.7686
N2802 G1 X87.644 Y48.8492
N2803 G1 X88.0108 Y49.02
N2804 G1 X89.5054 Y49.6987
N2805 G1 X89.974 Y49.9069
N2806 G1 X90.0991 Y49.9622
N2807 G1 X90.2262 Y50.0183
N2808 G1 X91.988 Y50.7835
N2809 G1 X92.9442 Y51.1897
N2810 G1 X93.6713 Y51.496
N2811 G1 X95.3358 Y52.1884
N2812 G1 X95.766 Y52.3656
N2813 G1 X98.6992 Y53.5568
N2814 G1 X100.3625 Y54.2228
N2815 G1 X101.5912 Y54.7101
N2816 G1 X102.9029 Y55.2269
N2817 G1 X104.303 Y55.7749
N2818 G1 X105.026 Y56.0566
N2819 G1 X105.7726 Y56.3466
N2820 G1 X109.8907 Y57.9316
N2821 G1 X113.7484 Y59.397
N2822 G1 X115.8791 Y60.1998
N2823 G1 X116.9793 Y60.6127
N2824 G1 X117.5383 Y60.822
N2825 G1 X119.924 Y61.7126
N2826 G1 X122.4702 Y62.6581
N2827 G1 X122.55 Y62.6877
N2828 G1 X125.2728 Y63.6935
N2829 G1 X128.1785 Y64.7616
N2830 G1 X131.2796 Y65.8959
N2831 G1 X132.8809 Y66.4795
N2832 G1 X134.5341 Y67.0807
N2833 G1 X138.0624 Y68.3591
N2834 G1 X139.8841 Y69.017
N2835 G1 X143.7718 Y70.416
N2836 G1 X145.779 Y71.1358
N2837 G1 X150.0626 Y72.6668
N2838 G1 X154.634 Y74.2933
N2839 G1 X162.9336 Y77.2284
N2840 G1 X171.2399 Y80.1448
N2841 G1 X179.0454 Y82.8659
N2842 G1 X179.4288 Y82.9992
N2843 G1 X182.595 Y84.0979
N2844 G1 X183.393 Y84.3744
N2845 G1 X184.1973 Y84.6528
N2846 G1 X187.5187 Y85.8007
N2847 G1 X190.9483 Y86.9825
N2848 G1 X191.3788 Y87.1306
N2849 G1 X194.9342 Y88.3514
N2850 G1 X198.6057 Y89.6075
N2851 G1 X202.3972 Y90.8995
N2852 G1 X203.3528 Y91.2242
N2853 G1 X207.2999 Y92.5606
N2854 G1 X209.3058 Y93.2365
N2855 G1 X211.3443 Y93.9206
N2856 G1 X211.8561 Y94.0918
N2857 G1 X212.888 Y94.4363
N2858 G1 X213.9284 Y94.7824
N2859 G1 X214.1891 Y94.869
N2860 G1 X216.3084 Y95.5688
N2861 G1 X217.3775 Y95.9184
N2862 G1 X217.9145 Y96.0928
N2863 G1 X218.454 Y96.2668
N2864 G1 X218.996 Y96.4402
N2865 G1 X219.5406 Y96.6123
N2866 G1 X220.3771 Y96.8687
N2867 G1 X220.6429 Y96.9458
N2868 G1 X220.9223 Y97.0179
N2869 G1 X220.994 Y97.028
N2870 G1 X221.0021 Y97.0224
N2871 G1 X220.9943 Y97.0143
N2872 G0 Z100.0
N2873 G0 Y96.4851
N2874 G1 F100.0 Z0.0
N2875 G1 F1000.0 X221.0021 Y96.4932
N2876 G1 X220.994 Y96.4989
N2877 G1 X220.9223 Y96.4887
N2878 G1 X220.6429 Y96.4166
N2879 G1 X219.8046 Y96.1663
N2880 G1 X219.5406 Y96.0831
N2881 G1 X218.996 Y95.911
N2882 G1 X218.454 Y95.7376
N2883 G1 X217.9145 Y95.5636
N2884 G1 X217.3775 Y95.3892
N2885 G1 X216.3084 Y95.0396
N2886 G1 X214.1891 Y94.3398
N2887 G1 X213.9284 Y94.2533
N2888 G1 X212.888 Y93.9071
N2889 G1 X211.8561 Y93.5626
N2890 G1 X211.3443 Y93.3914
N2891 G1 X209.3058 Y92.7074
N2892 G1 X207.2999 Y92.0315
N2893 G1 X203.3528 Y90.695
N2894 G1 X202.3972 Y90.3703
N2895 G1 X198.6057 Y89.0784
N2896 G1 X194.9342 Y87.8222
N2897 G1 X191.3788 Y86.6015
N2898 G1 X190.9483 Y86.4534
N2899 G1 X187.5187 Y85.2716
N2900 G1 X184.1973 Y84.1236
N2901 G1 X183.393 Y83.8452
N2902 G1 X182.595 Y83.5687
N2903 G1 X179.4288 Y82.47
N2904 G1 X179.0454 Y82.3368
N2905 G1 X170.7329 Y79.4382
N2906 G1 X162.427 Y76.5207
N2907 G1 X154.634 Y73.7641
N2908 G1 X150.0626 Y72.1377
N2909 G1 X145.779 Y70.6067
N2910 G1 X143.7718 Y69.8868
N2911 G1 X139.8841 Y68.4878
N2912 G1 X138.0624 Y67.83
N2913 G1 X134.5341 Y66.5515
N2914 G1 X132.8809 Y65.9504
N2915 G1 X131.2796 Y65.3667
N2916 G1 X128.1785 Y64.2324
N2917 G1 X125.2728 Y63.1643
N2918 G1 X122.55 Y62.1585
N2919 G1 X122.4702 Y62.129
N2920 G1 X119.924 Y61.1834
N2921 G1 X117.5383 Y60.2929
N2922 G1 X116.9793 Y60.0835
N2923 G1 X115.8791 Y59.6706
N2924 G1 X113.7484 Y58.8678
N2925 G1 X109.6237 Y57.3003
N2926 G1 X105.7726 Y55.8174
N2927 G1 X105.026 Y55.5275
N2928 G1 X104.303 Y55.2458
N2929 G1 X102.9029 Y54.6977
N2930 G1 X101.5912 Y54.1809
N2931 G1 X100.3625 Y53.6936
N2932 G1 X97.4251 Y52.5129
N2933 G1 X95.766 Y51.8364
N2934 G1 X95.3358 Y51.6592
N2935 G1 X93.6713 Y50.9669
N2936 G1 X92.9442 Y50.6605
N2937 G1 X91.1781 Y49.9052
N2938 G1 X90.2262 Y49.4891
N2939 G1 X90.0991 Y49.4331
N2940 G1 X89.974 Y49.3778
N2941 G1 X88.4768 Y48.7048
N2942 G1 X88.0108 Y48.4908
N2943 G1 X87.644 Y48.3201
N2944 G1 X87.4722 Y48.2394
N2945 G1 X86.8081 Y47.9233
N2946 G1 X86.663 Y47.8532
N2947 G1 X86.1027 Y47.5782
N2948 G1 X85.6144 Y47.3321
N2949 G1 X85.4014 Y47.2226
N2950 G1 X85.2021 Y47.1187
N2951 G1 X85.0157 Y47.0201
N2952 G1 X84.6678 Y46.8319
N2953 G1 X84.0812 Y46.4989
N2954 G1 X84.065 Y46.4894
N2955 G1 X83.9528 Y46.4226
N2956 G1 X83.7438 Y46.2946
N2957 G1 X83.4033 Y46.0738
N2958 G1 X83.074 Y45.8364
N2959 G1 X83.0361 Y45.8074
N2960 G1 X82.9933 Y45.7733
N2961 G1 X82.8161 Y45.6194
N2962 G1 X82.6921 Y45.4945
N2963 G1 X82.6024 Y45.3809
N2964 G1 X82.5677 Y45.3265
N2965 G1 X82.5268 Y45.2337
N2966 G1 X82.5254 Y45.2295
N2967 G1 X82.5134 Y45.1596
N2968 G1 X82.5149 Y45.1242
N2969 G1 X82.5349 Y45.0581
N2970 G1 X82.5729 Y45.0004
N2971 G1 X82.5885 Y44.9846
N2972 G1 X82.6687 Y44.9226
N2973 G1 X82.7079 Y44.9004
N2974 G1 X82.8564 Y44.8379
N2975 G1 X82.9764 Y44.8023
N2976 G1 X83.2032 Y44.7541
N2977 G1 X83.2535 Y44.7461
N2978 G1 X83.6212 Y44.703
N2979 G1 X83.8131 Y44.6884
N2980 G1 X84.3689 Y44.669
N2981 G1 X84.9251 Y44.6696
N2982 G1 X84.9309 Y44.6697
N2983 G1 X85.2079 Y44.6758
N2984 G1 X86.073 Y44.7122
N2985 G1 X86.3125 Y44.7258
N2986 G1 X86.8597 Y44.7618
N2987 G1 X87.9003 Y44.8447
N2988 G1 X87.9484 Y44.849
N2989 G1 X88.4879 Y44.8984
N2990 G1 X89.025 Y44.9509
N2991 G1 X89.5597 Y45.0061
N2992 G1 X89.8259 Y45.0345
N2993 G1 X91.7358 Y45.2553
N2994 G1 X93.6433 Y45.496
N2995 G1 X94.069 Y45.5525
N2996 G1 X96.544 Y45.8942
N2997 G1 X98.169 Y46.1296
N2998 G1 X99.1608 Y46.2768
N2999 G1 X100.1446 Y46.4253
N3000 G1 X102.0957 Y46.7261
N3001 G1 X104.0153 Y47.0292
N3002 G1 X105.9039 Y47.3335
N3003 G1 X107.7621 Y47.638
N3004 G1 X108.6764 Y47.7896
N3005 G1 X112.9524 Y48.5108
N3006 G1 X115.9285 Y49.0248
N3007 G1 X116.7778 Y49.1728
N3008 G1 X118.4629 Y49.4681
N3009 G1 X121.7792 Y50.0557
N3010 G1 X124.9905 Y50.6317
N3011 G1 X128.1006 Y51.1955
N3012 G1 X128.4771 Y51.2641
N3013 G1 X131.4772 Y51.8135
N3014 G1 X134.3828 Y52.3497
N3015 G1 X137.1969 Y52.8726
N3016 G1 X138.5598 Y53.127
N3017 G1 X141.2425 Y53.6299
N3018 G1 X141.5674 Y53.691
N3019 G1 X141.891 Y53.7518
N3020 G1 X144.4691 Y54.2381
N3021 G1 X145.0935 Y54.3563
N3022 G1 X150.0484 Y55.2979
N3023 G1 X152.3705 Y55.7418
N3024 G1 X154.6198 Y56.1731
N3025 G1 X158.9771 Y57.0122
N3026 G1 X161.0193 Y57.4071
N3027 G1 X162.0085 Y57.5987
N3028 G1 X165.9029 Y58.355
N3029 G1 X166.017 Y58.3772
N3030 G1 X166.1308 Y58.3993
N3031 G1 X166.2445 Y58.4214
N3032 G1 X169.8735 Y59.1291
N3033 G1 X176.6769 Y60.4619
N3034 G1 X182.6287 Y61.6334
N3035 G1 X185.2324 Y62.1473
N3036 G1 X190.114 Y63.1125
N3037 G1 X207.1979 Y66.4989
N3038 G1 X207.7319 Y66.6046
N3039 G1 X211.8701 Y67.4218
N3040 G1 X212.6461 Y67.5745
N3041 G1 X213.3737 Y67.7176
N3042 G1 X216.1024 Y68.2517
N3043 G1 X218.1498 Y68.6491
N3044 G1 X218.9177 Y68.7969
N3045 G1 X219.2538 Y68.8613
N3046 G1 X219.4113 Y68.8915
N3047 G1 X220.6326 Y69.1234
N3048 G1 X221.549 Y69.2947
N3049 G1 X221.7209 Y69.3265
N3050 G1 X222.3658 Y69.4442
N3051 G1 X223.3347 Y69.614
N3052 G1 X223.3954 Y69.6242
N3053 G1 X223.623 Y69.6613
N3054 G1 X223.794 Y69.688
N3055 G1 X224.051 Y69.7243
N3056 G1 X224.1803 Y69.7389
N3057 G1 X224.2454 Y69.7435
N3058 G1 X224.2782 Y69.744
N3059 G1 X224.3104 Y69.7375
N3060 G1 X224.307 Y69.7287
N3061 G1 X224.2437 Y69.6996
N3062 G1 X223.9778 Y69.62
N3063 G1 X223.9109 Y69.6021
N3064 G1 X223.8773 Y69.5933
N3065 G1 X222.8827 Y69.3518
N3066 G1 X222.8017 Y69.333
N3067 G1 X221.7308 Y69.0903
N3068 G1 X220.667 Y68.8554
N3069 G1 X220.4029 Y68.7977
N3070 G1 X219.3486 Y68.5692
N3071 G1 X218.302 Y68.3446
N3072 G1 X218.1721 Y68.3169
N3073 G1 X216.0965 Y67.8764
N3074 G1 X216.0326 Y67.8629
N3075 G1 X210.0179 Y66.6058
N3076 G1 X207.8572 Y66.1593
N3077 G1 X204.023 Y65.3701
N3078 G1 X203.0943 Y65.1795
N3079 G1 X202.1728 Y64.9907
N3080 G1 X198.5153 Y64.2431
N3081 G1 X198.0723 Y64.1527
N3082 G1 X194.5424 Y63.4339
N3083 G1 X193.6874 Y63.2602
N3084 G1 X186.9003 Y61.8846
N3085 G1 X180.5364 Y60.6001
N3086 G1 X174.5694 Y59.3998
N3087 G1 X174.3945 Y59.3646
N3088 G1 X171.6027 Y58.8043
N3089 G1 X166.1931 Y57.7207
N3090 G1 X161.1212 Y56.7071
N3091 G1 X159.9323 Y56.4698
N3092 G1 X155.2512 Y55.5369
N3093 G1 X141.253 Y52.758
N3094 G1 X127.2509 Y49.9989
N3095 G1 X120.1303 Y48.6035
N3096 G1 X115.7381 Y47.7469
N3097 G1 X114.7772 Y47.5599
N3098 G1 X106.5102 Y45.9585
N3099 G1 X99.8783 Y44.6886
N3100 G1 X98.0148 Y44.3349
N3101 G1 X96.3839 Y44.027
N3102 G1 X94.9565 Y43.7589
N3103 G1 X92.4579 Y43.294
N3104 G1 X91.5205 Y43.1215
N3105 G1 X89.8794 Y42.8228
N3106 G1 X89.5716 Y42.7674
N3107 G1 X89.4272 Y42.7415
N3108 G1 X88.3085 Y42.543
N3109 G1 X87.8886 Y42.4697
N3110 G1 X87.1535 Y42.3436
N3111 G1 X86.6016 Y42.2516
N3112 G1 X85.7722 Y42.1211
N3113 G1 X85.564 Y42.0911
N3114 G1 X85.4075 Y42.0698
N3115 G1 X85.1718 Y42.0418
N3116 G1 X85.0521 Y42.0314
N3117 G1 X84.9897 Y42.0287
N3118 G1 X84.9544 Y42.0292
N3119 G1 X84.9279 Y42.0328
N3120 G1 X84.9181 Y42.0378
N3121 G1 X84.9234 Y42.0508
N3122 G1 X84.935 Y42.0586
N3123 G1 X85.0624 Y42.1115
N3124 G1 X85.0747 Y42.1156
N3125 G1 X85.3616 Y42.2079
N3126 G1 X85.5057 Y42.2511
N3127 G1 X85.7942 Y42.3347
N3128 G1 X86.8413 Y42.6234
N3129 G1 X86.9506 Y42.6523
N3130 G1 X87.5256 Y42.8052
N3131 G1 X88.6722 Y43.1051
N3132 G1 X89.2415 Y43.2523
N3133 G1 X90.3761 Y43.5431
N3134 G1 X92.6294 Y44.1139
N3135 G1 X94.8487 Y44.6701
N3136 G1 X97.0344 Y45.2138
N3137 G1 X99.1866 Y45.7462
N3138 G1 X101.3057 Y46.2681
N3139 G1 X103.3923 Y46.7799
N3140 G1 X105.4465 Y47.2823
N3141 G1 X105.6994 Y47.344
N3142 G1 X107.7179 Y47.8361
N3143 G1 X108.7116 Y48.0779
N3144 G1 X110.6835 Y48.5568
N3145 G1 X114.5664 Y49.4969
N3146 G1 X116.4474 Y49.9511
N3147 G1 X118.2993 Y50.3974
N3148 G1 X121.9456 Y51.2741
N3149 G1 X123.7121 Y51.6979
N3150 G1 X123.9295 Y51.75
N3151 G1 X125.6651 Y52.1657
N3152 G1 X129.0824 Y52.9825
N3153 G1 X140.3217 Y55.6535
N3154 G1 X151.5656 Y58.3051
N3155 G1 X155.5821 Y59.2473
N3156 G1 X156.2036 Y59.3927
N3157 G1 X161.137 Y60.5447
N3158 G1 X165.763 Y61.6207
N3159 G1 X167.9319 Y62.1237
N3160 G1 X172.1346 Y63.0955
N3161 G1 X174.105 Y63.5497
N3162 G1 X177.9232 Y64.4274
N3163 G1 X179.7132 Y64.8376
N3164 G1 X181.4476 Y65.2343
N3165 G1 X184.8083 Y66.0006
N3166 G1 X186.384 Y66.3588
N3167 G1 X187.1473 Y66.532
N3168 G1 X188.6501 Y66.8725
N3169 G1 X191.5623 Y67.5303
N3170 G1 X192.9276 Y67.8377
N3171 G1 X193.0103 Y67.8563
N3172 G1 X193.0928 Y67.8749
N3173 G1 X193.1752 Y67.8934
N3174 G1 X195.8055 Y68.4834
N3175 G1 X196.4221 Y68.6213
N3176 G1 X197.0292 Y68.7569
N3177 G1 X198.2243 Y69.0235
N3178 G1 X200.5402 Y69.5382
N3179 G1 X202.7119 Y70.0185
N3180 G1 X204.7485 Y70.4668
N3181 G1 X208.5685 Y71.3009
N3182 G1 X210.2406 Y71.6629
N3183 G1 X213.3769 Y72.3362
N3184 G1 X213.5486 Y72.3728
N3185 G1 X216.2733 Y72.9499
N3186 G1 X216.8696 Y73.0751
N3187 G1 X217.4475 Y73.1961
N3188 G1 X219.6871 Y73.6608
N3189 G1 X220.1774 Y73.7616
N3190 G1 X220.6524 Y73.8589
N3191 G1 X222.4936 Y74.2324
N3192 G1 X224.1061 Y74.5539
N3193 G1 X225.5182 Y74.8303
N3194 G1 X227.6998 Y75.2453
N3195 G1 X227.9928 Y75.2995
N3196 G1 X228.4575 Y75.3848
N3197 G1 X229.3297 Y75.5421
N3198 G1 X229.7115 Y75.6095
N3199 G1 X229.8907 Y75.6408
N3200 G1 X230.5851 Y75.76
N3201 G1 X230.7372 Y75.7856
N3202 G1 X230.8846 Y75.8102
N3203 G1 X231.456 Y75.9035
N3204 G1 X231.9567 Y75.9822
N3205 G1 X232.176 Y76.0156
N3206 G1 X233.0618 Y76.1426
N3207 G1 X233.826 Y76.236
N3208 G1 X234.3909 Y76.2887
N3209 G1 X234.6608 Y76.3067
N3210 G1 X234.9899 Y76.3143
N3211 G1 X235.085 Y76.3128
N3212 G1 X235.2717 Y76.2974
N3213 G1 X235.3011 Y76.2931
N3214 G1 X235.3972 Y76.2696
N3215 G1 X235.4097 Y76.2649
N3216 G1 X235.4592 Y76.2378
N3217 G1 X235.4607 Y76.2366
N3218 G1 X235.4844 Y76.207
N3219 G1 X235.4899 Y76.1863
N3220 G1 X235.4785 Y76.1375
N3221 G1 X235.4613 Y76.1101
N3222 G1 X235.3823 Y76.028
N3223 G1 X235.3499 Y76.0014
N3224 G1 X235.1763 Y75.8799
N3225 G1 X235.0936 Y75.8301
N3226 G1 X235.0273 Y75.7915
N3227 G1 X234.6402 Y75.5851
N3228 G1 X234.4836 Y75.5079
N3229 G1 X234.4493 Y75.4912
N3230 G1 X233.8959 Y75.2342
N3231 G1 X233.6181 Y75.1111
N3232 G1 X233.3399 Y74.9906
N3233 G1 X232.7823 Y74.7554
N3234 G1 X232.2246 Y74.5267
N3235 G1 X231.6674 Y74.3031
N3236 G1 X230.1907 Y73.7262
N3237 G1 X229.4366 Y73.4399
N3238 G1 X228.8858 Y73.2324
N3239 G1 X228.6112 Y73.1296
N3240 G1 X227.514 Y72.7223
N3241 G1 X226.4238 Y72.3226
N3242 G1 X225.8824 Y72.1257
N3243 G1 X225.6127 Y72.0279
N3244 G1 X224.5352 Y71.6394
N3245 G1 X224.0004 Y71.4476
N3246 G1 X222.9342 Y71.0674
N3247 G1 X222.6696 Y70.9734
N3248 G1 X218.7013 Y69.5792
N3249 G1 X214.7265 Y68.2038
N3250 G1 X214.2016 Y68.0237
N3251 G1 X212.2132 Y67.3431
N3252 G1 X210.2549 Y66.676
N3253 G1 X209.2907 Y66.3486
N3254 G1 X207.3768 Y65.7008
N3255 G1 X207.259 Y65.6609
N3256 G1 X203.4927 Y64.3929
N3257 G1 X201.6675 Y63.7812
N3258 G1 X200.7689 Y63.4807
N3259 G1 X198.9856 Y62.8854
N3260 G1 X197.2298 Y62.3006
N3261 G1 X193.7719 Y61.1526
N3262 G1 X187.0685 Y58.9394
N3263 G1 X177.9258 Y55.9424
N3264 G1 X174.4893 Y54.8214
N3265 G1 X171.736 Y53.9252
N3266 G1 X169.0683 Y53.0584
N3267 G1 X163.8986 Y51.3827
N3268 G1 X159.0505 Y49.816
N3269 G1 X154.5044 Y48.3507
N3270 G1 X150.2415 Y46.9798
N3271 G1 X148.243 Y46.3382
N3272 G1 X144.3702 Y45.0967
N3273 G1 X137.107 Y42.7747
N3274 G1 X130.7496 Y40.7492
N3275 G1 X125.1854 Y38.9817
N3276 G1 X122.7505 Y38.2099
N3277 G1 X121.6091 Y37.8485
N3278 G1 X119.3974 Y37.1488
N3279 G1 X119.1381 Y37.0668
N3280 G1 X115.0229 Y35.7675
N3281 G1 X114.5727 Y35.6256
N3282 G1 X114.1294 Y35.4859
N3283 G1 X112.3844 Y34.9363
N3284 G1 X109.112 Y33.9075
N3285 G1 X107.68 Y33.4581
N3286 G1 X104.9947 Y32.6169
N3287 G1 X104.4072 Y32.4331
N3288 G1 X99.8531 Y31.0126
N3289 G1 X96.4358 Y29.9525
N3290 G1 X91.3053 Y28.3764
N3291 G1 X90.0212 Y27.987
N3292 G1 X89.0574 Y27.6973
N3293 G1 X88.8766 Y27.6433
N3294 G1 X88.707 Y27.5927
N3295 G1 X88.0708 Y27.4043
N3296 G1 X87.5932 Y27.2645
N3297 G1 X86.8754 Y27.0595
N3298 G1 X86.6953 Y27.0097
N3299 G1 X86.4245 Y26.9379
N3300 G1 X86.288 Y26.9047
N3301 G1 X86.2536 Y26.8971
N3302 G1 X86.2015 Y26.8867
N3303 G1 X86.1748 Y26.8827
N3304 G1 X86.1606 Y26.8815
N3305 G1 X86.1522 Y26.8817
N3306 G1 X86.1485 Y26.8891
N3307 G1 X86.2181 Y26.9276
N3308 G1 X86.2542 Y26.9442
N3309 G1 X86.4 Y27.0067
N3310 G1 X86.4366 Y27.0219
N3311 G1 X86.7307 Y27.1398
N3312 G1 X87.3206 Y27.3678
N3313 G1 X87.9098 Y27.5908
N3314 G1 X89.0857 Y28.0292
N3315 G1 X89.6697 Y28.2451
N3316 G1 X90.2516 Y28.4593
N3317 G1 X95.4822 Y30.3646
N3318 G1 X99.543 Y31.8291
N3319 G1 X103.9032 Y33.3953
N3320 G1 X106.0157 Y34.1522
N3321 G1 X110.1757 Y35.6399
N3322 G1 X114.2067 Y37.0784
N3323 G1 X116.1595 Y37.7743
N3324 G1 X120.0046 Y39.1431
N3325 G1 X127.4561 Y41.7902
N3326 G1 X130.9497 Y43.0292
N3327 G1 X131.3728 Y43.1792
N3328 G1 X138.1164 Y45.5668
N3329 G1 X138.9068 Y45.8463
N3330 G1 X142.0437 Y46.9552
N3331 G1 X148.1224 Y49.1013
N3332 G1 X149.5473 Y49.6038
N3333 G1 X155.1582 Y51.5809
N3334 G1 X160.4194 Y53.4319
N3335 G1 X161.036 Y53.6486
N3336 G1 X165.9307 Y55.3679
N3337 G1 X170.5202 Y56.9777
N3338 G1 X171.596 Y57.3547
N3339 G1 X173.7141 Y58.0966
N3340 G1 X175.7661 Y58.8149
N3341 G1 X179.7424 Y60.2052
N3342 G1 X187.1996 Y62.8072
N3343 G1 X193.7267 Y65.0778
N3344 G1 X193.816 Y65.1089
N3345 G1 X199.518 Y67.0864
N3346 G1 X202.0134 Y67.9497
N3347 G1 X203.1832 Y68.354
N3348 G1 X205.4501 Y69.1365
N3349 G1 X213.9548 Y72.0591
N3350 G1 X217.1462 Y73.1492
N3351 G1 X217.3208 Y73.2087
N3352 G1 X217.4941 Y73.2677
N3353 G1 X220.2444 Y74.203
N3354 G1 X220.8462 Y74.407
N3355 G1 X221.4294 Y74.6046
N3356 G1 X223.6895 Y75.3681
N3357 G1 X225.668 Y76.0334
N3358 G1 X227.4002 Y76.6128
N3359 G1 X228.9167 Y77.1173
N3360 G1 X229.2487 Y77.2274
N3361 G1 X230.5352 Y77.6523
N3362 G1 X231.0984 Y77.8374
N3363 G1 X232.1548 Y78.183
N3364 G1 X232.6172 Y78.3335
N3365 G1 X233.051 Y78.4741
N3366 G1 X234.6789 Y78.9968
N3367 G1 X235.9021 Y79.3821
N3368 G1 X236.3617 Y79.5245
N3369 G1 X237.167 Y79.7698
N3370 G1 X237.3184 Y79.8151
N3371 G1 X237.8865 Y79.9821
N3372 G1 X238.6085 Y80.184
N3373 G1 X238.7429 Y80.2193
N3374 G1 X238.9586 Y80.2739
N3375 G1 X239.1212 Y80.3125
N3376 G1 X239.2438 Y80.3393
N3377 G1 X239.3361 Y80.3576
N3378 G1 X239.4759 Y80.3797
N3379 G1 X239.5468 Y80.3856
N3380 G1 X239.6034 Y80.3816
N3381 G1 X239.6174 Y80.3773
N3382 G1 X239.6291 Y80.3624
N3383 G1 X239.6284 Y80.3551
N3384 G1 X239.6063 Y80.323
N3385 G1 X239.5123 Y80.25
N3386 G1 X239.4836 Y80.2323
N3387 G1 X239.2476 Y80.0975
N3388 G1 X239.219 Y80.0827
N3389 G1 X238.9487 Y79.9453
N3390 G1 X238.9317 Y79.9369
N3391 G1 X238.6593 Y79.8054
N3392 G1 X238.591 Y79.7731
N3393 G1 X237.4726 Y79.2649
N3394 G1 X236.386 Y78.7918
N3395 G1 X235.84 Y78.558
N3396 G1 X235.2954 Y78.3268
N3397 G1 X234.2091 Y77.87
N3398 G1 X233.6695 Y77.6448
N3399 G1 X233.1317 Y77.4213
N3400 G1 X232.0595 Y76.9782
N3401 G1 X231.5272 Y76.7592
N3402 G1 X230.4662 Y76.3243
N3403 G1 X229.9396 Y76.1092
N3404 G1 X227.8401 Y75.2555
N3405 G1 X225.7716 Y74.4194
N3406 G1 X223.7342 Y73.5996
N3407 G1 X223.2326 Y73.3982
N3408 G1 X221.2337 Y72.5974
N3409 G1 X219.2652 Y71.8109
N3410 G1 X218.7807 Y71.6176
N3411 G1 X216.8497 Y70.8483
N3412 G1 X214.9485 Y70.0923
N3413 G1 X211.2043 Y68.6069
N3414 G1 X209.3902 Y67.8885
N3415 G1 X205.8181 Y66.4762
N3416 G1 X198.8948 Y63.7455
N3417 G1 X197.2717 Y63.1063
N3418 G1 X194.0762 Y61.8485
N3419 G1 X192.5282 Y61.2396
N3420 G1 X189.4804 Y60.0414
N3421 G1 X177.6688 Y55.4022
N3422 G1 X156.9974 Y47.2857
N3423 G1 X155.0597 Y46.5241
N3424 G1 X151.3055 Y45.0479
N3425 G1 X144.2676 Y42.2771
N3426 G1 X138.1111 Y39.8485
N3427 G1 X138.0269 Y39.8153
N3428 G1 X132.6521 Y37.69
N3429 G1 X130.3012 Y36.7586
N3430 G1 X129.1993 Y36.3216
N3431 G1 X127.0647 Y35.4742
N3432 G1 X126.8146 Y35.3748
N3433 G1 X122.8449 Y33.7949
N3434 G1 X116.9362 Y31.4327
N3435 G1 X111.035 Y29.0519
N3436 G1 X108.9711 Y28.2142
N3437 G1 X107.2401 Y27.5071
N3438 G1 X105.7266 Y26.8854
N3439 G1 X104.4034 Y26.3387
N3440 G1 X103.2464 Y25.8578
N3441 G1 X102.235 Y25.4345
N3442 G1 X101.7929 Y25.2485
N3443 G1 X101.3785 Y25.0735
N3444 G1 X100.6022 Y24.7439
N3445 G1 X100.2628 Y24.599
N3446 G1 X100.1038 Y24.5308
N3447 G1 X99.9498 Y24.4647
N3448 G1 X99.3536 Y24.2074
N3449 G1 X99.2232 Y24.1508
N3450 G1 X98.2149 Y23.7083
N3451 G1 X98.0261 Y23.6243
N3452 G1 X97.3199 Y23.3056
N3453 G1 X97.1878 Y23.2449
N3454 G1 X97.0639 Y23.1877
N3455 G1 X96.2223 Y22.7856
N3456 G1 X96.1416 Y22.7459
N3457 G1 X95.9129 Y22.6289
N3458 G1 X95.8701 Y22.6064
N3459 G1 X95.5859 Y22.4494
N3460 G1 X95.5537 Y22.4301
N3461 G1 X95.3994 Y22.3306
N3462 G1 X95.3256 Y22.272
N3463 G1 X95.292 Y22.2356
N3464 G1 X95.28 Y22.2123
N3465 G1 X95.2826 Y22.1901
N3466 G1 X95.2854 Y22.1866
N3467 G1 X95.3214 Y22.1703
N3468 G1 X95.3224 Y22.1702
N3469 G1 X95.4009 Y22.1651
N3470 G1 X95.6189 Y22.187
N3471 G1 X95.7109 Y22.2024
N3472 G1 X96.0162 Y22.2626
N3473 G1 X96.3189 Y22.3312
N3474 G1 X97.1175 Y22.5319
N3475 G1 X97.5185 Y22.6405
N3476 G1 X98.1107 Y22.8046
N3477 G1 X98.4052 Y22.8879
N3478 G1 X99.5788 Y23.2278
N3479 G1 X100.7406 Y23.5734
N3480 G1 X101.8917 Y23.9219
N3481 G1 X103.0324 Y24.2719
N3482 G1 X104.1634 Y24.6224
N3483 G1 X105.2846 Y24.9727
N3484 G1 X107.5076 Y25.6739
N3485 G1 X108.601 Y26.0214
N3486 G1 X110.7695 Y26.7147
N3487 G1 X111.3029 Y26.886
N3488 G1 X113.4276 Y27.5709
N3489 G1 X115.5181 Y28.2482
N3490 G1 X117.575 Y28.9175
N3491 G1 X118.5872 Y29.2477
N3492 G1 X122.6025 Y30.5631
N3493 G1 X130.3766 Y33.1288
N3494 G1 X134.0187 Y34.3377
N3495 G1 X134.2392 Y34.411
N3496 G1 X137.7595 Y35.5831
N3497 G1 X141.1688 Y36.7212
N3498 G1 X142.8199 Y37.2733
N3499 G1 X146.0702 Y38.3618
N3500 G1 X152.3656 Y40.4758
N3501 G1 X155.3159 Y41.469
N3502 G1 X158.1736 Y42.4323
N3503 G1 X160.9416 Y43.3667
N3504 G1 X166.3037 Y45.1799
N3505 G1 X171.3295 Y46.8832
N3506 G1 X171.6239 Y46.9831
N3507 G1 X176.3161 Y48.5767
N3508 G1 X180.7143 Y50.0731
N3509 G1 X181.7451 Y50.4241
N3510 G1 X185.803 Y51.8076
N3511 G1 X187.705 Y52.4568
N3512 G1 X195.0736 Y54.9766
N3513 G1 X198.2967 Y56.0811
N3514 G1 X201.3179 Y57.1179
N3515 G1 X206.9815 Y59.0651
N3516 G1 X208.2202 Y59.4917
N3517 G1 X213.0194 Y61.147
N3518 G1 X217.2176 Y62.5986
N3519 G1 X219.0539 Y63.2348
N3520 G1 X222.4963 Y64.4296
N3521 G1 X225.5077 Y65.4775
N3522 G1 X228.1418 Y66.3966
N3523 G1 X230.4461 Y67.2027
N3524 G1 X232.4617 Y67.9099
N3525 G1 X235.9872 Y69.1526
N3526 G1 X236.3176 Y69.2695
N3527 G1 X238.8769 Y70.1787
N3528 G1 X241.8066 Y71.2303
N3529 G1 X242.7102 Y71.5589
N3530 G1 X243.6666 Y71.9097
